{
  "type":"map", "version":"1.12", "tiledversion":"1.12.2",
  "orientation":"orthogonal", "renderorder":"right-down", "infinite":false,
  "width":20, "height":18, "tilewidth":48, "tileheight":48,
  "nextlayerid":5, "nextobjectid":17, "backgroundcolor":"#463a28",
  "properties":[
    {"name":"schemaVersion","type":"string","value":"region-map.v1"},
    {"name":"regionId","type":"string","value":"rg_jiangnan_taihu"},
    {"name":"sceneId","type":"string","value":"sc_00_yueying"},
    {"name":"chapterScope","type":"string","value":"ch00_yuenv"},
    {"name":"eraLayer","type":"string","value":"ch00"}
  ],
  "tilesets":[
    {"firstgid":1,"source":"../../../tiled/tilesets/terrain.tsj"},
    {"firstgid":49,"source":"../../../tiled/tilesets/height.tsj"}
  ],
  "layers":[
    {"id":1,"type":"tilelayer","name":"terrain","x":0,"y":0,"width":20,"height":18,"opacity":1,"visible":true,"data":[
      0,0,0,0,0,4,4,4,4,4,0,4,4,4,4,4,0,0,0,0,
      0,0,0,0,4,4,4,4,2,2,0,2,4,4,4,4,0,0,0,0,
      0,0,0,4,4,4,2,2,2,2,0,2,2,2,4,4,4,0,0,0,
      0,0,0,4,4,2,2,2,2,13,0,13,2,2,2,4,4,0,0,0,
      0,0,4,4,2,2,2,2,1,1,0,1,1,2,2,2,4,4,0,0,
      0,4,4,2,2,2,2,1,1,1,0,1,1,1,2,2,2,4,4,0,
      0,4,2,2,2,2,1,1,1,1,0,1,1,1,1,2,2,2,4,0,
      0,4,2,2,2,1,1,1,1,1,0,1,1,1,1,1,2,2,4,0,
      0,4,2,2,1,1,1,1,1,1,0,1,1,1,1,1,1,2,4,0,
      4,4,2,1,1,1,1,1,1,1,0,1,1,1,1,1,1,26,4,0,
      4,4,2,1,1,1,1,1,1,1,0,1,1,1,1,1,2,2,4,0,
      0,4,2,2,1,1,1,1,1,1,0,1,1,1,1,2,2,2,4,0,
      0,4,2,2,2,1,1,1,1,1,0,1,1,1,2,2,2,2,4,0,
      0,4,2,2,2,2,1,1,1,1,0,1,1,2,2,2,2,4,0,0,
      0,0,4,2,2,2,2,7,7,13,0,13,7,7,2,2,4,0,0,0,
      0,0,0,4,2,2,2,7,7,7,0,7,7,2,2,4,0,0,0,0,
      0,0,0,0,4,2,2,2,7,7,0,7,2,2,2,4,0,0,0,0,
      0,0,0,0,0,4,4,4,7,7,0,7,4,4,0,0,0,0,0,0
    ]},
    {"id":2,"type":"tilelayer","name":"height","x":0,"y":0,"width":20,"height":18,"opacity":0,"visible":false,"data":[
      0,0,0,0,0,49,49,49,49,49,0,49,49,49,49,49,0,0,0,0,
      0,0,0,0,49,49,49,49,49,49,0,49,49,49,49,49,0,0,0,0,
      0,0,0,49,49,49,49,49,49,49,0,49,49,49,49,49,49,0,0,0,
      0,0,0,49,49,49,49,49,49,49,0,50,50,50,50,50,50,0,0,0,
      0,0,49,49,49,49,49,49,49,49,0,50,50,50,50,50,50,50,0,0,
      0,49,49,49,49,49,49,49,49,49,0,50,50,50,50,50,50,50,50,0,
      0,49,49,49,49,49,49,49,49,49,0,50,50,50,50,50,50,50,50,0,
      0,49,49,49,49,49,49,49,49,49,0,50,50,50,50,50,50,50,50,0,
      0,49,49,49,49,49,49,49,49,49,0,50,50,50,50,50,50,50,50,0,
      49,49,49,49,49,49,49,49,49,49,0,50,50,50,51,51,51,51,51,0,
      49,49,49,49,49,49,49,49,49,49,0,50,50,50,51,51,51,51,51,0,
      0,49,49,49,49,49,49,49,49,49,0,50,50,50,51,51,51,51,51,0,
      0,49,49,49,49,49,49,49,49,49,0,50,50,50,51,51,51,51,51,0,
      0,49,49,49,49,49,49,49,49,49,0,50,50,50,51,51,51,51,0,0,
      0,0,49,49,49,49,49,49,49,49,0,50,50,50,51,51,51,0,0,0,
      0,0,0,49,49,49,49,49,49,49,0,50,50,50,50,50,0,0,0,0,
      0,0,0,0,49,49,49,49,49,49,0,50,50,50,50,50,0,0,0,0,
      0,0,0,0,0,49,49,49,49,49,0,50,50,50,0,0,0,0,0,0
    ]},
    {"id":3,"type":"tilelayer","name":"deco","x":0,"y":0,"width":20,"height":18,"opacity":1,"visible":true,"data":[
      0,0,0,0,0,0,0,0,0,0,0,0,0,0,0,0,0,0,0,0,
      0,0,0,0,0,0,0,0,0,0,0,0,0,0,0,0,0,0,0,0,
      0,0,0,0,0,0,0,0,0,0,0,0,0,0,0,0,0,0,0,0,
      0,0,0,0,0,0,0,0,0,0,0,0,0,0,0,0,0,0,0,0,
      0,0,0,0,0,0,0,0,0,0,0,0,0,0,0,0,0,0,0,0,
      0,0,0,0,0,0,0,0,0,0,0,0,0,0,0,0,0,0,0,0,
      0,0,0,0,0,0,0,0,0,0,0,0,0,0,0,0,0,0,0,0,
      0,0,0,0,0,0,0,0,0,0,0,0,0,0,0,0,0,0,0,0,
      0,0,0,0,0,0,0,0,0,0,0,0,0,0,0,0,0,0,0,0,
      0,0,0,0,0,0,0,0,0,0,0,0,0,0,0,0,0,0,0,0,
      0,0,0,0,0,0,0,0,0,0,0,0,0,0,0,0,0,0,0,0,
      0,0,0,0,0,0,0,0,0,0,0,0,0,0,0,0,0,0,0,0,
      0,0,0,0,0,0,0,0,0,0,0,0,0,0,0,0,0,0,0,0,
      0,0,0,0,0,0,0,0,0,0,0,0,0,0,0,0,0,0,0,0,
      0,0,0,0,0,0,0,0,0,0,0,0,0,0,0,0,0,0,0,0,
      0,0,0,0,0,0,0,0,0,0,0,0,0,0,0,0,0,0,0,0,
      0,0,0,0,0,0,0,0,0,0,0,0,0,0,0,0,0,0,0,0,
      0,0,0,0,0,0,0,0,0,0,0,0,0,0,0,0,0,0,0,0
    ]},
    {"id":4,"type":"objectgroup","name":"objects","x":0,"y":0,"opacity":1,"visible":true,"draworder":"topdown","objects":[
      {"id":1,"name":"from_shanjing","type":"PlayerSpawn","x":288,"y":48,"width":0,"height":0,"rotation":0,"visible":true,"point":true,"properties":[{"name":"safe","type":"bool","value":true},{"name":"entry","type":"bool","value":true},{"name":"facing","type":"int","value":2}]},
      {"id":2,"name":"to_shanjing","type":"Door","x":288,"y":48,"width":0,"height":0,"rotation":0,"visible":true,"point":true,"properties":[{"name":"mode","type":"string","value":"portal"},{"name":"pairId","type":"string","value":"to_yueying"},{"name":"oneWay","type":"bool","value":false},{"name":"targetRegionId","type":"string","value":"rg_jiangnan_taihu"},{"name":"targetSceneId","type":"string","value":"sc_00_shanjing"},{"name":"targetSpawnId","type":"string","value":"from_yueying"},{"name":"textKey","type":"string","value":"scene.sc_00_shanjing.name"}]},
      {"id":3,"name":"safe_from_shanjing","type":"Trigger","x":288,"y":48,"width":96,"height":96,"rotation":0,"visible":true,"properties":[{"name":"action","type":"string","value":"save/autosave"},{"name":"once","type":"bool","value":false},{"name":"autosave","type":"bool","value":true},{"name":"safe","type":"bool","value":true}]},
      {"id":4,"name":"camp_gate","type":"Door","x":432,"y":720,"width":0,"height":0,"rotation":0,"visible":true,"point":true,"properties":[{"name":"mode","type":"string","value":"door"},{"name":"pairId","type":"string","value":"camp_gate_inner"},{"name":"oneWay","type":"bool","value":false},{"name":"targetRegionId","type":"string","value":"rg_jiangnan_taihu"},{"name":"targetSceneId","type":"string","value":"sc_00_yueying"},{"name":"targetSpawnId","type":"string","value":"camp_gate_inside"},{"name":"lockedBy","type":"string","value":"gate_00_yueying_yingmen"},{"name":"textKey","type":"string","value":"scene.sc_00_yueying.name"}]},
      {"id":5,"name":"camp_gate_inside","type":"PlayerSpawn","x":528,"y":720,"width":0,"height":0,"rotation":0,"visible":true,"point":true,"properties":[{"name":"safe","type":"bool","value":false},{"name":"entry","type":"bool","value":false},{"name":"facing","type":"int","value":0}]},
      {"id":6,"name":"camp_gate_inner","type":"Door","x":528,"y":720,"width":0,"height":0,"rotation":0,"visible":true,"point":true,"properties":[{"name":"mode","type":"string","value":"door"},{"name":"pairId","type":"string","value":"camp_gate"},{"name":"oneWay","type":"bool","value":false},{"name":"targetRegionId","type":"string","value":"rg_jiangnan_taihu"},{"name":"targetSceneId","type":"string","value":"sc_00_yueying"},{"name":"targetSpawnId","type":"string","value":"camp_gate_outside"},{"name":"textKey","type":"string","value":"scene.sc_00_yueying.name"}]},
      {"id":7,"name":"camp_gate_outside","type":"PlayerSpawn","x":432,"y":720,"width":0,"height":0,"rotation":0,"visible":true,"point":true,"properties":[{"name":"safe","type":"bool","value":false},{"name":"entry","type":"bool","value":false},{"name":"facing","type":"int","value":3}]},
      {"id":8,"name":"npc_fanli_yueying","type":"NpcSpawn","x":672,"y":288,"width":0,"height":0,"rotation":0,"visible":true,"point":true,"properties":[{"name":"npcId","type":"string","value":"npc_fanli"},{"name":"facing","type":"int","value":3},{"name":"textKey","type":"string","value":"npc.npc_fanli.name"}]},
      {"id":9,"name":"npc_aqing_yueying","type":"NpcSpawn","x":768,"y":336,"width":0,"height":0,"rotation":0,"visible":true,"point":true,"properties":[{"name":"npcId","type":"string","value":"npc_aqing"},{"name":"facing","type":"int","value":3},{"name":"textKey","type":"string","value":"npc.npc_aqing.name"}]},
      {"id":10,"name":"transmission_inkpoint","type":"Trigger","x":672,"y":576,"width":48,"height":48,"rotation":0,"visible":true,"properties":[{"name":"action","type":"string","value":"dialogue/start"},{"name":"textKey","type":"string","value":"quest.q_00_main_c_04.objective.transmission"},{"name":"once","type":"bool","value":false},{"name":"autosave","type":"bool","value":true},{"name":"safe","type":"bool","value":true}]},
      {"id":11,"name":"arena_00_biandao","type":"BattleArena","x":48,"y":240,"width":0,"height":0,"rotation":0,"visible":true,"polygon":[{"x":0,"y":0},{"x":48,"y":0},{"x":96,"y":0},{"x":144,"y":0},{"x":192,"y":0},{"x":240,"y":0},{"x":288,"y":0},{"x":336,"y":0},{"x":384,"y":0},{"x":0,"y":48},{"x":48,"y":48},{"x":96,"y":48},{"x":144,"y":48},{"x":192,"y":48},{"x":240,"y":48},{"x":288,"y":48},{"x":336,"y":48},{"x":384,"y":48},{"x":0,"y":96},{"x":48,"y":96},{"x":96,"y":96},{"x":144,"y":96},{"x":192,"y":96},{"x":240,"y":96},{"x":288,"y":96},{"x":336,"y":96},{"x":384,"y":96},{"x":0,"y":144},{"x":48,"y":144},{"x":96,"y":144},{"x":144,"y":144},{"x":192,"y":144},{"x":240,"y":144},{"x":288,"y":144},{"x":336,"y":144},{"x":384,"y":144},{"x":0,"y":192},{"x":48,"y":192},{"x":96,"y":192},{"x":144,"y":192},{"x":192,"y":192},{"x":240,"y":192},{"x":288,"y":192},{"x":336,"y":192},{"x":0,"y":240},{"x":48,"y":240},{"x":96,"y":240},{"x":144,"y":240},{"x":192,"y":240},{"x":240,"y":240},{"x":288,"y":240},{"x":336,"y":240},{"x":0,"y":288},{"x":48,"y":288},{"x":96,"y":288},{"x":144,"y":288},{"x":192,"y":288},{"x":240,"y":288},{"x":288,"y":288},{"x":336,"y":288},{"x":0,"y":336},{"x":48,"y":336},{"x":96,"y":336},{"x":144,"y":336},{"x":192,"y":336},{"x":240,"y":336},{"x":288,"y":336},{"x":336,"y":336},{"x":0,"y":384},{"x":48,"y":384},{"x":96,"y":384},{"x":144,"y":384},{"x":192,"y":384},{"x":240,"y":384},{"x":288,"y":384},{"x":336,"y":384},{"x":48,"y":432},{"x":96,"y":432},{"x":144,"y":432},{"x":192,"y":432},{"x":240,"y":432},{"x":288,"y":432},{"x":336,"y":432},{"x":384,"y":432},{"x":96,"y":480},{"x":144,"y":480},{"x":192,"y":480},{"x":240,"y":480},{"x":288,"y":480},{"x":336,"y":480},{"x":384,"y":480}],"properties":[{"name":"encounterId","type":"string","value":"enc_00_biandao"},{"name":"playerCapacity","type":"int","value":2},{"name":"enemyCapacity","type":"int","value":2},{"name":"narrow","type":"bool","value":true}]},
      {"id":12,"name":"zone_00_biandao","type":"EnemyZone","x":144,"y":432,"width":96,"height":48,"rotation":0,"visible":true,"properties":[{"name":"encounterId","type":"string","value":"enc_00_biandao"},{"name":"spawnPointId","type":"string","value":"arena_00_biandao"}]},
      {"id":13,"name":"autosave_biandao","type":"Trigger","x":240,"y":480,"width":96,"height":48,"rotation":0,"visible":true,"properties":[{"name":"action","type":"string","value":"save/autosave"},{"name":"once","type":"bool","value":true},{"name":"autosave","type":"bool","value":true},{"name":"safe","type":"bool","value":false}]},
      {"id":14,"name":"gate_00_yueying_slope","type":"QinggongGate","x":864,"y":432,"width":0,"height":0,"rotation":0,"visible":true,"point":true,"properties":[{"name":"kind","type":"string","value":"leap"},{"name":"tier","type":"int","value":1},{"name":"fromQ","type":"int","value":18},{"name":"fromR","type":"int","value":9},{"name":"toRegion","type":"string","value":"rg_jiangnan_taihu"},{"name":"toScene","type":"string","value":"sc_00_yueying"},{"name":"toQ","type":"int","value":16},{"name":"toR","type":"int","value":9},{"name":"height","type":"int","value":1},{"name":"width","type":"int","value":1},{"name":"run","type":"int","value":0},{"name":"stages","type":"int","value":1},{"name":"intent","type":"string","value":"side"},{"name":"reveal","type":"string","value":"always"},{"name":"alt","type":"string","value":"[]"},{"name":"earliest","type":"float","value":0.6},{"name":"oneWay","type":"bool","value":false},{"name":"hintTextKey","type":"string","value":"tutorial.ch00.09.body"}]},
      {"id":15,"name":"interact_qingcha","type":"Trigger","x":720,"y":528,"width":0,"height":0,"rotation":0,"visible":true,"point":true,"properties":[{"name":"action","type":"string","value":"dialogue/start"},{"name":"textKey","type":"string","value":"quest.q_00_main_c_03.objective.drill"},{"name":"once","type":"bool","value":false},{"name":"autosave","type":"bool","value":true},{"name":"safe","type":"bool","value":false}]},
      {"id":16,"name":"camera_yueying","type":"CameraHint","x":288,"y":48,"width":0,"height":0,"rotation":0,"visible":true,"point":true,"properties":[{"name":"yawDeg","type":"int","value":45},{"name":"zoom","type":"float","value":1.0},{"name":"allowRotation","type":"bool","value":true},{"name":"boundsQ","type":"int","value":0},{"name":"boundsR","type":"int","value":0},{"name":"boundsWidth","type":"int","value":20},{"name":"boundsHeight","type":"int","value":18}]}
    ]}
  ]
}
