{
  "type":"map", "version":"1.12", "tiledversion":"1.12.2",
  "orientation":"orthogonal", "renderorder":"right-down", "infinite":false,
  "width":20, "height":16, "tilewidth":48, "tileheight":48,
  "nextlayerid":5, "nextobjectid":13, "backgroundcolor":"#292e25",
  "properties":[
    {"name":"schemaVersion","type":"string","value":"region-map.v1"},
    {"name":"regionId","type":"string","value":"rg_jiangnan_taihu"},
    {"name":"sceneId","type":"string","value":"sc_00_shanjing"},
    {"name":"chapterScope","type":"string","value":"ch00_yuenv"},
    {"name":"eraLayer","type":"string","value":"ch00"}
  ],
  "tilesets":[
    {"firstgid":1,"source":"../../../tiled/tilesets/terrain.tsj"},
    {"firstgid":49,"source":"../../../tiled/tilesets/height.tsj"}
  ],
  "layers":[
    {"id":1,"type":"tilelayer","name":"terrain","x":0,"y":0,"width":20,"height":16,"opacity":1,"visible":true,"data":[
      0,0,0,0,0,0,4,4,4,4,4,4,4,0,0,0,0,0,0,0,
      0,0,0,0,0,4,4,4,4,4,4,4,4,4,0,0,0,0,0,0,
      0,0,0,0,4,7,2,2,2,2,2,2,7,2,4,0,0,0,0,0,
      0,0,0,4,7,2,2,2,2,2,2,7,2,2,2,4,0,0,0,0,
      0,0,4,7,2,2,2,2,2,2,7,2,2,2,2,2,4,0,0,0,
      0,0,4,2,2,2,2,2,2,7,26,2,2,2,2,2,7,4,4,0,
      0,0,4,2,2,2,2,2,7,2,26,2,2,2,2,7,2,4,4,0,
      0,0,4,2,2,2,2,7,2,2,26,2,2,2,7,2,2,4,4,0,
      0,0,4,2,2,2,7,2,2,2,26,2,2,7,2,2,2,4,4,0,
      0,0,4,2,2,7,2,2,2,2,26,2,7,2,2,2,2,4,4,0,
      0,0,4,2,7,2,2,2,2,2,26,7,2,2,2,2,2,4,4,0,
      0,0,4,7,2,2,2,2,2,2,26,2,2,2,2,2,4,4,0,0,
      0,0,0,4,2,2,2,2,2,7,2,2,2,2,2,2,4,0,0,0,
      0,0,0,0,4,2,2,2,7,2,2,2,2,2,2,4,0,0,0,0,
      0,0,0,0,0,4,4,4,4,4,4,4,4,4,4,0,0,0,0,0,
      0,0,0,0,0,0,4,4,4,4,4,4,4,4,0,0,0,0,0,0
    ]},
    {"id":2,"type":"tilelayer","name":"height","x":0,"y":0,"width":20,"height":16,"opacity":0,"visible":false,"data":[
      0,0,0,0,0,0,49,49,49,49,49,49,49,0,0,0,0,0,0,0,
      0,0,0,0,0,49,49,49,49,49,49,49,49,49,0,0,0,0,0,0,
      0,0,0,0,49,49,49,49,49,49,49,49,49,49,49,0,0,0,0,0,
      0,0,0,49,49,49,49,49,49,49,49,49,50,50,50,50,0,0,0,0,
      0,0,49,49,49,49,49,49,49,49,49,49,50,50,50,51,51,0,0,0,
      0,0,49,49,49,49,49,49,49,49,49,49,50,50,50,51,51,51,51,0,
      0,0,49,49,49,49,49,49,49,49,49,49,50,50,50,51,51,51,51,0,
      0,0,49,49,49,49,49,49,49,49,49,49,50,50,50,51,51,51,51,0,
      0,0,49,49,49,49,49,49,49,49,49,49,50,50,50,51,51,51,51,0,
      0,0,49,49,49,49,49,49,49,49,49,49,50,50,50,51,51,51,51,0,
      0,0,49,49,49,49,49,49,49,49,49,49,50,50,50,51,51,51,51,0,
      0,0,49,49,49,49,49,49,49,49,49,49,50,50,50,51,51,51,0,0,
      0,0,0,49,49,49,49,49,49,49,49,49,50,50,50,50,50,0,0,0,
      0,0,0,0,49,49,49,49,49,49,49,49,49,49,49,49,0,0,0,0,
      0,0,0,0,0,49,49,49,49,49,49,49,49,49,49,0,0,0,0,0,
      0,0,0,0,0,0,49,49,49,49,49,49,49,49,0,0,0,0,0,0
    ]},
    {"id":3,"type":"tilelayer","name":"deco","x":0,"y":0,"width":20,"height":16,"opacity":1,"visible":true,"data":[
      0,0,0,0,0,0,0,0,0,0,0,0,0,0,0,0,0,0,0,0,
      0,0,0,0,0,0,0,0,0,0,0,0,0,0,0,0,0,0,0,0,
      0,0,0,0,0,0,0,0,0,0,0,0,0,0,0,0,0,0,0,0,
      0,0,0,0,0,0,0,0,0,0,0,0,0,0,0,0,0,0,0,0,
      0,0,0,0,0,0,0,0,0,0,0,0,0,0,0,0,0,0,0,0,
      0,0,0,0,0,0,0,0,0,0,0,0,0,0,0,0,0,0,0,0,
      0,0,0,0,0,0,0,0,0,0,0,0,0,0,0,0,0,0,0,0,
      0,0,0,0,0,0,0,0,0,0,0,0,0,0,0,0,0,0,0,0,
      0,0,0,0,0,0,0,0,0,0,0,0,0,0,0,0,0,0,0,0,
      0,0,0,0,0,0,0,0,0,0,0,0,0,0,0,0,0,0,0,0,
      0,0,0,0,0,0,0,0,0,0,0,0,0,0,0,0,0,0,0,0,
      0,0,0,0,0,0,0,0,0,0,0,0,0,0,0,0,0,0,0,0,
      0,0,0,0,0,0,0,0,0,0,0,0,0,0,0,0,0,0,0,0,
      0,0,0,0,0,0,0,0,0,0,0,0,0,0,0,0,0,0,0,0,
      0,0,0,0,0,0,0,0,0,0,0,0,0,0,0,0,0,0,0,0,
      0,0,0,0,0,0,0,0,0,0,0,0,0,0,0,0,0,0,0,0
    ]},
    {"id":4,"type":"objectgroup","name":"objects","x":0,"y":0,"opacity":1,"visible":true,"draworder":"topdown","objects":[
      {"id":1,"name":"from_zhulin","type":"PlayerSpawn","x":144,"y":576,"width":0,"height":0,"rotation":0,"visible":true,"point":true,"properties":[{"name":"safe","type":"bool","value":true},{"name":"entry","type":"bool","value":true},{"name":"facing","type":"int","value":0}]},
      {"id":2,"name":"to_zhulin","type":"Door","x":144,"y":576,"width":0,"height":0,"rotation":0,"visible":true,"point":true,"properties":[{"name":"mode","type":"string","value":"portal"},{"name":"pairId","type":"string","value":"to_shanjing"},{"name":"oneWay","type":"bool","value":false},{"name":"targetRegionId","type":"string","value":"rg_jiangnan_taihu"},{"name":"targetSceneId","type":"string","value":"sc_00_zhulin"},{"name":"targetSpawnId","type":"string","value":"from_shanjing"},{"name":"textKey","type":"string","value":"scene.sc_00_zhulin.name"}]},
      {"id":3,"name":"safe_from_zhulin","type":"Trigger","x":144,"y":528,"width":96,"height":96,"rotation":0,"visible":true,"properties":[{"name":"action","type":"string","value":"save/autosave"},{"name":"once","type":"bool","value":false},{"name":"autosave","type":"bool","value":true},{"name":"safe","type":"bool","value":true}]},
      {"id":4,"name":"from_yueying","type":"PlayerSpawn","x":768,"y":480,"width":0,"height":0,"rotation":0,"visible":true,"point":true,"properties":[{"name":"safe","type":"bool","value":false},{"name":"entry","type":"bool","value":false},{"name":"facing","type":"int","value":3}]},
      {"id":5,"name":"to_yueying","type":"Door","x":768,"y":480,"width":0,"height":0,"rotation":0,"visible":true,"point":true,"properties":[{"name":"mode","type":"string","value":"portal"},{"name":"pairId","type":"string","value":"to_shanjing"},{"name":"oneWay","type":"bool","value":false},{"name":"targetRegionId","type":"string","value":"rg_jiangnan_taihu"},{"name":"targetSceneId","type":"string","value":"sc_00_yueying"},{"name":"targetSpawnId","type":"string","value":"from_shanjing"},{"name":"textKey","type":"string","value":"scene.sc_00_yueying.name"}]},
      {"id":6,"name":"gate_00_shanjing_gou","type":"QinggongGate","x":432,"y":384,"width":0,"height":0,"rotation":0,"visible":true,"point":true,"properties":[{"name":"kind","type":"string","value":"gap"},{"name":"tier","type":"int","value":1},{"name":"fromQ","type":"int","value":9},{"name":"fromR","type":"int","value":8},{"name":"toRegion","type":"string","value":"rg_jiangnan_taihu"},{"name":"toScene","type":"string","value":"sc_00_shanjing"},{"name":"toQ","type":"int","value":11},{"name":"toR","type":"int","value":8},{"name":"height","type":"int","value":0},{"name":"width","type":"int","value":1},{"name":"run","type":"int","value":0},{"name":"stages","type":"int","value":1},{"name":"intent","type":"string","value":"side"},{"name":"reveal","type":"string","value":"always"},{"name":"alt","type":"string","value":"[]"},{"name":"earliest","type":"float","value":0.25},{"name":"oneWay","type":"bool","value":false},{"name":"hintTextKey","type":"string","value":"tutorial.ch00.09.body"}]},
      {"id":7,"name":"npc_baiyuan_shanjing","type":"NpcSpawn","x":672,"y":336,"width":0,"height":0,"rotation":0,"visible":true,"point":true,"properties":[{"name":"npcId","type":"string","value":"npc_baiyuan"},{"name":"facing","type":"int","value":3},{"name":"textKey","type":"string","value":"npc.npc_baiyuan.name"}]},
      {"id":8,"name":"offer_tao","type":"Trigger","x":624,"y":384,"width":0,"height":0,"rotation":0,"visible":true,"point":true,"properties":[{"name":"action","type":"string","value":"dialogue/start"},{"name":"textKey","type":"string","value":"quest.q_00_main_c_02.objective.baiyuan_choice"},{"name":"once","type":"bool","value":false},{"name":"autosave","type":"bool","value":true},{"name":"safe","type":"bool","value":false}]},
      {"id":9,"name":"arena_00_baiyuan","type":"BattleArena","x":288,"y":192,"width":0,"height":0,"rotation":0,"visible":true,"polygon":[{"x":0,"y":0},{"x":48,"y":0},{"x":96,"y":0},{"x":144,"y":0},{"x":192,"y":0},{"x":240,"y":0},{"x":288,"y":0},{"x":336,"y":0},{"x":0,"y":48},{"x":48,"y":48},{"x":96,"y":48},{"x":144,"y":48},{"x":240,"y":48},{"x":288,"y":48},{"x":336,"y":48},{"x":384,"y":48},{"x":0,"y":96},{"x":48,"y":96},{"x":96,"y":96},{"x":144,"y":96},{"x":240,"y":96},{"x":288,"y":96},{"x":336,"y":96},{"x":384,"y":96},{"x":0,"y":144},{"x":48,"y":144},{"x":96,"y":144},{"x":144,"y":144},{"x":240,"y":144},{"x":288,"y":144},{"x":336,"y":144},{"x":384,"y":144},{"x":0,"y":192},{"x":48,"y":192},{"x":96,"y":192},{"x":144,"y":192},{"x":240,"y":192},{"x":288,"y":192},{"x":336,"y":192},{"x":384,"y":192},{"x":0,"y":240},{"x":48,"y":240},{"x":96,"y":240},{"x":144,"y":240},{"x":240,"y":240},{"x":288,"y":240},{"x":336,"y":240},{"x":384,"y":240},{"x":0,"y":288},{"x":48,"y":288},{"x":96,"y":288},{"x":144,"y":288},{"x":240,"y":288},{"x":288,"y":288},{"x":336,"y":288},{"x":384,"y":288},{"x":0,"y":336},{"x":48,"y":336},{"x":96,"y":336},{"x":144,"y":336},{"x":240,"y":336},{"x":288,"y":336},{"x":336,"y":336},{"x":384,"y":336},{"x":0,"y":384},{"x":48,"y":384},{"x":96,"y":384},{"x":144,"y":384},{"x":192,"y":384},{"x":240,"y":384},{"x":288,"y":384},{"x":336,"y":384},{"x":384,"y":384}],"properties":[{"name":"encounterId","type":"string","value":"enc_00_baiyuan"},{"name":"playerCapacity","type":"int","value":1},{"name":"enemyCapacity","type":"int","value":1},{"name":"narrow","type":"bool","value":false}]},
      {"id":10,"name":"zone_00_baiyuan","type":"EnemyZone","x":624,"y":336,"width":96,"height":48,"rotation":0,"visible":true,"properties":[{"name":"encounterId","type":"string","value":"enc_00_baiyuan"},{"name":"spawnPointId","type":"string","value":"arena_00_baiyuan"}]},
      {"id":11,"name":"autosave_baiyuan","type":"Trigger","x":528,"y":432,"width":96,"height":48,"rotation":0,"visible":true,"properties":[{"name":"action","type":"string","value":"save/autosave"},{"name":"once","type":"bool","value":true},{"name":"autosave","type":"bool","value":true},{"name":"safe","type":"bool","value":false}]},
      {"id":12,"name":"camera_shanjing","type":"CameraHint","x":144,"y":576,"width":0,"height":0,"rotation":0,"visible":true,"point":true,"properties":[{"name":"yawDeg","type":"int","value":45},{"name":"zoom","type":"float","value":1.0},{"name":"allowRotation","type":"bool","value":true},{"name":"boundsQ","type":"int","value":0},{"name":"boundsR","type":"int","value":0},{"name":"boundsWidth","type":"int","value":20},{"name":"boundsHeight","type":"int","value":16}]}
    ]}
  ]
}
