{
  "type": "map",
  "version": "1.12",
  "tiledversion": "1.12.2",
  "orientation": "orthogonal",
  "renderorder": "right-down",
  "infinite": false,
  "width": 48,
  "height": 32,
  "tilewidth": 48,
  "tileheight": 48,
  "nextlayerid": 5,
  "nextobjectid": 12,
  "backgroundcolor": "#171e28",
  "properties": [{"name": "schemaVersion", "type": "string", "value": "region-map.v1"}, {"name": "regionId", "type": "string", "value": "rg_xiyu_beijiang"}, {"name": "sceneId", "type": "string", "value": "sc_10_fengshi_feiyi"}, {"name": "chapterScope", "type": "string", "value": "ch10_baima"}, {"name": "eraLayer", "type": "string", "value": "ch10"}],
  "tilesets": [{"firstgid": 1, "source": "../../../tiled/tilesets/terrain.tsj"}, {"firstgid": 49, "source": "../../../tiled/tilesets/height.tsj"}],
  "layers": [
    {
      "id": 1,
      "type": "tilelayer",
      "name": "terrain",
      "x": 0,
      "y": 0,
      "width": 48,
      "height": 32,
      "opacity": 1.0,
      "visible": true,
      "data": [
        0,0,0,0,0,0,0,0,0,0,0,0,0,0,0,0,0,0,0,0,0,0,0,0,0,0,0,0,0,0,0,0,0,0,0,0,0,0,0,0,0,0,0,0,0,0,0,0,
        0,0,0,0,0,0,0,0,0,0,0,0,0,0,0,0,0,0,0,0,0,0,0,0,0,0,0,0,0,0,0,0,0,0,0,0,0,0,0,0,0,0,0,0,0,0,0,0,
        0,0,0,0,0,0,0,0,0,0,0,0,0,0,0,0,0,0,0,0,0,0,0,0,0,0,0,0,0,0,0,0,0,0,0,0,0,0,0,0,0,0,0,0,0,0,0,0,
        0,43,43,43,43,43,43,43,43,43,43,43,43,43,43,43,43,43,43,43,43,43,43,43,43,43,43,43,43,43,43,43,43,43,43,43,43,43,43,43,43,43,43,43,43,43,43,43,
        43,8,8,8,8,8,8,8,8,8,8,8,8,8,8,8,8,8,8,8,8,8,8,8,8,8,8,8,8,8,8,8,8,8,8,8,8,8,8,8,8,8,8,8,8,8,8,43,
        43,8,8,8,8,8,8,8,8,8,8,8,8,8,8,8,8,8,8,8,8,8,8,8,8,8,8,8,8,8,8,8,8,8,8,8,8,8,8,8,8,8,8,8,8,8,8,43,
        43,8,8,8,8,8,8,8,8,8,8,8,8,8,8,8,8,8,8,8,8,8,8,8,8,8,8,8,8,43,43,43,43,43,43,43,43,43,43,8,8,8,8,8,8,8,8,43,
        43,8,8,8,8,8,8,8,8,8,8,8,8,8,8,8,8,8,8,8,8,8,8,8,8,8,8,8,8,43,37,37,37,37,37,37,37,37,43,8,8,8,8,8,8,8,8,43,
        43,8,8,8,8,8,8,8,8,8,8,8,8,8,8,8,8,8,8,8,8,8,8,8,8,8,8,8,8,43,37,37,37,37,37,37,37,37,43,8,8,8,8,8,8,8,8,43,
        43,8,8,8,8,8,8,8,8,8,8,8,8,8,8,8,8,8,8,8,8,8,8,8,8,8,8,8,8,43,37,37,37,37,37,37,37,37,43,8,8,8,8,8,8,8,8,43,
        43,8,8,8,8,8,8,8,8,8,43,43,43,43,43,43,43,43,43,43,43,43,43,43,8,8,8,8,8,43,37,37,37,37,37,37,37,37,43,8,8,8,8,1,1,1,1,1,
        43,8,8,8,8,8,8,8,8,8,43,1,1,1,1,1,1,1,1,1,1,1,1,43,8,8,8,8,8,43,43,1,1,1,43,43,43,43,43,8,1,1,1,1,1,1,1,1,
        43,8,8,8,8,8,8,8,8,8,43,1,1,1,1,1,1,1,1,1,1,1,1,43,8,8,8,8,8,8,8,1,1,1,8,8,1,1,1,1,1,1,1,1,1,1,1,1,
        43,8,8,8,8,8,8,8,8,8,43,1,1,1,1,1,1,1,1,1,1,1,1,43,8,8,8,8,8,8,8,1,1,1,1,1,1,1,1,1,1,1,1,1,1,1,1,1,
        43,8,8,8,8,8,8,8,8,8,43,1,1,1,1,1,1,1,1,1,1,1,1,43,8,8,8,8,8,8,1,1,1,1,1,1,1,1,1,1,1,1,1,1,1,1,8,43,
        43,8,8,8,8,8,8,8,8,8,43,1,1,1,1,1,1,1,1,1,1,1,1,1,1,1,1,1,1,1,1,1,1,1,1,1,1,1,1,1,1,1,1,8,8,8,8,43,
        43,8,8,8,8,8,8,8,8,8,1,1,1,1,1,1,1,1,1,1,1,1,1,1,1,1,1,1,1,1,1,1,1,1,1,1,1,1,1,8,8,8,8,8,8,8,8,43,
        43,8,8,8,8,8,8,8,1,1,1,1,1,1,1,1,1,1,1,1,1,1,1,1,1,1,1,1,1,1,1,1,1,1,1,1,8,8,8,8,8,8,8,8,8,8,8,43,
        1,1,1,1,1,1,1,1,1,1,1,1,1,1,1,1,1,1,1,1,1,1,1,43,1,1,1,1,1,1,1,1,1,8,8,8,8,8,8,8,8,8,8,8,8,8,8,43,
        1,1,1,1,1,1,1,1,1,1,43,1,1,1,1,1,1,1,1,1,1,1,1,43,8,8,8,8,8,8,8,8,8,8,8,8,8,8,8,8,8,8,8,8,8,8,8,43,
        1,1,1,1,1,1,1,1,1,1,43,1,1,1,1,1,1,1,1,1,1,1,1,43,8,8,8,8,8,8,8,8,8,8,8,8,8,8,8,8,8,8,8,8,8,8,8,43,
        1,1,1,1,1,1,1,1,1,1,43,43,43,43,43,43,43,43,43,43,43,43,43,43,8,8,8,8,8,8,8,8,8,8,8,8,8,8,8,8,8,8,8,8,8,8,8,43,
        43,8,8,8,8,8,8,8,8,8,8,8,8,8,8,8,8,8,8,8,8,8,8,8,8,8,8,8,8,8,8,8,8,8,8,8,8,8,8,8,8,8,8,8,8,8,8,43,
        43,8,8,8,8,8,8,8,8,8,8,8,8,8,8,8,8,8,8,8,8,8,8,8,8,8,8,8,8,8,8,8,8,8,8,8,8,8,8,8,8,8,8,8,8,8,8,43,
        43,8,8,8,8,8,8,8,8,8,8,8,8,8,8,8,8,8,8,8,8,8,8,8,8,8,8,8,8,8,8,8,8,8,8,8,8,8,8,8,8,8,8,8,8,8,8,43,
        43,8,8,8,8,8,8,8,8,8,8,8,8,8,8,8,8,8,8,8,8,8,8,8,8,8,8,8,8,8,8,8,8,8,8,8,8,8,8,8,8,8,8,8,8,8,8,43,
        43,8,8,8,8,8,8,8,8,8,8,8,8,8,8,8,8,8,8,8,8,8,8,8,8,8,8,8,8,8,8,8,8,8,8,8,8,8,8,8,8,8,8,8,8,8,8,43,
        43,8,8,8,8,8,8,8,8,8,8,8,8,8,8,8,8,8,8,8,8,8,8,8,8,8,8,8,8,8,8,8,8,8,8,8,8,8,8,8,8,8,8,8,8,8,8,43,
        43,8,8,8,8,8,8,8,8,8,8,8,8,8,8,8,8,8,8,8,8,8,8,8,8,8,8,8,8,8,8,8,8,8,8,8,8,8,8,8,8,8,8,8,8,8,8,43,
        43,8,8,8,8,8,8,8,8,8,8,8,8,8,8,8,8,8,8,8,8,8,8,8,8,8,8,8,8,8,8,8,8,8,8,8,8,8,8,8,8,8,8,8,8,8,8,43,
        43,43,43,43,43,43,43,43,43,43,43,43,43,43,43,43,43,43,43,43,43,43,43,43,43,43,43,43,43,43,43,43,43,43,43,43,43,43,43,43,43,43,43,43,43,43,43,0,
        0,0,0,0,0,0,0,0,0,0,0,0,0,0,0,0,0,0,0,0,0,0,0,0,0,0,0,0,0,0,0,0,0,0,0,0,0,0,0,0,0,0,0,0,0,0,0,0
      ]
    },
    {
      "id": 2,
      "type": "tilelayer",
      "name": "height",
      "x": 0,
      "y": 0,
      "width": 48,
      "height": 32,
      "opacity": 0.0,
      "visible": false,
      "data": [
        0,0,0,0,0,0,0,0,0,0,0,0,0,0,0,0,0,0,0,0,0,0,0,0,0,0,0,0,0,0,0,0,0,0,0,0,0,0,0,0,0,0,0,0,0,0,0,0,
        0,0,0,0,0,0,0,0,0,0,0,0,0,0,0,0,0,0,0,0,0,0,0,0,0,0,0,0,0,0,0,0,0,0,0,0,0,0,0,0,0,0,0,0,0,0,0,0,
        0,0,0,0,0,0,0,0,0,0,0,0,0,0,0,0,0,0,0,0,0,0,0,0,0,0,0,0,0,0,0,0,0,0,0,0,0,0,0,0,0,0,0,0,0,0,0,0,
        0,52,52,52,52,52,52,52,52,52,52,52,52,52,52,52,52,52,52,52,52,52,52,52,52,52,52,52,52,52,52,52,52,52,52,52,52,52,52,52,52,52,52,52,52,52,52,52,
        52,49,49,49,49,49,49,49,49,49,49,49,49,49,49,49,49,49,49,49,49,49,49,49,49,49,49,50,50,50,50,50,50,50,50,50,50,50,50,50,50,50,50,50,50,50,50,52,
        52,49,49,49,49,49,49,49,49,49,49,49,49,49,49,49,49,49,49,49,49,49,49,49,49,49,49,50,50,50,50,50,50,50,50,50,50,50,50,50,50,50,50,50,50,50,50,52,
        52,49,49,49,49,49,49,49,49,49,49,49,49,49,49,49,49,49,49,49,49,49,49,49,49,49,49,50,50,52,52,52,52,52,52,52,52,52,52,50,50,50,50,50,50,50,50,52,
        52,49,49,49,49,49,49,49,49,49,49,49,49,49,49,49,49,49,49,49,49,49,49,49,49,49,49,50,50,52,50,50,50,50,50,50,50,50,52,50,50,50,50,50,50,50,50,52,
        52,49,49,49,49,49,49,49,49,49,49,49,49,49,49,49,49,49,49,49,49,49,49,49,49,49,49,50,50,52,50,50,50,50,50,50,50,50,52,50,50,50,50,50,50,50,50,52,
        52,49,49,49,49,49,49,49,49,49,49,49,49,49,49,49,49,49,49,49,49,49,49,49,49,49,49,50,50,52,50,50,50,50,50,50,50,50,52,50,50,50,50,50,50,50,50,52,
        52,49,49,49,49,49,49,49,49,49,52,52,52,52,52,52,52,52,52,52,52,52,52,52,49,49,49,50,50,52,50,50,50,50,50,50,50,50,52,50,50,50,50,50,50,50,50,49,
        52,49,49,49,49,49,49,49,49,49,52,49,49,49,49,49,49,49,49,49,49,49,49,52,49,49,49,50,50,52,52,50,50,50,52,52,52,52,52,50,50,50,50,50,50,50,50,49,
        52,49,49,49,49,49,49,49,49,49,52,49,49,49,49,49,49,49,49,49,49,49,49,52,49,49,49,50,50,50,50,50,50,50,50,50,50,50,50,50,50,50,50,50,50,50,50,49,
        52,49,49,49,49,49,49,49,49,49,52,49,49,49,49,49,49,49,49,49,49,49,49,52,49,49,49,50,50,50,50,50,50,50,50,50,50,50,50,50,50,50,50,50,50,50,50,49,
        52,49,49,49,49,49,49,49,49,49,52,49,49,49,49,49,49,49,49,49,49,49,49,52,49,49,49,50,50,50,50,50,50,50,50,50,50,50,50,50,50,50,50,50,50,50,50,52,
        52,49,49,49,49,49,49,49,49,49,52,49,49,49,49,49,49,49,49,49,49,49,49,49,49,49,49,50,50,50,50,50,50,50,50,50,50,50,50,50,50,50,50,50,50,50,50,52,
        52,49,49,49,49,49,49,49,49,49,49,49,49,49,49,49,49,49,49,49,49,49,49,49,49,49,49,50,50,50,50,50,50,50,50,50,50,50,50,50,50,50,50,50,50,50,50,52,
        52,49,49,49,49,49,49,49,49,49,49,49,49,49,49,49,49,49,49,49,49,49,49,49,49,49,49,50,50,50,50,50,50,50,50,50,50,50,50,50,50,50,50,50,50,50,50,52,
        49,49,49,49,49,49,49,49,49,49,49,49,49,49,49,49,49,49,49,49,49,49,49,52,49,49,49,50,50,50,50,50,50,50,50,50,50,50,50,50,50,50,50,50,50,50,50,52,
        49,49,49,49,49,49,49,49,49,49,52,49,49,49,49,49,49,49,49,49,49,49,49,52,49,49,49,50,50,50,50,50,50,50,50,50,50,50,50,50,50,50,50,50,50,50,50,52,
        49,49,49,49,49,49,49,49,49,49,52,49,49,49,49,49,49,49,49,49,49,49,49,52,49,49,49,50,50,50,50,50,50,50,50,50,50,50,50,50,50,50,50,50,50,50,50,52,
        49,49,49,49,49,49,49,49,49,49,52,52,52,52,52,52,52,52,52,52,52,52,52,52,49,49,49,50,50,50,50,50,50,50,50,50,50,50,50,50,50,50,50,50,50,50,50,52,
        52,49,49,49,49,49,49,49,49,49,49,49,49,49,49,49,49,49,49,49,49,49,49,49,49,49,49,50,50,50,50,50,50,50,50,50,50,50,50,50,50,50,50,50,50,50,50,52,
        52,49,49,49,49,49,49,49,49,49,49,49,49,49,49,49,49,49,49,49,49,49,49,49,49,49,49,50,50,50,50,50,50,50,50,50,50,50,50,50,50,50,50,50,50,50,50,52,
        52,49,49,49,49,49,49,49,49,49,49,49,49,49,49,49,49,49,49,49,49,49,49,49,49,49,49,50,50,50,50,50,50,50,50,50,50,50,50,50,50,50,50,50,50,50,50,52,
        52,49,49,49,49,49,49,49,49,49,49,49,49,49,49,49,49,49,49,49,49,49,49,49,49,49,49,50,50,50,50,50,50,50,50,50,50,50,50,50,50,50,50,50,50,50,50,52,
        52,49,49,49,49,49,49,49,49,49,49,49,49,49,49,49,49,49,49,49,49,49,49,49,49,49,49,50,50,50,50,50,50,50,50,50,50,50,50,50,50,50,50,50,50,50,50,52,
        52,49,49,49,49,49,49,49,49,49,49,49,49,49,49,49,49,49,49,49,49,49,49,49,49,49,49,50,50,50,50,50,50,50,50,50,50,50,50,50,50,50,50,50,50,50,50,52,
        52,49,49,49,49,49,49,49,49,49,49,49,49,49,49,49,49,49,49,49,49,49,49,49,49,49,49,50,50,50,50,50,50,50,50,50,50,50,50,50,50,50,50,50,50,50,50,52,
        52,49,49,49,49,49,49,49,49,49,49,49,49,49,49,49,49,49,49,49,49,49,49,49,49,49,49,50,50,50,50,50,50,50,50,50,50,50,50,50,50,50,50,50,50,50,50,52,
        52,52,52,52,52,52,52,52,52,52,52,52,52,52,52,52,52,52,52,52,52,52,52,52,52,52,52,52,52,52,52,52,52,52,52,52,52,52,52,52,52,52,52,52,52,52,52,0,
        0,0,0,0,0,0,0,0,0,0,0,0,0,0,0,0,0,0,0,0,0,0,0,0,0,0,0,0,0,0,0,0,0,0,0,0,0,0,0,0,0,0,0,0,0,0,0,0
      ]
    },
    {
      "id": 3,
      "type": "tilelayer",
      "name": "deco",
      "x": 0,
      "y": 0,
      "width": 48,
      "height": 32,
      "opacity": 1.0,
      "visible": true,
      "data": [
        0,0,0,0,0,0,0,0,0,0,0,0,0,0,0,0,0,0,0,0,0,0,0,0,0,0,0,0,0,0,0,0,0,0,0,0,0,0,0,0,0,0,0,0,0,0,0,0,
        0,0,0,0,0,0,0,0,0,0,0,0,0,0,0,0,0,0,0,0,0,0,0,0,0,0,0,0,0,0,0,0,0,0,0,0,0,0,0,0,0,0,0,0,0,0,0,0,
        0,0,0,0,0,0,0,0,0,0,0,0,0,0,0,0,0,0,0,0,0,0,0,0,0,0,0,0,0,0,0,0,0,0,0,0,0,0,0,0,0,0,0,0,0,0,0,0,
        0,0,0,0,0,0,0,0,0,0,0,0,0,0,0,0,0,0,0,0,0,0,0,0,0,0,0,0,0,0,0,0,0,0,0,0,0,0,0,0,0,0,0,0,0,0,0,0,
        0,0,0,0,0,0,0,0,0,0,0,0,0,0,0,0,0,0,0,0,0,0,0,0,0,0,0,0,0,0,0,0,0,0,0,0,0,0,0,0,0,0,0,0,0,0,0,0,
        0,0,0,0,0,0,0,0,0,0,0,0,0,0,0,0,0,0,0,0,0,0,0,0,0,0,0,0,0,0,0,0,0,0,0,0,0,0,0,0,0,0,0,0,0,0,0,0,
        0,0,0,0,0,0,0,0,0,0,0,0,0,0,0,0,0,0,0,0,0,0,0,0,0,0,0,0,0,0,0,0,0,0,0,0,0,0,0,0,0,0,0,0,0,0,0,0,
        0,0,0,0,0,0,0,0,0,0,0,0,0,0,0,0,0,0,0,0,0,0,0,0,0,0,0,0,0,0,0,0,0,0,0,0,0,0,0,0,0,0,0,0,0,0,0,0,
        0,0,0,0,0,0,0,0,0,0,0,0,0,0,0,0,0,0,0,0,0,0,0,0,0,0,0,0,0,0,0,0,0,0,0,0,0,0,0,0,0,0,0,0,0,0,0,0,
        0,0,0,0,0,0,0,0,0,0,0,0,0,0,0,0,0,0,0,0,0,0,0,0,0,0,0,0,0,0,0,0,0,0,0,0,0,0,0,0,0,0,0,0,0,0,0,0,
        0,0,0,0,0,0,0,0,0,0,0,0,0,0,0,0,0,0,0,0,0,0,0,0,0,0,0,0,0,0,0,0,0,0,0,0,0,0,0,0,0,0,0,0,0,0,0,0,
        0,0,0,0,0,0,0,0,0,0,0,0,0,0,0,0,0,0,0,0,0,0,0,0,0,0,0,0,0,0,0,0,0,0,0,0,0,0,0,0,0,0,0,0,0,0,0,0,
        0,0,0,0,0,0,0,0,0,0,0,0,0,0,0,0,0,0,0,0,0,0,0,0,0,0,0,0,0,0,0,0,0,0,0,0,0,0,0,0,0,0,0,0,0,0,0,0,
        0,0,0,0,0,0,0,0,0,0,0,0,0,0,0,0,0,0,0,0,0,0,0,0,0,0,0,0,0,0,0,0,0,0,0,0,0,0,0,0,0,0,0,0,0,0,0,0,
        0,0,0,0,0,0,0,0,0,0,0,0,0,0,0,0,0,0,0,0,0,0,0,0,0,0,0,0,0,0,0,0,0,0,0,0,0,0,0,0,0,0,0,0,0,0,0,0,
        0,0,0,0,0,0,0,0,0,0,0,0,0,0,0,0,0,0,0,0,0,0,0,0,0,0,0,0,0,0,0,0,0,0,0,0,0,0,0,0,0,0,0,0,0,0,0,0,
        0,0,0,0,0,0,0,0,0,0,0,0,0,0,0,0,0,0,0,0,0,0,0,0,0,0,0,0,0,0,0,0,0,0,0,0,0,0,0,0,0,0,0,0,0,0,0,0,
        0,0,0,0,0,0,0,0,0,0,0,0,0,0,0,0,0,0,0,0,0,0,0,0,0,0,0,0,0,0,0,0,0,0,0,0,0,0,0,0,0,0,0,0,0,0,0,0,
        0,0,0,0,0,0,0,0,0,0,0,0,0,0,0,0,0,0,0,0,0,0,0,0,0,0,0,0,0,0,0,0,0,0,0,0,0,0,0,0,0,0,0,0,0,0,0,0,
        0,0,0,0,0,0,0,0,0,0,0,0,0,0,0,0,0,0,0,0,0,0,0,0,0,0,0,0,0,0,0,0,0,0,0,0,0,0,0,0,0,0,0,0,0,0,0,0,
        0,0,0,0,0,0,0,0,0,0,0,0,0,0,0,0,0,0,0,0,0,0,0,0,0,0,0,0,0,0,0,0,0,0,0,0,0,0,0,0,0,0,0,0,0,0,0,0,
        0,0,0,0,0,0,0,0,0,0,0,0,0,0,0,0,0,0,0,0,0,0,0,0,0,0,0,0,0,0,0,0,0,0,0,0,0,0,0,0,0,0,0,0,0,0,0,0,
        0,0,0,0,0,0,0,0,0,0,0,0,0,0,0,0,0,0,0,0,0,0,0,0,0,0,0,0,0,0,0,0,0,0,0,0,0,0,0,0,0,0,0,0,0,0,0,0,
        0,0,0,0,0,0,0,0,0,0,0,0,0,0,0,0,0,0,0,0,0,0,0,0,0,0,0,0,0,0,0,0,0,0,0,0,0,0,0,0,0,0,0,0,0,0,0,0,
        0,0,0,0,0,0,0,0,0,0,0,0,0,0,0,0,0,0,0,0,0,0,0,0,0,0,0,0,0,0,0,0,0,0,0,0,0,0,0,0,0,0,0,0,0,0,0,0,
        0,0,0,0,0,0,0,0,0,0,0,0,0,0,0,0,0,0,0,0,0,0,0,0,0,0,0,0,0,0,0,0,0,0,0,0,0,0,0,0,0,0,0,0,0,0,0,0,
        0,0,0,0,0,0,0,0,0,0,0,0,0,0,0,0,0,0,0,0,0,0,0,0,0,0,0,0,0,0,0,0,0,0,0,0,0,0,0,0,0,0,0,0,0,0,0,0,
        0,0,0,0,0,0,0,0,0,0,0,0,0,0,0,0,0,0,0,0,0,0,0,0,0,0,0,0,0,0,0,0,0,0,0,0,0,0,0,0,0,0,0,0,0,0,0,0,
        0,0,0,0,0,0,0,0,0,0,0,0,0,0,0,0,0,0,0,0,0,0,0,0,0,0,0,0,0,0,0,0,0,0,0,0,0,0,0,0,0,0,0,0,0,0,0,0,
        0,0,0,0,0,0,0,0,0,0,0,0,0,0,0,0,0,0,0,0,0,0,0,0,0,0,0,0,0,0,0,0,0,0,0,0,0,0,0,0,0,0,0,0,0,0,0,0,
        0,0,0,0,0,0,0,0,0,0,0,0,0,0,0,0,0,0,0,0,0,0,0,0,0,0,0,0,0,0,0,0,0,0,0,0,0,0,0,0,0,0,0,0,0,0,0,0,
        0,0,0,0,0,0,0,0,0,0,0,0,0,0,0,0,0,0,0,0,0,0,0,0,0,0,0,0,0,0,0,0,0,0,0,0,0,0,0,0,0,0,0,0,0,0,0,0
      ]
    },
    {"id": 4, "type": "objectgroup", "name": "objects", "x": 0, "y": 0, "opacity": 1, "visible": true, "draworder": "topdown", "objects": [{"id": 1, "name": "entry", "type": "PlayerSpawn", "x": 192, "y": 960, "width": 0, "height": 0, "rotation": 0, "visible": true, "properties": [{"name": "safe", "type": "bool", "value": true}, {"name": "entry", "type": "bool", "value": true}, {"name": "facing", "type": "int", "value": 0}], "point": true}, {"id": 2, "name": "water", "type": "Trigger", "x": 672, "y": 672, "width": 0, "height": 0, "rotation": 0, "visible": true, "properties": [{"name": "once", "type": "bool", "value": true}, {"name": "safe", "type": "bool", "value": true}], "point": true}, {"id": 3, "name": "era_title", "type": "Trigger", "x": 864, "y": 672, "width": 0, "height": 0, "rotation": 0, "visible": true, "properties": [{"name": "once", "type": "bool", "value": true}, {"name": "safe", "type": "bool", "value": true}], "point": true}, {"id": 4, "name": "old_saddle", "type": "Trigger", "x": 1008, "y": 864, "width": 0, "height": 0, "rotation": 0, "visible": true, "properties": [{"name": "once", "type": "bool", "value": true}, {"name": "safe", "type": "bool", "value": true}], "point": true}, {"id": 5, "name": "tang_inscription", "type": "Trigger", "x": 1440, "y": 384, "width": 0, "height": 0, "rotation": 0, "visible": true, "properties": [{"name": "once", "type": "bool", "value": true}, {"name": "safe", "type": "bool", "value": true}], "point": true}, {"id": 6, "name": "first_dialogue", "type": "Trigger", "x": 864, "y": 768, "width": 0, "height": 0, "rotation": 0, "visible": true, "properties": [{"name": "once", "type": "bool", "value": true}, {"name": "safe", "type": "bool", "value": true}], "point": true}, {"id": 7, "name": "east_route", "type": "Trigger", "x": 2160, "y": 576, "width": 0, "height": 0, "rotation": 0, "visible": true, "properties": [{"name": "once", "type": "bool", "value": true}, {"name": "safe", "type": "bool", "value": true}], "point": true}, {"id": 8, "name": "safe_courtyard", "type": "Trigger", "x": 528, "y": 528, "width": 576, "height": 480, "rotation": 0, "visible": true, "properties": [{"name": "safe", "type": "bool", "value": true}, {"name": "autosave", "type": "bool", "value": true}, {"name": "once", "type": "bool", "value": true}]}, {"id": 9, "name": "lamp_8", "type": "Light", "x": 816, "y": 864, "width": 0, "height": 0, "rotation": 0, "visible": true, "properties": [{"name": "color", "type": "string", "value": "#ffd591"}, {"name": "radius", "type": "int", "value": 6}, {"name": "intensity", "type": "float", "value": 0.75}, {"name": "mountHeight", "type": "int", "value": 2}, {"name": "schedule", "type": "string", "value": "always"}, {"name": "flicker", "type": "bool", "value": true}], "point": true}, {"id": 10, "name": "arrival_grass", "type": "PlayerSpawn", "x": 2160, "y": 576, "width": 0, "height": 0, "rotation": 0, "visible": true, "properties": [{"name": "safe", "type": "bool", "value": true}, {"name": "entry", "type": "bool", "value": false}, {"name": "facing", "type": "int", "value": 0}], "point": true}, {"id": 11, "name": "door_grass_a", "type": "Door", "x": 2160, "y": 576, "width": 0, "height": 0, "rotation": 0, "visible": true, "properties": [{"name": "mode", "type": "string", "value": "door"}, {"name": "pairId", "type": "string", "value": "door_grass_b"}, {"name": "oneWay", "type": "bool", "value": false}, {"name": "targetRegionId", "type": "string", "value": "rg_xiyu_beijiang"}, {"name": "targetSceneId", "type": "string", "value": "sc_10_tieyan_caopo"}, {"name": "targetSpawnId", "type": "string", "value": "arrival_grass"}], "point": true}]}
  ]
}
