{
  "type": "map",
  "version": "1.12",
  "tiledversion": "1.12.2",
  "orientation": "orthogonal",
  "renderorder": "right-down",
  "infinite": false,
  "width": 96,
  "height": 96,
  "tilewidth": 48,
  "tileheight": 48,
  "nextlayerid": 5,
  "nextobjectid": 53,
  "backgroundcolor": "#171e28",
  "properties": [{"name": "schemaVersion", "type": "string", "value": "region-map.v1"}, {"name": "regionId", "type": "string", "value": "rg_nanhai_islands"}, {"name": "sceneId", "type": "string", "value": "sc_06_xiakedao_shishi"}, {"name": "chapterScope", "type": "string", "value": "ch06_xiake"}, {"name": "eraLayer", "type": "string", "value": "ch06"}],
  "tilesets": [{"firstgid": 1, "source": "../../../tiled/tilesets/terrain.tsj"}, {"firstgid": 49, "source": "../../../tiled/tilesets/height.tsj"}],
  "layers": [
    {
      "id": 1,
      "type": "tilelayer",
      "name": "terrain",
      "x": 0,
      "y": 0,
      "width": 96,
      "height": 96,
      "opacity": 1.0,
      "visible": true,
      "data": [
        0,0,0,0,0,0,0,0,0,0,0,0,0,0,0,0,0,0,0,0,0,0,0,0,0,0,0,0,0,0,0,0,0,0,0,0,0,0,0,0,0,0,0,0,0,0,0,0,0,0,0,0,0,0,0,0,0,0,0,0,0,0,0,0,0,0,0,0,0,0,0,0,0,0,0,0,0,0,0,0,0,0,0,0,0,0,0,0,0,0,0,0,0,0,0,0,
        0,0,0,0,0,0,0,0,0,0,0,0,0,0,0,0,0,0,0,0,0,0,0,0,0,0,0,0,0,0,0,0,0,0,0,0,0,0,0,0,0,0,0,0,0,0,0,0,0,0,0,0,0,0,0,0,0,0,0,0,0,0,0,0,0,0,0,0,0,0,0,0,0,0,0,0,0,0,0,0,0,0,0,0,0,0,0,0,0,0,0,0,0,0,0,0,
        0,0,0,0,0,0,0,0,0,0,0,0,0,0,0,0,0,0,0,0,0,0,0,0,0,0,0,0,0,0,0,0,0,0,0,0,0,0,0,0,0,0,0,0,0,0,0,0,0,0,0,0,0,0,0,0,0,0,0,0,0,0,0,0,0,0,0,0,0,0,0,0,0,0,0,0,0,0,0,0,0,0,0,0,0,0,0,0,0,0,0,0,0,0,0,0,
        0,0,0,0,0,0,0,0,0,0,0,0,0,0,0,0,0,0,0,0,0,0,0,0,0,0,0,0,0,0,0,0,0,0,0,0,0,0,0,0,0,0,0,0,0,0,0,0,0,0,0,0,0,0,0,0,0,0,0,0,0,0,0,0,0,0,0,0,0,0,0,0,0,0,0,0,0,0,0,0,0,0,0,0,0,0,0,0,0,0,0,0,0,0,0,0,
        0,0,0,0,0,0,0,0,0,0,0,0,0,0,0,0,0,0,0,0,0,0,0,0,0,0,0,0,0,0,0,0,0,0,0,0,0,0,0,0,0,0,0,0,0,0,0,0,0,0,0,0,0,0,0,0,0,0,0,0,0,0,0,0,0,0,0,0,0,0,0,0,0,0,0,0,0,0,0,0,0,0,0,0,0,0,0,0,0,0,0,0,0,0,0,0,
        0,0,0,0,0,0,0,0,0,0,0,0,0,0,0,0,0,0,0,0,0,0,0,0,0,0,0,0,0,0,0,0,0,0,0,0,0,0,0,0,0,0,0,0,0,0,0,0,0,0,0,0,0,0,0,0,0,0,0,0,0,0,0,0,0,0,0,0,0,0,0,0,0,0,0,0,0,0,0,0,0,0,0,0,0,0,0,0,0,0,0,0,0,0,0,0,
        0,0,0,0,0,0,0,0,0,0,0,0,0,0,0,0,0,0,0,0,0,0,0,0,0,0,0,0,0,0,0,0,0,0,0,0,0,0,0,0,0,0,0,0,0,0,0,0,0,0,0,0,0,0,0,0,0,0,0,0,0,0,0,0,0,0,0,0,0,0,0,0,0,0,0,0,0,0,0,0,0,0,0,0,0,0,0,0,0,0,0,0,0,0,0,0,
        0,0,0,0,0,0,0,0,0,0,0,0,0,0,0,0,43,43,43,43,43,43,43,43,0,43,43,43,43,43,43,43,43,0,43,43,43,43,43,43,43,43,0,43,43,43,43,43,43,43,43,0,43,43,43,43,43,43,43,43,0,43,43,43,43,43,43,43,43,0,43,43,43,43,43,43,43,43,0,43,43,43,43,43,43,43,43,0,0,0,0,0,0,0,0,0,
        0,0,0,0,0,0,0,0,0,0,0,0,0,0,0,43,38,38,38,43,38,38,38,43,43,38,38,38,43,38,38,38,43,43,38,38,38,43,38,38,38,43,43,38,38,38,43,38,38,38,43,43,38,38,38,43,38,38,38,43,43,38,38,38,43,38,38,38,43,43,38,38,38,43,38,38,38,43,43,38,38,38,43,38,38,38,43,0,0,0,0,0,0,0,0,0,
        0,0,0,0,0,0,0,0,0,0,0,0,0,0,0,43,38,38,38,38,38,38,38,43,43,38,38,38,38,38,38,38,43,43,38,38,38,38,38,38,38,43,43,38,38,38,38,38,38,38,43,43,38,38,38,38,38,38,38,43,43,38,38,38,38,38,38,38,43,43,38,38,38,38,38,38,38,43,43,38,38,38,38,38,38,38,43,0,0,0,0,0,0,0,0,0,
        0,0,0,0,0,0,0,0,0,0,0,0,0,0,0,43,38,38,38,38,38,38,38,43,43,38,38,38,38,38,38,38,43,43,38,38,38,38,38,38,38,43,43,38,38,38,38,38,38,38,43,43,38,38,38,38,38,38,38,43,43,38,38,38,38,38,38,38,43,43,38,38,38,38,38,38,38,43,43,38,38,38,38,38,38,38,43,0,0,0,0,0,0,0,0,0,
        0,0,0,0,0,0,0,0,0,0,0,0,0,0,0,43,38,38,38,38,38,38,38,43,43,38,38,38,38,38,38,38,43,43,38,38,38,38,38,38,38,43,43,38,38,38,38,38,38,38,43,43,38,38,38,38,38,38,38,43,43,38,38,38,38,38,38,38,43,43,38,38,38,38,38,38,38,43,43,38,38,38,38,38,38,38,43,0,0,0,0,0,0,0,0,0,
        0,0,0,0,0,0,0,0,0,0,0,0,0,0,0,43,38,38,38,38,38,38,38,43,43,38,38,38,38,38,38,38,43,43,38,38,38,38,38,38,38,43,43,38,38,38,38,38,38,38,43,43,38,38,38,38,38,38,38,43,43,38,38,38,38,38,38,38,43,43,38,38,38,38,38,38,38,43,43,38,38,38,38,38,38,38,43,0,0,0,0,0,0,0,0,0,
        0,0,0,0,0,0,0,0,0,0,0,0,0,0,0,43,38,38,38,38,38,38,38,43,43,38,38,38,38,38,38,38,43,43,38,38,38,38,38,38,38,43,43,38,38,38,38,38,38,38,43,43,38,38,38,38,38,38,38,43,43,38,38,38,38,38,38,38,43,43,38,38,38,38,38,38,38,43,43,38,38,38,38,38,38,38,43,0,0,0,0,0,0,0,0,0,
        0,0,0,0,0,0,0,0,0,0,0,0,0,0,0,43,38,38,38,38,38,38,38,43,43,38,38,38,38,38,38,38,43,43,38,38,38,38,38,38,38,43,43,38,38,38,38,38,38,38,43,43,38,38,38,38,38,38,38,43,43,38,38,38,38,38,38,38,43,43,38,38,38,38,38,38,38,43,43,38,38,38,38,38,38,38,43,0,0,0,0,0,0,0,0,0,
        0,0,0,0,0,0,0,0,0,0,0,0,0,0,0,43,38,38,38,38,38,38,38,43,43,38,38,38,38,38,38,38,43,43,38,38,38,38,38,38,38,43,43,38,38,38,38,38,38,38,43,43,38,38,38,38,38,38,38,43,43,38,38,38,38,38,38,38,43,43,38,38,38,38,38,38,38,43,43,38,38,38,38,38,38,38,43,0,0,0,0,0,0,0,0,0,
        0,0,0,0,0,0,0,0,0,0,0,0,0,0,0,43,38,38,38,38,38,38,38,43,43,38,38,38,38,38,38,38,43,43,38,38,38,38,38,38,38,43,43,38,38,38,38,38,38,38,43,43,38,38,38,38,38,38,38,43,43,38,38,38,38,38,38,38,43,43,38,38,38,38,38,38,38,43,43,38,38,38,38,38,38,38,43,0,0,0,0,0,0,0,0,0,
        0,0,0,0,0,0,0,0,0,0,0,0,0,0,0,43,43,43,43,38,43,43,43,0,43,43,43,43,38,43,43,43,0,43,43,43,43,38,43,43,43,0,43,43,43,43,38,43,43,43,0,43,43,43,43,38,43,43,43,0,43,43,43,43,38,43,43,43,0,43,43,43,43,38,43,43,43,0,43,43,43,43,38,43,43,43,0,0,0,0,0,0,0,0,0,0,
        0,0,0,0,0,0,0,0,0,0,0,0,0,0,0,0,0,0,43,38,43,0,0,0,0,0,0,43,38,43,0,0,0,0,0,0,43,38,43,0,0,0,0,0,0,43,38,43,0,0,0,0,0,0,43,38,43,0,0,0,0,0,0,43,38,43,0,0,0,0,0,0,43,38,43,0,0,0,0,0,0,43,38,43,0,0,0,0,0,0,0,0,0,0,0,0,
        0,0,0,0,0,0,0,0,0,0,0,0,0,43,43,43,43,43,43,38,43,43,43,43,43,43,43,43,38,43,43,43,43,43,43,43,43,38,43,43,43,43,43,43,43,43,38,43,43,43,43,43,43,43,43,38,43,43,43,43,43,43,43,43,38,43,43,43,43,43,43,43,43,38,43,43,43,43,43,43,43,43,38,43,43,43,43,43,43,43,43,0,0,0,0,0,
        0,0,0,0,0,0,0,0,0,0,0,0,43,38,38,38,38,38,38,38,38,38,38,38,38,38,38,38,38,38,38,38,38,38,38,38,38,38,38,38,38,38,38,38,38,38,38,38,38,38,38,38,38,38,38,38,38,38,38,38,38,38,38,38,38,38,38,38,38,38,38,38,38,38,38,38,38,38,38,38,38,38,38,38,38,38,38,38,38,38,43,0,0,0,0,0,
        0,0,0,0,0,0,0,0,0,0,0,0,43,38,38,38,38,38,38,38,38,38,38,38,38,38,38,38,38,38,38,38,38,38,38,38,38,38,38,38,38,38,38,38,38,38,38,38,38,38,38,38,38,38,38,38,38,38,38,38,38,38,38,38,38,38,38,38,38,38,38,38,38,38,38,38,38,38,38,38,38,38,38,38,38,38,38,38,38,38,43,0,0,0,0,0,
        0,0,0,0,0,0,0,0,0,0,0,0,43,38,38,38,38,38,38,38,38,38,38,38,38,38,38,38,38,38,38,38,38,38,38,38,38,38,38,38,38,38,38,38,38,38,38,38,38,38,38,38,38,38,38,38,38,38,38,38,38,38,38,38,38,38,38,38,38,38,38,38,38,38,38,38,38,38,38,38,38,38,38,38,38,38,38,38,38,38,43,0,0,0,0,0,
        0,0,0,0,0,0,0,0,0,0,0,0,43,38,38,38,43,43,43,43,43,43,43,43,43,43,43,43,43,43,43,43,43,43,43,43,43,43,43,43,43,43,43,43,43,43,43,43,43,43,43,43,43,43,43,43,43,43,43,43,43,43,43,43,43,43,43,43,43,43,43,43,43,43,43,43,43,43,43,43,43,43,43,43,43,43,43,38,38,38,43,0,0,0,0,0,
        0,0,0,0,0,0,0,0,0,0,0,0,43,38,38,38,43,0,0,0,0,0,0,0,0,0,0,0,0,0,0,0,0,0,0,0,0,0,0,0,0,0,0,0,0,0,0,0,0,0,0,0,0,0,0,0,0,0,0,0,0,0,0,0,0,0,0,0,0,0,0,0,0,0,0,0,0,0,0,0,0,0,0,0,0,0,43,38,38,38,43,0,0,0,0,0,
        0,0,0,0,0,0,0,0,0,0,0,0,43,38,38,38,43,0,0,0,0,0,0,0,0,0,0,0,0,0,0,0,0,0,0,0,0,0,0,0,0,0,0,0,0,0,0,0,0,0,0,0,0,0,0,0,0,0,0,0,0,0,0,0,0,0,0,0,0,0,0,0,0,0,0,0,0,0,0,0,0,0,0,0,0,0,43,38,38,38,43,0,0,0,0,0,
        0,0,0,0,0,0,0,0,0,0,0,0,43,38,38,38,43,0,0,0,0,0,0,0,0,0,0,0,0,0,0,0,0,0,0,0,0,0,0,0,0,0,0,0,0,0,0,0,0,0,0,0,0,0,0,0,0,0,0,0,0,0,0,0,0,0,0,0,0,0,0,0,0,0,0,0,0,0,0,0,0,0,0,0,0,0,43,38,38,38,43,0,0,0,0,0,
        0,0,0,0,0,0,0,0,0,0,0,0,43,38,38,38,43,0,0,0,0,0,0,0,0,0,0,0,0,0,0,0,0,0,0,0,0,0,0,0,0,0,0,0,0,0,0,0,0,0,0,0,0,0,0,0,0,0,0,0,0,0,0,0,0,0,0,0,0,0,0,0,0,0,0,0,0,0,0,0,0,0,0,0,0,0,43,38,38,38,43,0,0,0,0,0,
        0,0,0,0,0,0,0,0,0,0,0,0,43,38,38,38,43,0,0,0,0,0,0,0,0,0,0,0,0,0,0,0,0,0,0,0,0,0,0,0,0,0,0,0,0,0,0,0,0,0,0,0,0,0,0,0,0,0,0,0,0,0,0,0,0,0,0,0,0,0,0,0,0,0,0,0,0,0,0,0,0,0,0,0,0,0,43,38,38,38,43,0,0,0,0,0,
        0,0,0,0,0,0,0,0,0,0,0,0,43,38,38,38,43,0,0,0,0,0,0,0,0,0,0,0,0,0,0,0,0,0,0,0,0,0,0,0,0,0,0,0,0,0,0,0,0,0,0,0,0,0,0,0,0,0,0,0,0,0,0,0,0,0,0,0,0,0,0,0,0,0,0,0,0,0,0,0,0,0,0,0,0,0,43,38,38,38,43,0,0,0,0,0,
        0,0,0,0,0,0,0,0,0,0,0,0,43,38,38,38,43,0,0,0,0,0,0,0,0,0,0,0,0,0,0,0,0,0,0,0,0,0,0,0,0,0,0,0,0,0,0,0,0,0,0,0,0,0,0,0,0,0,0,0,0,0,0,0,0,0,0,0,0,0,0,0,0,0,0,0,0,0,0,0,0,0,0,0,0,0,43,38,38,38,43,0,0,0,0,0,
        0,0,0,0,0,0,0,0,0,0,0,0,43,38,38,38,43,0,0,0,0,0,0,0,0,0,0,0,0,0,0,0,0,0,0,0,0,0,0,0,0,0,0,0,0,0,0,0,0,0,0,0,0,0,0,0,0,0,0,0,0,0,0,0,0,0,0,0,0,0,0,0,0,0,0,0,0,0,0,0,0,0,0,0,0,0,43,38,38,38,43,0,0,0,0,0,
        0,0,0,0,0,0,0,0,0,0,0,0,43,38,38,38,43,0,0,0,0,0,0,0,0,0,0,0,0,0,0,0,0,0,0,0,0,0,0,0,0,0,0,0,0,0,0,0,0,0,0,0,0,0,0,0,0,0,0,0,0,0,0,0,0,0,0,0,0,0,0,0,0,0,0,0,0,0,0,0,0,0,0,0,0,0,43,38,38,38,43,0,0,0,0,0,
        0,0,0,0,0,0,0,0,0,0,0,0,43,38,38,38,43,0,0,0,0,0,0,0,0,0,0,0,0,0,0,0,0,0,0,0,0,0,0,0,0,0,0,0,0,0,0,0,0,0,0,0,0,0,0,0,0,0,0,0,0,0,0,0,0,0,0,0,0,0,0,0,0,0,0,0,0,0,0,0,0,0,0,0,0,0,43,38,38,38,43,0,0,0,0,0,
        0,0,0,0,0,0,0,0,0,0,0,0,43,38,38,38,43,0,0,0,0,0,0,0,0,0,0,0,0,0,0,0,0,0,0,0,0,0,0,0,0,0,0,0,0,0,0,0,0,0,0,0,0,0,0,0,0,0,0,0,0,0,0,0,0,0,0,0,0,0,0,0,0,0,0,0,0,0,0,0,0,0,0,0,0,0,43,38,38,38,43,0,0,0,0,0,
        0,0,0,0,0,0,0,0,0,0,0,0,43,38,38,38,43,0,0,0,0,0,0,0,0,0,0,0,0,0,0,0,0,0,0,0,0,0,0,0,0,0,0,0,0,0,0,0,0,0,0,0,0,0,0,0,0,0,0,0,0,0,0,0,0,0,0,0,0,0,0,0,0,0,0,0,0,0,0,0,0,0,0,0,0,0,43,38,38,38,43,0,0,0,0,0,
        0,0,0,0,0,0,0,0,0,0,0,0,43,38,38,38,43,43,43,43,43,43,43,43,0,43,43,43,43,43,43,43,43,0,43,43,43,43,43,43,43,43,0,43,43,43,43,43,43,43,43,0,43,43,43,43,43,43,43,43,0,43,43,43,43,43,43,43,43,0,43,43,43,43,43,43,43,43,0,43,43,43,43,43,43,43,43,38,38,38,43,0,0,0,0,0,
        0,0,0,0,0,0,0,0,0,0,0,0,43,38,38,38,38,38,38,43,38,38,38,43,43,38,38,38,43,38,38,38,43,43,38,38,38,43,38,38,38,43,43,38,38,38,43,38,38,38,43,43,38,38,38,43,38,38,38,43,43,38,38,38,43,38,38,38,43,43,38,38,38,43,38,38,38,43,43,38,38,38,43,38,38,38,43,38,38,38,43,0,0,0,0,0,
        0,0,0,0,0,0,0,0,0,0,0,0,43,38,38,38,38,38,38,38,38,38,38,43,43,38,38,38,38,38,38,38,43,43,38,38,38,38,38,38,38,43,43,38,38,38,38,38,38,38,43,43,38,38,38,38,38,38,38,43,43,38,38,38,38,38,38,38,43,43,38,38,38,38,38,38,38,43,43,38,38,38,38,38,38,38,43,38,38,38,43,0,0,0,0,0,
        0,0,0,0,0,0,0,0,0,0,0,0,43,38,38,38,38,38,38,38,38,38,38,43,43,38,38,38,38,38,38,38,43,43,38,38,38,38,38,38,38,43,43,38,38,38,38,38,38,38,43,43,38,38,38,38,38,38,38,43,43,38,38,38,38,38,38,38,43,43,38,38,38,38,38,38,38,43,43,38,38,38,38,38,38,38,43,38,38,38,43,0,0,0,0,0,
        0,0,0,0,0,0,0,0,0,0,0,0,43,38,38,38,38,38,38,38,38,38,38,43,43,38,38,38,38,38,38,38,43,43,38,38,38,38,38,38,38,43,43,38,38,38,38,38,38,38,43,43,38,38,38,38,38,38,38,43,43,38,38,38,38,38,38,38,43,43,38,38,38,38,38,38,38,43,43,38,38,38,38,38,38,38,43,38,38,38,43,0,0,0,0,0,
        0,0,0,0,0,0,0,0,0,0,0,0,43,38,38,38,38,38,38,38,38,38,38,43,43,38,38,38,38,38,38,38,43,43,38,38,38,38,38,38,38,43,43,38,38,38,38,38,38,38,43,43,38,38,38,38,38,38,38,43,43,38,38,38,38,38,38,38,43,43,38,38,38,38,38,38,38,43,43,38,38,38,38,38,38,38,43,38,38,38,43,0,0,0,0,0,
        0,0,0,0,0,0,0,0,0,0,0,0,43,38,38,38,38,38,38,38,38,38,38,43,43,38,38,38,38,38,38,38,43,43,38,38,38,38,38,38,38,43,43,38,38,38,38,38,38,38,43,43,38,38,38,38,38,38,38,43,43,38,38,38,38,38,38,38,43,43,38,38,38,38,38,38,38,43,43,38,38,38,38,38,38,38,43,38,38,38,43,0,0,0,0,0,
        0,0,0,0,0,0,0,0,0,0,0,0,43,38,38,38,38,38,38,38,38,38,38,43,43,38,38,38,38,38,38,38,43,43,38,38,38,38,38,38,38,43,43,38,38,38,38,38,38,38,43,43,38,38,38,38,38,38,38,43,43,38,38,38,38,38,38,38,43,43,38,38,38,38,38,38,38,43,43,38,38,38,38,38,38,38,43,38,38,38,43,0,0,0,0,0,
        0,0,0,0,43,43,43,43,43,43,43,0,43,38,38,38,38,38,38,38,38,38,38,43,43,38,38,38,38,38,38,38,43,43,38,38,38,38,38,38,38,43,43,38,38,38,38,38,38,38,43,43,38,38,38,38,38,38,38,43,43,38,38,38,38,38,38,38,43,43,38,38,38,38,38,38,38,43,43,38,38,38,38,38,38,38,43,38,38,38,43,0,0,0,0,0,
        0,0,0,43,38,38,38,38,38,38,43,0,43,38,38,38,38,38,38,38,38,38,38,43,43,38,38,38,38,38,38,38,43,43,38,38,38,38,38,38,38,43,43,38,38,38,38,38,38,38,43,43,38,38,38,38,38,38,38,43,43,38,38,38,38,38,38,38,43,43,38,38,38,38,38,38,38,43,43,38,38,38,38,38,38,38,43,38,38,38,43,0,0,0,0,0,
        0,0,0,43,38,38,38,38,38,38,43,43,43,38,38,38,43,43,43,38,43,43,43,0,43,43,43,43,38,43,43,43,0,43,43,43,43,38,43,43,43,0,43,43,43,43,38,43,43,43,0,43,43,43,43,38,43,43,43,0,43,43,43,43,38,43,43,43,0,43,43,43,43,38,43,43,43,0,43,43,43,43,38,43,43,43,43,38,38,38,43,0,0,0,0,0,
        0,0,0,43,38,38,38,38,38,38,38,38,38,38,38,38,43,0,43,38,43,0,0,0,0,0,0,43,38,43,0,0,0,0,0,0,43,38,43,0,0,0,0,0,0,43,38,43,0,0,0,0,0,0,43,38,43,0,0,0,0,0,0,43,38,43,0,0,0,0,0,0,43,38,43,0,0,0,0,0,0,43,38,43,0,0,43,38,38,38,43,0,0,0,0,0,
        0,0,0,43,38,38,38,38,38,38,38,38,38,38,38,38,43,43,43,38,43,43,43,43,43,43,43,43,38,43,43,43,43,43,43,43,43,38,43,43,43,43,43,43,43,43,38,43,43,43,43,43,43,43,43,38,43,43,43,43,43,43,43,43,38,43,43,43,43,43,43,43,43,38,43,43,43,43,43,43,43,43,38,43,43,43,43,38,38,38,43,0,0,0,0,0,
        0,0,0,43,38,38,38,38,38,38,38,38,38,38,38,38,38,38,38,38,38,38,38,38,38,38,38,38,38,38,38,38,38,38,38,38,38,38,38,38,38,38,38,38,38,38,38,38,38,38,38,38,38,38,38,38,38,38,38,38,38,38,38,38,38,38,38,38,38,38,38,38,38,38,38,38,38,38,38,38,38,38,38,38,38,38,38,38,38,38,43,0,0,0,0,0,
        0,0,0,43,38,38,38,38,38,38,43,43,43,38,38,38,38,38,38,38,38,38,38,38,38,38,38,38,38,38,38,38,38,38,38,38,38,38,38,38,38,38,38,38,38,38,38,38,38,38,38,38,38,38,38,38,38,38,38,38,38,38,38,38,38,38,38,38,38,38,38,38,38,38,38,38,38,38,38,38,38,38,38,38,38,38,38,38,38,38,43,0,0,0,0,0,
        0,0,0,43,38,38,38,38,38,38,43,0,43,38,38,38,38,38,38,38,38,38,38,38,38,38,38,38,38,38,38,38,38,38,38,38,38,38,38,38,38,38,38,38,38,38,38,38,38,38,38,38,38,38,38,38,38,38,38,38,38,38,38,38,38,38,38,38,38,38,38,38,38,38,38,38,38,38,38,38,38,38,38,38,38,38,38,38,38,38,43,0,0,0,0,0,
        0,0,0,43,43,43,43,43,43,43,0,0,43,38,38,38,43,43,43,43,43,43,43,43,43,43,43,43,43,43,43,43,43,43,43,43,43,43,43,43,43,43,43,43,43,43,43,43,43,43,43,43,43,43,43,43,43,43,43,43,43,43,43,43,43,43,43,43,43,43,43,43,43,43,43,43,43,43,43,43,43,43,43,43,43,43,43,38,38,38,43,0,0,0,0,0,
        0,0,0,0,0,0,0,0,0,0,0,0,43,38,38,38,43,0,0,0,0,0,0,0,0,0,0,0,0,0,0,0,0,0,0,0,0,0,0,0,0,0,0,0,0,0,0,0,0,0,0,0,0,0,0,0,0,0,0,0,0,0,0,0,0,0,0,0,0,0,0,0,0,0,0,0,0,0,0,0,0,0,0,0,0,0,43,38,38,38,43,0,0,0,0,0,
        0,0,0,0,0,0,0,0,0,0,0,0,43,38,38,38,43,0,0,0,0,0,0,0,0,0,0,0,0,0,0,0,0,0,0,0,0,0,0,0,0,0,0,0,0,0,0,0,0,0,0,0,0,0,0,0,0,0,0,0,0,0,0,0,0,0,0,0,0,0,0,0,0,0,0,0,0,0,0,0,0,0,0,0,0,0,43,38,38,38,43,0,0,0,0,0,
        0,0,0,0,0,0,0,0,0,0,0,0,43,38,38,38,43,0,0,0,0,0,0,0,0,0,0,0,0,0,0,0,0,0,0,0,0,0,0,0,0,0,0,0,0,0,0,0,0,0,0,0,0,0,0,0,0,0,0,0,0,0,0,0,0,0,0,0,0,0,0,0,0,0,0,0,0,0,0,0,0,0,0,0,0,0,43,38,38,38,43,0,0,0,0,0,
        0,0,0,0,0,0,0,0,0,0,0,0,43,38,38,38,43,0,0,0,0,0,0,0,0,0,0,0,0,0,0,0,0,0,0,0,0,0,0,0,0,0,0,0,0,0,0,0,0,0,0,0,0,0,0,0,0,0,0,0,0,0,0,0,0,0,0,0,0,0,0,0,0,0,0,0,0,0,0,0,0,0,0,0,0,0,43,38,38,38,43,0,0,0,0,0,
        0,0,0,0,0,0,0,0,0,0,0,0,43,38,38,38,43,0,0,0,0,0,0,0,0,0,0,0,0,0,0,0,0,0,0,0,0,0,0,0,0,0,0,0,0,0,0,0,0,0,0,0,0,0,0,0,0,0,0,0,0,0,0,0,0,0,0,0,0,0,0,0,0,0,0,0,0,0,0,0,0,0,0,0,0,0,43,38,38,38,43,0,0,0,0,0,
        0,0,0,0,0,0,0,0,0,0,0,0,43,38,38,38,43,0,0,0,0,0,0,0,0,0,0,0,0,0,0,0,0,0,0,0,0,0,0,0,0,0,0,0,0,0,0,0,0,0,0,0,0,0,0,0,0,0,0,0,0,0,0,0,0,0,0,0,0,0,0,0,0,0,0,0,0,0,0,0,0,0,0,0,0,0,43,38,38,38,43,0,0,0,0,0,
        0,0,0,0,0,0,0,0,0,0,0,0,43,38,38,38,43,0,0,0,0,0,0,0,0,0,0,0,0,0,0,0,0,0,0,0,0,0,0,0,0,0,0,0,0,0,0,0,0,0,0,0,0,0,0,0,0,0,0,0,0,0,0,0,0,0,0,0,0,0,0,0,0,0,0,0,0,0,0,0,0,0,0,0,0,0,43,38,38,38,43,0,0,0,0,0,
        0,0,0,0,0,0,0,0,0,0,0,0,43,38,38,38,43,0,0,0,0,0,0,0,0,0,0,0,0,0,0,0,0,0,0,0,0,0,0,0,0,0,0,0,0,0,0,0,0,0,0,0,0,0,0,0,0,0,0,0,0,0,0,0,0,0,0,0,0,0,0,0,0,0,0,0,0,0,0,0,0,0,0,0,0,0,43,38,38,38,43,0,0,0,0,0,
        0,0,0,0,0,0,0,0,0,0,0,0,43,38,38,38,43,0,0,0,0,0,0,0,0,0,0,0,0,0,0,0,0,0,0,0,0,0,0,0,0,0,0,0,0,0,0,0,0,0,0,0,0,0,0,0,0,0,0,0,0,0,0,0,0,0,0,0,0,0,0,0,0,0,0,0,0,0,0,0,0,0,0,0,0,0,43,38,38,38,43,0,0,0,0,0,
        0,0,0,0,0,0,0,0,0,0,0,0,43,38,38,38,43,0,0,0,0,0,0,0,0,0,0,0,0,0,0,0,0,0,0,0,0,0,0,0,0,0,0,0,0,0,0,0,0,0,0,0,0,0,0,0,0,0,0,0,0,0,0,0,0,0,0,0,0,0,0,0,0,0,0,0,0,0,0,0,0,0,0,0,0,0,43,38,38,38,43,0,0,0,0,0,
        0,0,0,0,0,0,0,0,0,0,0,0,43,38,38,38,43,0,0,0,0,0,0,0,0,0,0,0,0,0,0,0,0,0,0,0,0,0,0,0,0,0,0,0,0,0,0,0,0,0,0,0,0,0,0,0,0,0,0,0,0,0,0,0,0,0,0,0,0,0,0,0,0,0,0,0,0,0,0,0,0,0,0,0,0,0,43,38,38,38,43,0,0,0,0,0,
        0,0,0,0,0,0,0,0,0,0,0,0,43,38,38,38,43,0,0,0,0,0,0,0,0,0,0,0,0,0,0,0,0,0,0,0,0,0,0,0,0,0,0,0,0,0,0,0,0,0,0,0,0,0,0,0,0,0,0,0,0,0,0,0,0,0,0,0,0,0,0,0,0,0,0,0,0,43,43,43,43,43,43,43,43,43,43,38,38,38,43,0,0,0,0,0,
        0,0,0,0,0,0,0,0,0,0,0,0,43,38,38,38,43,43,43,43,43,43,43,43,0,43,43,43,43,43,43,43,43,0,43,43,43,43,43,43,43,43,0,43,43,43,43,43,43,43,43,0,43,43,43,43,43,43,43,43,0,43,43,43,43,43,43,43,43,0,43,43,43,43,43,43,43,38,38,38,38,38,38,38,38,38,38,38,38,38,43,0,0,0,0,0,
        0,0,0,0,0,0,0,0,0,0,0,0,43,38,38,38,38,38,38,43,38,38,38,43,43,38,38,38,43,38,38,38,43,43,38,38,38,43,38,38,38,43,43,38,38,38,43,38,38,38,43,43,38,38,38,43,38,38,38,43,43,38,38,38,43,38,38,38,43,43,38,38,38,43,38,38,38,38,38,38,38,38,43,38,38,38,38,38,38,38,43,0,0,0,0,0,
        0,0,0,0,0,0,0,0,0,0,0,0,43,38,38,38,38,38,38,38,38,38,38,43,43,38,38,38,38,38,38,38,43,43,38,38,38,38,38,38,38,43,43,38,38,38,38,38,38,38,43,43,38,38,38,38,38,38,38,43,43,38,38,38,38,38,38,38,43,43,38,38,38,38,38,38,38,38,38,38,38,38,38,38,38,38,38,38,38,38,43,0,0,0,0,0,
        0,0,0,0,0,0,0,0,0,0,0,0,43,38,38,38,38,38,38,38,38,38,38,43,43,38,38,38,38,38,38,38,43,43,38,38,38,38,38,38,38,43,43,38,38,38,38,38,38,38,43,43,38,38,38,38,38,38,38,43,43,38,38,38,38,38,38,38,43,43,38,38,38,38,38,38,38,38,38,38,38,38,38,38,38,38,38,38,38,38,43,0,0,0,0,0,
        0,0,0,0,0,0,0,0,0,0,0,0,43,38,38,38,38,38,38,38,38,38,38,43,43,38,38,38,38,38,38,38,43,43,38,38,38,38,38,38,38,43,43,38,38,38,38,38,38,38,43,43,38,38,38,38,38,38,38,43,43,38,38,38,38,38,38,38,43,43,38,38,38,38,38,38,38,38,38,38,38,38,38,38,38,38,38,38,38,38,43,0,0,0,0,0,
        0,0,0,0,0,0,0,0,0,0,0,0,43,38,38,38,38,38,38,38,38,38,38,43,43,38,38,38,38,38,38,38,43,43,38,38,38,38,38,38,38,43,43,38,38,38,38,38,38,38,43,43,38,38,38,38,38,38,38,43,43,38,38,38,38,38,38,38,43,43,38,38,38,38,38,38,38,38,38,38,38,38,38,38,38,38,38,38,38,38,43,0,0,0,0,0,
        0,0,0,0,0,0,0,0,0,0,0,0,43,38,38,38,38,38,38,38,38,38,38,43,43,38,38,38,38,38,38,38,43,43,38,38,38,38,38,38,38,43,43,38,38,38,38,38,38,38,43,43,38,38,38,38,38,38,38,43,43,38,38,38,38,38,38,38,43,43,38,38,38,38,38,38,38,38,38,38,38,38,38,38,38,38,38,38,38,38,43,0,0,0,0,0,
        0,0,0,0,0,0,0,0,0,0,0,0,43,38,38,38,38,38,38,38,38,38,38,43,43,38,38,38,38,38,38,38,43,43,38,38,38,38,38,38,38,43,43,38,38,38,38,38,38,38,43,43,38,38,38,38,38,38,38,43,43,38,38,38,38,38,38,38,43,43,38,38,38,38,38,38,38,38,38,38,38,38,38,38,38,38,38,38,38,38,43,0,0,0,0,0,
        0,0,0,0,0,0,0,0,0,0,0,0,43,38,38,38,38,38,38,38,38,38,38,43,43,38,38,38,38,38,38,38,43,43,38,38,38,38,38,38,38,43,43,38,38,38,38,38,38,38,43,43,38,38,38,38,38,38,38,43,43,38,38,38,38,38,38,38,43,43,38,38,38,38,38,38,38,38,38,38,38,38,38,38,38,38,38,38,38,38,43,0,0,0,0,0,
        0,0,0,0,0,0,0,0,0,0,0,0,43,38,38,38,38,38,38,38,38,38,38,43,43,38,38,38,38,38,38,38,43,43,38,38,38,38,38,38,38,43,43,38,38,38,38,38,38,38,43,43,38,38,38,38,38,38,38,43,43,38,38,38,38,38,38,38,43,43,38,38,38,38,38,38,38,38,38,38,38,38,38,38,38,38,38,38,38,38,43,0,0,0,0,0,
        0,0,0,0,0,0,0,0,0,0,0,0,43,38,38,38,43,43,43,38,43,43,43,0,43,43,43,43,38,43,43,43,0,43,43,43,43,38,43,43,43,0,43,43,43,43,38,43,43,43,0,43,43,43,43,38,43,43,43,0,43,43,43,43,38,43,43,43,0,43,43,43,43,38,43,43,43,38,38,38,38,38,38,38,38,38,38,38,38,38,43,0,0,0,0,0,
        0,0,0,0,0,0,0,0,0,0,0,0,43,38,38,38,43,0,43,38,43,0,0,0,0,0,0,43,38,43,0,0,0,0,0,0,43,38,43,0,0,0,0,0,0,43,38,43,0,0,0,0,0,0,43,38,43,0,0,0,0,0,0,43,38,43,0,0,0,0,0,0,43,38,43,0,43,43,43,43,43,43,38,43,43,43,43,38,38,38,43,0,0,0,0,0,
        0,0,0,0,0,0,0,0,0,0,0,0,43,38,38,38,43,43,43,38,43,43,43,43,43,43,43,43,38,43,43,43,43,43,43,43,43,38,43,43,43,43,43,43,43,43,38,43,43,43,43,43,43,43,43,38,43,43,43,43,43,43,43,43,38,43,43,43,43,43,43,43,43,38,43,43,43,43,43,43,43,43,38,43,43,43,43,38,38,38,43,0,0,0,0,0,
        0,0,0,0,0,0,0,0,0,0,0,0,43,38,38,38,38,38,38,38,38,38,38,38,38,38,38,38,38,38,38,38,38,38,38,38,38,38,38,38,38,38,38,38,38,38,38,38,38,38,38,38,38,38,38,38,38,38,38,38,38,38,38,38,38,38,38,38,38,38,38,38,38,38,38,38,38,38,38,38,38,38,38,38,38,38,38,38,38,38,43,0,0,0,0,0,
        0,0,0,0,0,0,0,0,0,0,0,0,43,38,38,38,38,38,38,38,38,38,38,38,38,38,38,38,38,38,38,38,38,38,38,38,38,38,38,38,38,38,38,38,38,38,38,38,38,38,38,38,38,38,38,38,38,38,38,38,38,38,38,38,38,38,38,38,38,38,38,38,38,38,38,38,38,38,38,38,38,38,38,38,38,38,38,38,38,38,43,0,0,0,0,0,
        0,0,0,0,0,0,0,0,0,0,0,0,43,38,38,38,38,38,38,38,38,38,38,38,38,38,38,38,38,38,38,38,38,38,38,38,38,38,38,38,38,38,38,38,38,38,38,38,38,38,38,38,38,38,38,38,38,38,38,38,38,38,38,38,38,38,38,38,38,38,38,38,38,38,38,38,38,38,38,38,38,38,38,38,38,38,38,38,38,38,43,0,0,0,0,0,
        0,0,0,0,0,0,0,0,0,0,0,0,43,38,38,38,43,43,43,43,43,43,43,43,43,43,43,43,43,43,43,43,43,43,43,43,43,43,43,43,43,43,43,43,43,43,43,43,43,43,43,43,43,43,43,43,43,43,43,43,43,43,43,43,43,43,43,43,43,43,43,43,43,43,43,43,43,43,43,43,43,43,43,43,43,43,43,38,38,38,43,0,0,0,0,0,
        0,0,0,0,0,0,0,0,0,0,0,0,43,38,38,38,43,0,0,0,0,0,0,0,0,0,0,0,0,0,0,0,0,0,0,0,0,0,0,0,0,0,0,0,0,0,0,0,0,0,0,0,0,0,0,0,0,0,0,0,0,0,0,0,0,0,0,0,0,0,0,0,0,0,0,0,0,0,0,0,0,0,0,0,0,0,43,38,38,38,43,0,0,0,0,0,
        0,0,0,0,0,0,0,0,0,0,0,0,43,38,38,38,43,0,0,0,0,0,0,0,0,0,0,0,0,0,0,0,0,0,0,0,0,0,0,0,0,0,0,0,0,0,0,0,0,0,0,0,0,0,0,0,0,0,0,0,0,0,0,0,0,0,0,0,0,0,0,0,0,0,0,0,0,0,0,0,0,0,0,0,0,0,43,38,38,38,43,0,0,0,0,0,
        0,0,0,0,0,0,0,0,0,0,0,0,43,38,38,38,43,0,0,0,0,0,0,0,0,0,0,0,0,0,0,0,0,0,0,0,0,0,0,0,0,0,0,0,0,0,0,0,0,0,0,0,0,0,0,0,0,0,0,0,0,0,0,0,0,0,0,0,0,0,0,0,0,0,0,0,0,0,0,0,0,0,0,0,0,0,43,38,38,38,43,0,0,0,0,0,
        0,0,0,0,0,0,0,0,0,0,0,0,43,38,38,38,43,43,43,43,43,43,43,43,43,43,43,43,43,43,43,43,43,43,43,43,43,43,43,43,43,43,43,43,43,43,43,43,43,43,43,43,43,43,43,43,43,43,43,43,43,43,43,43,43,43,43,43,43,43,43,43,43,43,43,43,43,43,43,43,43,43,43,43,43,43,43,38,38,38,43,0,0,0,0,0,
        0,0,0,0,0,0,0,0,0,0,0,0,43,38,38,38,38,38,38,38,38,38,38,38,38,38,38,38,38,38,38,38,38,38,38,38,38,38,38,38,38,38,38,38,38,38,38,38,38,38,38,38,38,38,38,38,38,38,38,38,38,38,38,38,38,38,38,38,38,38,38,38,38,38,38,38,38,38,38,38,38,38,38,38,38,38,38,38,38,38,43,0,0,0,0,0,
        0,0,0,0,0,0,0,0,0,0,0,0,43,38,38,38,38,38,38,38,38,38,38,38,38,38,38,38,38,38,38,38,38,38,38,38,38,38,38,38,38,38,38,38,38,38,38,38,38,38,38,38,38,38,38,38,38,38,38,38,38,38,38,38,38,38,38,38,38,38,38,38,38,38,38,38,38,38,38,38,38,38,38,38,38,38,38,38,38,38,43,0,0,0,0,0,
        0,0,0,0,0,0,0,0,0,0,0,0,43,38,38,38,38,38,38,38,38,38,38,38,38,38,38,38,38,38,38,38,38,38,38,38,38,38,38,38,38,38,38,38,38,38,38,38,38,38,38,38,38,38,38,38,38,38,38,38,38,38,38,38,38,38,38,38,38,38,38,38,38,38,38,38,38,38,38,38,38,38,38,38,38,38,38,38,38,38,43,0,0,0,0,0,
        0,0,0,0,0,0,0,0,0,0,0,0,43,43,43,43,43,43,43,43,43,43,43,43,43,43,43,43,43,43,43,43,43,43,43,43,43,43,43,43,43,43,43,43,43,43,43,43,43,43,43,43,43,43,43,43,43,43,43,43,43,43,43,43,43,43,43,43,43,43,43,43,43,43,43,43,43,43,43,43,43,43,43,43,43,43,43,43,43,43,0,0,0,0,0,0,
        0,0,0,0,0,0,0,0,0,0,0,0,0,0,0,0,0,0,0,0,0,0,0,0,0,0,0,0,0,0,0,0,0,0,0,0,0,0,0,0,0,0,0,0,0,0,0,0,0,0,0,0,0,0,0,0,0,0,0,0,0,0,0,0,0,0,0,0,0,0,0,0,0,0,0,0,0,0,0,0,0,0,0,0,0,0,0,0,0,0,0,0,0,0,0,0,
        0,0,0,0,0,0,0,0,0,0,0,0,0,0,0,0,0,0,0,0,0,0,0,0,0,0,0,0,0,0,0,0,0,0,0,0,0,0,0,0,0,0,0,0,0,0,0,0,0,0,0,0,0,0,0,0,0,0,0,0,0,0,0,0,0,0,0,0,0,0,0,0,0,0,0,0,0,0,0,0,0,0,0,0,0,0,0,0,0,0,0,0,0,0,0,0,
        0,0,0,0,0,0,0,0,0,0,0,0,0,0,0,0,0,0,0,0,0,0,0,0,0,0,0,0,0,0,0,0,0,0,0,0,0,0,0,0,0,0,0,0,0,0,0,0,0,0,0,0,0,0,0,0,0,0,0,0,0,0,0,0,0,0,0,0,0,0,0,0,0,0,0,0,0,0,0,0,0,0,0,0,0,0,0,0,0,0,0,0,0,0,0,0,
        0,0,0,0,0,0,0,0,0,0,0,0,0,0,0,0,0,0,0,0,0,0,0,0,0,0,0,0,0,0,0,0,0,0,0,0,0,0,0,0,0,0,0,0,0,0,0,0,0,0,0,0,0,0,0,0,0,0,0,0,0,0,0,0,0,0,0,0,0,0,0,0,0,0,0,0,0,0,0,0,0,0,0,0,0,0,0,0,0,0,0,0,0,0,0,0,
        0,0,0,0,0,0,0,0,0,0,0,0,0,0,0,0,0,0,0,0,0,0,0,0,0,0,0,0,0,0,0,0,0,0,0,0,0,0,0,0,0,0,0,0,0,0,0,0,0,0,0,0,0,0,0,0,0,0,0,0,0,0,0,0,0,0,0,0,0,0,0,0,0,0,0,0,0,0,0,0,0,0,0,0,0,0,0,0,0,0,0,0,0,0,0,0,
        0,0,0,0,0,0,0,0,0,0,0,0,0,0,0,0,0,0,0,0,0,0,0,0,0,0,0,0,0,0,0,0,0,0,0,0,0,0,0,0,0,0,0,0,0,0,0,0,0,0,0,0,0,0,0,0,0,0,0,0,0,0,0,0,0,0,0,0,0,0,0,0,0,0,0,0,0,0,0,0,0,0,0,0,0,0,0,0,0,0,0,0,0,0,0,0
      ]
    },
    {
      "id": 2,
      "type": "tilelayer",
      "name": "height",
      "x": 0,
      "y": 0,
      "width": 96,
      "height": 96,
      "opacity": 0.0,
      "visible": false,
      "data": [
        0,0,0,0,0,0,0,0,0,0,0,0,0,0,0,0,0,0,0,0,0,0,0,0,0,0,0,0,0,0,0,0,0,0,0,0,0,0,0,0,0,0,0,0,0,0,0,0,0,0,0,0,0,0,0,0,0,0,0,0,0,0,0,0,0,0,0,0,0,0,0,0,0,0,0,0,0,0,0,0,0,0,0,0,0,0,0,0,0,0,0,0,0,0,0,0,
        0,0,0,0,0,0,0,0,0,0,0,0,0,0,0,0,0,0,0,0,0,0,0,0,0,0,0,0,0,0,0,0,0,0,0,0,0,0,0,0,0,0,0,0,0,0,0,0,0,0,0,0,0,0,0,0,0,0,0,0,0,0,0,0,0,0,0,0,0,0,0,0,0,0,0,0,0,0,0,0,0,0,0,0,0,0,0,0,0,0,0,0,0,0,0,0,
        0,0,0,0,0,0,0,0,0,0,0,0,0,0,0,0,0,0,0,0,0,0,0,0,0,0,0,0,0,0,0,0,0,0,0,0,0,0,0,0,0,0,0,0,0,0,0,0,0,0,0,0,0,0,0,0,0,0,0,0,0,0,0,0,0,0,0,0,0,0,0,0,0,0,0,0,0,0,0,0,0,0,0,0,0,0,0,0,0,0,0,0,0,0,0,0,
        0,0,0,0,0,0,0,0,0,0,0,0,0,0,0,0,0,0,0,0,0,0,0,0,0,0,0,0,0,0,0,0,0,0,0,0,0,0,0,0,0,0,0,0,0,0,0,0,0,0,0,0,0,0,0,0,0,0,0,0,0,0,0,0,0,0,0,0,0,0,0,0,0,0,0,0,0,0,0,0,0,0,0,0,0,0,0,0,0,0,0,0,0,0,0,0,
        0,0,0,0,0,0,0,0,0,0,0,0,0,0,0,0,0,0,0,0,0,0,0,0,0,0,0,0,0,0,0,0,0,0,0,0,0,0,0,0,0,0,0,0,0,0,0,0,0,0,0,0,0,0,0,0,0,0,0,0,0,0,0,0,0,0,0,0,0,0,0,0,0,0,0,0,0,0,0,0,0,0,0,0,0,0,0,0,0,0,0,0,0,0,0,0,
        0,0,0,0,0,0,0,0,0,0,0,0,0,0,0,0,0,0,0,0,0,0,0,0,0,0,0,0,0,0,0,0,0,0,0,0,0,0,0,0,0,0,0,0,0,0,0,0,0,0,0,0,0,0,0,0,0,0,0,0,0,0,0,0,0,0,0,0,0,0,0,0,0,0,0,0,0,0,0,0,0,0,0,0,0,0,0,0,0,0,0,0,0,0,0,0,
        0,0,0,0,0,0,0,0,0,0,0,0,0,0,0,0,0,0,0,0,0,0,0,0,0,0,0,0,0,0,0,0,0,0,0,0,0,0,0,0,0,0,0,0,0,0,0,0,0,0,0,0,0,0,0,0,0,0,0,0,0,0,0,0,0,0,0,0,0,0,0,0,0,0,0,0,0,0,0,0,0,0,0,0,0,0,0,0,0,0,0,0,0,0,0,0,
        0,0,0,0,0,0,0,0,0,0,0,0,0,0,0,0,52,52,52,52,52,52,52,52,0,52,52,52,52,52,52,52,52,0,52,52,52,52,52,52,52,52,0,52,52,52,52,52,52,52,52,0,52,52,52,52,52,52,52,52,0,52,52,52,52,52,52,52,52,0,52,52,52,52,52,52,52,52,0,52,52,52,52,52,52,52,52,0,0,0,0,0,0,0,0,0,
        0,0,0,0,0,0,0,0,0,0,0,0,0,0,0,52,49,49,49,52,49,49,49,52,52,49,49,49,52,49,49,49,52,52,49,49,49,52,49,49,49,52,52,49,49,49,52,49,49,49,52,52,49,49,49,52,49,49,49,52,52,49,49,49,52,49,49,49,52,52,49,49,49,52,49,49,49,52,52,49,49,49,52,49,49,49,52,0,0,0,0,0,0,0,0,0,
        0,0,0,0,0,0,0,0,0,0,0,0,0,0,0,52,49,49,49,49,49,49,49,52,52,49,49,49,49,49,49,49,52,52,49,49,49,49,49,49,49,52,52,49,49,49,49,49,49,49,52,52,49,49,49,49,49,49,49,52,52,49,49,49,49,49,49,49,52,52,49,49,49,49,49,49,49,52,52,49,49,49,49,49,49,49,52,0,0,0,0,0,0,0,0,0,
        0,0,0,0,0,0,0,0,0,0,0,0,0,0,0,52,49,49,49,49,49,49,49,52,52,49,49,49,49,49,49,49,52,52,49,49,49,49,49,49,49,52,52,49,49,49,49,49,49,49,52,52,49,49,49,49,49,49,49,52,52,49,49,49,49,49,49,49,52,52,49,49,49,49,49,49,49,52,52,49,49,49,49,49,49,49,52,0,0,0,0,0,0,0,0,0,
        0,0,0,0,0,0,0,0,0,0,0,0,0,0,0,52,49,49,49,49,49,49,49,52,52,49,49,49,49,49,49,49,52,52,49,49,49,49,49,49,49,52,52,49,49,49,49,49,49,49,52,52,49,49,49,49,49,49,49,52,52,49,49,49,49,49,49,49,52,52,49,49,49,49,49,49,49,52,52,49,49,49,49,49,49,49,52,0,0,0,0,0,0,0,0,0,
        0,0,0,0,0,0,0,0,0,0,0,0,0,0,0,52,49,49,49,49,49,49,49,52,52,49,49,49,49,49,49,49,52,52,49,49,49,49,49,49,49,52,52,49,49,49,49,49,49,49,52,52,49,49,49,49,49,49,49,52,52,49,49,49,49,49,49,49,52,52,49,49,49,49,49,49,49,52,52,49,49,49,49,49,49,49,52,0,0,0,0,0,0,0,0,0,
        0,0,0,0,0,0,0,0,0,0,0,0,0,0,0,52,49,49,49,49,49,49,49,52,52,49,49,49,49,49,49,49,52,52,49,49,49,49,49,49,49,52,52,49,49,49,49,49,49,49,52,52,49,49,49,49,49,49,49,52,52,49,49,49,49,49,49,49,52,52,49,49,49,49,49,49,49,52,52,49,49,49,49,49,49,49,52,0,0,0,0,0,0,0,0,0,
        0,0,0,0,0,0,0,0,0,0,0,0,0,0,0,52,49,49,49,49,49,49,49,52,52,49,49,49,49,49,49,49,52,52,49,49,49,49,49,49,49,52,52,49,49,49,49,49,49,49,52,52,49,49,49,49,49,49,49,52,52,49,49,49,49,49,49,49,52,52,49,49,49,49,49,49,49,52,52,49,49,49,49,49,49,49,52,0,0,0,0,0,0,0,0,0,
        0,0,0,0,0,0,0,0,0,0,0,0,0,0,0,52,49,49,49,49,49,49,49,52,52,49,49,49,49,49,49,49,52,52,49,49,49,49,49,49,49,52,52,49,49,49,49,49,49,49,52,52,49,49,49,49,49,49,49,52,52,49,49,49,49,49,49,49,52,52,49,49,49,49,49,49,49,52,52,49,49,49,49,49,49,49,52,0,0,0,0,0,0,0,0,0,
        0,0,0,0,0,0,0,0,0,0,0,0,0,0,0,52,49,49,49,49,49,49,49,52,52,49,49,49,49,49,49,49,52,52,49,49,49,49,49,49,49,52,52,49,49,49,49,49,49,49,52,52,49,49,49,49,49,49,49,52,52,49,49,49,49,49,49,49,52,52,49,49,49,49,49,49,49,52,52,49,49,49,49,49,49,49,52,0,0,0,0,0,0,0,0,0,
        0,0,0,0,0,0,0,0,0,0,0,0,0,0,0,52,52,52,52,49,52,52,52,0,52,52,52,52,49,52,52,52,0,52,52,52,52,49,52,52,52,0,52,52,52,52,49,52,52,52,0,52,52,52,52,49,52,52,52,0,52,52,52,52,49,52,52,52,0,52,52,52,52,49,52,52,52,0,52,52,52,52,49,52,52,52,0,0,0,0,0,0,0,0,0,0,
        0,0,0,0,0,0,0,0,0,0,0,0,0,0,0,0,0,0,52,49,52,0,0,0,0,0,0,52,49,52,0,0,0,0,0,0,52,49,52,0,0,0,0,0,0,52,49,52,0,0,0,0,0,0,52,49,52,0,0,0,0,0,0,52,49,52,0,0,0,0,0,0,52,49,52,0,0,0,0,0,0,52,49,52,0,0,0,0,0,0,0,0,0,0,0,0,
        0,0,0,0,0,0,0,0,0,0,0,0,0,52,52,52,52,52,52,49,52,52,52,52,52,52,52,52,49,52,52,52,52,52,52,52,52,49,52,52,52,52,52,52,52,52,49,52,52,52,52,52,52,52,52,49,52,52,52,52,52,52,52,52,49,52,52,52,52,52,52,52,52,49,52,52,52,52,52,52,52,52,49,52,52,52,52,52,52,52,52,0,0,0,0,0,
        0,0,0,0,0,0,0,0,0,0,0,0,52,49,49,49,49,49,49,49,49,49,49,49,49,49,49,49,49,49,49,49,49,49,49,49,49,49,49,49,49,49,49,49,49,49,49,49,49,49,49,49,49,49,49,49,49,49,49,49,49,49,49,49,49,49,49,49,49,49,49,49,49,49,49,49,49,49,49,49,49,49,49,49,49,49,49,49,49,49,52,0,0,0,0,0,
        0,0,0,0,0,0,0,0,0,0,0,0,52,49,49,49,49,49,49,49,49,49,49,49,49,49,49,49,49,49,49,49,49,49,49,49,49,49,49,49,49,49,49,49,49,49,49,49,49,49,49,49,49,49,49,49,49,49,49,49,49,49,49,49,49,49,49,49,49,49,49,49,49,49,49,49,49,49,49,49,49,49,49,49,49,49,49,49,49,49,52,0,0,0,0,0,
        0,0,0,0,0,0,0,0,0,0,0,0,52,49,49,49,49,49,49,49,49,49,49,49,49,49,49,49,49,49,49,49,49,49,49,49,49,49,49,49,49,49,49,49,49,49,49,49,49,49,49,49,49,49,49,49,49,49,49,49,49,49,49,49,49,49,49,49,49,49,49,49,49,49,49,49,49,49,49,49,49,49,49,49,49,49,49,49,49,49,52,0,0,0,0,0,
        0,0,0,0,0,0,0,0,0,0,0,0,52,49,49,49,52,52,52,52,52,52,52,52,52,52,52,52,52,52,52,52,52,52,52,52,52,52,52,52,52,52,52,52,52,52,52,52,52,52,52,52,52,52,52,52,52,52,52,52,52,52,52,52,52,52,52,52,52,52,52,52,52,52,52,52,52,52,52,52,52,52,52,52,52,52,52,49,49,49,52,0,0,0,0,0,
        0,0,0,0,0,0,0,0,0,0,0,0,52,49,49,49,52,0,0,0,0,0,0,0,0,0,0,0,0,0,0,0,0,0,0,0,0,0,0,0,0,0,0,0,0,0,0,0,0,0,0,0,0,0,0,0,0,0,0,0,0,0,0,0,0,0,0,0,0,0,0,0,0,0,0,0,0,0,0,0,0,0,0,0,0,0,52,49,49,49,52,0,0,0,0,0,
        0,0,0,0,0,0,0,0,0,0,0,0,52,49,49,49,52,0,0,0,0,0,0,0,0,0,0,0,0,0,0,0,0,0,0,0,0,0,0,0,0,0,0,0,0,0,0,0,0,0,0,0,0,0,0,0,0,0,0,0,0,0,0,0,0,0,0,0,0,0,0,0,0,0,0,0,0,0,0,0,0,0,0,0,0,0,52,49,49,49,52,0,0,0,0,0,
        0,0,0,0,0,0,0,0,0,0,0,0,52,49,49,49,52,0,0,0,0,0,0,0,0,0,0,0,0,0,0,0,0,0,0,0,0,0,0,0,0,0,0,0,0,0,0,0,0,0,0,0,0,0,0,0,0,0,0,0,0,0,0,0,0,0,0,0,0,0,0,0,0,0,0,0,0,0,0,0,0,0,0,0,0,0,52,49,49,49,52,0,0,0,0,0,
        0,0,0,0,0,0,0,0,0,0,0,0,52,49,49,49,52,0,0,0,0,0,0,0,0,0,0,0,0,0,0,0,0,0,0,0,0,0,0,0,0,0,0,0,0,0,0,0,0,0,0,0,0,0,0,0,0,0,0,0,0,0,0,0,0,0,0,0,0,0,0,0,0,0,0,0,0,0,0,0,0,0,0,0,0,0,52,49,49,49,52,0,0,0,0,0,
        0,0,0,0,0,0,0,0,0,0,0,0,52,49,49,49,52,0,0,0,0,0,0,0,0,0,0,0,0,0,0,0,0,0,0,0,0,0,0,0,0,0,0,0,0,0,0,0,0,0,0,0,0,0,0,0,0,0,0,0,0,0,0,0,0,0,0,0,0,0,0,0,0,0,0,0,0,0,0,0,0,0,0,0,0,0,52,49,49,49,52,0,0,0,0,0,
        0,0,0,0,0,0,0,0,0,0,0,0,52,49,49,49,52,0,0,0,0,0,0,0,0,0,0,0,0,0,0,0,0,0,0,0,0,0,0,0,0,0,0,0,0,0,0,0,0,0,0,0,0,0,0,0,0,0,0,0,0,0,0,0,0,0,0,0,0,0,0,0,0,0,0,0,0,0,0,0,0,0,0,0,0,0,52,49,49,49,52,0,0,0,0,0,
        0,0,0,0,0,0,0,0,0,0,0,0,52,49,49,49,52,0,0,0,0,0,0,0,0,0,0,0,0,0,0,0,0,0,0,0,0,0,0,0,0,0,0,0,0,0,0,0,0,0,0,0,0,0,0,0,0,0,0,0,0,0,0,0,0,0,0,0,0,0,0,0,0,0,0,0,0,0,0,0,0,0,0,0,0,0,52,49,49,49,52,0,0,0,0,0,
        0,0,0,0,0,0,0,0,0,0,0,0,52,49,49,49,52,0,0,0,0,0,0,0,0,0,0,0,0,0,0,0,0,0,0,0,0,0,0,0,0,0,0,0,0,0,0,0,0,0,0,0,0,0,0,0,0,0,0,0,0,0,0,0,0,0,0,0,0,0,0,0,0,0,0,0,0,0,0,0,0,0,0,0,0,0,52,49,49,49,52,0,0,0,0,0,
        0,0,0,0,0,0,0,0,0,0,0,0,52,49,49,49,52,0,0,0,0,0,0,0,0,0,0,0,0,0,0,0,0,0,0,0,0,0,0,0,0,0,0,0,0,0,0,0,0,0,0,0,0,0,0,0,0,0,0,0,0,0,0,0,0,0,0,0,0,0,0,0,0,0,0,0,0,0,0,0,0,0,0,0,0,0,52,49,49,49,52,0,0,0,0,0,
        0,0,0,0,0,0,0,0,0,0,0,0,52,49,49,49,52,0,0,0,0,0,0,0,0,0,0,0,0,0,0,0,0,0,0,0,0,0,0,0,0,0,0,0,0,0,0,0,0,0,0,0,0,0,0,0,0,0,0,0,0,0,0,0,0,0,0,0,0,0,0,0,0,0,0,0,0,0,0,0,0,0,0,0,0,0,52,49,49,49,52,0,0,0,0,0,
        0,0,0,0,0,0,0,0,0,0,0,0,52,49,49,49,52,0,0,0,0,0,0,0,0,0,0,0,0,0,0,0,0,0,0,0,0,0,0,0,0,0,0,0,0,0,0,0,0,0,0,0,0,0,0,0,0,0,0,0,0,0,0,0,0,0,0,0,0,0,0,0,0,0,0,0,0,0,0,0,0,0,0,0,0,0,52,49,49,49,52,0,0,0,0,0,
        0,0,0,0,0,0,0,0,0,0,0,0,52,49,49,49,52,0,0,0,0,0,0,0,0,0,0,0,0,0,0,0,0,0,0,0,0,0,0,0,0,0,0,0,0,0,0,0,0,0,0,0,0,0,0,0,0,0,0,0,0,0,0,0,0,0,0,0,0,0,0,0,0,0,0,0,0,0,0,0,0,0,0,0,0,0,52,49,49,49,52,0,0,0,0,0,
        0,0,0,0,0,0,0,0,0,0,0,0,52,49,49,49,52,52,52,52,52,52,52,52,0,52,52,52,52,52,52,52,52,0,52,52,52,52,52,52,52,52,0,52,52,52,52,52,52,52,52,0,52,52,52,52,52,52,52,52,0,52,52,52,52,52,52,52,52,0,52,52,52,52,52,52,52,52,0,52,52,52,52,52,52,52,52,49,49,49,52,0,0,0,0,0,
        0,0,0,0,0,0,0,0,0,0,0,0,52,49,49,49,49,49,49,52,49,49,49,52,52,49,49,49,52,49,49,49,52,52,49,49,49,52,49,49,49,52,52,49,49,49,52,49,49,49,52,52,49,49,49,52,49,49,49,52,52,49,49,49,52,49,49,49,52,52,49,49,49,52,49,49,49,52,52,49,49,49,52,49,49,49,52,49,49,49,52,0,0,0,0,0,
        0,0,0,0,0,0,0,0,0,0,0,0,52,49,49,49,49,49,49,49,49,49,49,52,52,49,49,49,49,49,49,49,52,52,49,49,49,49,49,49,49,52,52,49,49,49,49,49,49,49,52,52,49,49,49,49,49,49,49,52,52,49,49,49,49,49,49,49,52,52,49,49,49,49,49,49,49,52,52,49,49,49,49,49,49,49,52,49,49,49,52,0,0,0,0,0,
        0,0,0,0,0,0,0,0,0,0,0,0,52,49,49,49,49,49,49,49,49,49,49,52,52,49,49,49,49,49,49,49,52,52,49,49,49,49,49,49,49,52,52,49,49,49,49,49,49,49,52,52,49,49,49,49,49,49,49,52,52,49,49,49,49,49,49,49,52,52,49,49,49,49,49,49,49,52,52,49,49,49,49,49,49,49,52,49,49,49,52,0,0,0,0,0,
        0,0,0,0,0,0,0,0,0,0,0,0,52,49,49,49,49,49,49,49,49,49,49,52,52,49,49,49,49,49,49,49,52,52,49,49,49,49,49,49,49,52,52,49,49,49,49,49,49,49,52,52,49,49,49,49,49,49,49,52,52,49,49,49,49,49,49,49,52,52,49,49,49,49,49,49,49,52,52,49,49,49,49,49,49,49,52,49,49,49,52,0,0,0,0,0,
        0,0,0,0,0,0,0,0,0,0,0,0,52,49,49,49,49,49,49,49,49,49,49,52,52,49,49,49,49,49,49,49,52,52,49,49,49,49,49,49,49,52,52,49,49,49,49,49,49,49,52,52,49,49,49,49,49,49,49,52,52,49,49,49,49,49,49,49,52,52,49,49,49,49,49,49,49,52,52,49,49,49,49,49,49,49,52,49,49,49,52,0,0,0,0,0,
        0,0,0,0,0,0,0,0,0,0,0,0,52,49,49,49,49,49,49,49,49,49,49,52,52,49,49,49,49,49,49,49,52,52,49,49,49,49,49,49,49,52,52,49,49,49,49,49,49,49,52,52,49,49,49,49,49,49,49,52,52,49,49,49,49,49,49,49,52,52,49,49,49,49,49,49,49,52,52,49,49,49,49,49,49,49,52,49,49,49,52,0,0,0,0,0,
        0,0,0,0,0,0,0,0,0,0,0,0,52,49,49,49,49,49,49,49,49,49,49,52,52,49,49,49,49,49,49,49,52,52,49,49,49,49,49,49,49,52,52,49,49,49,49,49,49,49,52,52,49,49,49,49,49,49,49,52,52,49,49,49,49,49,49,49,52,52,49,49,49,49,49,49,49,52,52,49,49,49,49,49,49,49,52,49,49,49,52,0,0,0,0,0,
        0,0,0,0,52,52,52,52,52,52,52,0,52,49,49,49,49,49,49,49,49,49,49,52,52,49,49,49,49,49,49,49,52,52,49,49,49,49,49,49,49,52,52,49,49,49,49,49,49,49,52,52,49,49,49,49,49,49,49,52,52,49,49,49,49,49,49,49,52,52,49,49,49,49,49,49,49,52,52,49,49,49,49,49,49,49,52,49,49,49,52,0,0,0,0,0,
        0,0,0,52,49,49,49,49,49,49,52,0,52,49,49,49,49,49,49,49,49,49,49,52,52,49,49,49,49,49,49,49,52,52,49,49,49,49,49,49,49,52,52,49,49,49,49,49,49,49,52,52,49,49,49,49,49,49,49,52,52,49,49,49,49,49,49,49,52,52,49,49,49,49,49,49,49,52,52,49,49,49,49,49,49,49,52,49,49,49,52,0,0,0,0,0,
        0,0,0,52,49,49,49,49,49,49,52,52,52,49,49,49,52,52,52,49,52,52,52,0,52,52,52,52,49,52,52,52,0,52,52,52,52,49,52,52,52,0,52,52,52,52,49,52,52,52,0,52,52,52,52,49,52,52,52,0,52,52,52,52,49,52,52,52,0,52,52,52,52,49,52,52,52,0,52,52,52,52,49,52,52,52,52,49,49,49,52,0,0,0,0,0,
        0,0,0,52,49,49,49,49,49,49,49,49,49,49,49,49,52,0,52,49,52,0,0,0,0,0,0,52,49,52,0,0,0,0,0,0,52,49,52,0,0,0,0,0,0,52,49,52,0,0,0,0,0,0,52,49,52,0,0,0,0,0,0,52,49,52,0,0,0,0,0,0,52,49,52,0,0,0,0,0,0,52,49,52,0,0,52,49,49,49,52,0,0,0,0,0,
        0,0,0,52,49,49,49,49,49,49,49,49,49,49,49,49,52,52,52,49,52,52,52,52,52,52,52,52,49,52,52,52,52,52,52,52,52,49,52,52,52,52,52,52,52,52,49,52,52,52,52,52,52,52,52,49,52,52,52,52,52,52,52,52,49,52,52,52,52,52,52,52,52,49,52,52,52,52,52,52,52,52,49,52,52,52,52,49,49,49,52,0,0,0,0,0,
        0,0,0,52,49,49,49,49,49,49,49,49,49,49,49,49,49,49,49,49,49,49,49,49,49,49,49,49,49,49,49,49,49,49,49,49,49,49,49,49,49,49,49,49,49,49,49,49,49,49,49,49,49,49,49,49,49,49,49,49,49,49,49,49,49,49,49,49,49,49,49,49,49,49,49,49,49,49,49,49,49,49,49,49,49,49,49,49,49,49,52,0,0,0,0,0,
        0,0,0,52,49,49,49,49,49,49,52,52,52,49,49,49,49,49,49,49,49,49,49,49,49,49,49,49,49,49,49,49,49,49,49,49,49,49,49,49,49,49,49,49,49,49,49,49,49,49,49,49,49,49,49,49,49,49,49,49,49,49,49,49,49,49,49,49,49,49,49,49,49,49,49,49,49,49,49,49,49,49,49,49,49,49,49,49,49,49,52,0,0,0,0,0,
        0,0,0,52,49,49,49,49,49,49,52,0,52,49,49,49,49,49,49,49,49,49,49,49,49,49,49,49,49,49,49,49,49,49,49,49,49,49,49,49,49,49,49,49,49,49,49,49,49,49,49,49,49,49,49,49,49,49,49,49,49,49,49,49,49,49,49,49,49,49,49,49,49,49,49,49,49,49,49,49,49,49,49,49,49,49,49,49,49,49,52,0,0,0,0,0,
        0,0,0,52,52,52,52,52,52,52,0,0,52,49,49,49,52,52,52,52,52,52,52,52,52,52,52,52,52,52,52,52,52,52,52,52,52,52,52,52,52,52,52,52,52,52,52,52,52,52,52,52,52,52,52,52,52,52,52,52,52,52,52,52,52,52,52,52,52,52,52,52,52,52,52,52,52,52,52,52,52,52,52,52,52,52,52,49,49,49,52,0,0,0,0,0,
        0,0,0,0,0,0,0,0,0,0,0,0,52,49,49,49,52,0,0,0,0,0,0,0,0,0,0,0,0,0,0,0,0,0,0,0,0,0,0,0,0,0,0,0,0,0,0,0,0,0,0,0,0,0,0,0,0,0,0,0,0,0,0,0,0,0,0,0,0,0,0,0,0,0,0,0,0,0,0,0,0,0,0,0,0,0,52,49,49,49,52,0,0,0,0,0,
        0,0,0,0,0,0,0,0,0,0,0,0,52,49,49,49,52,0,0,0,0,0,0,0,0,0,0,0,0,0,0,0,0,0,0,0,0,0,0,0,0,0,0,0,0,0,0,0,0,0,0,0,0,0,0,0,0,0,0,0,0,0,0,0,0,0,0,0,0,0,0,0,0,0,0,0,0,0,0,0,0,0,0,0,0,0,52,49,49,49,52,0,0,0,0,0,
        0,0,0,0,0,0,0,0,0,0,0,0,52,49,49,49,52,0,0,0,0,0,0,0,0,0,0,0,0,0,0,0,0,0,0,0,0,0,0,0,0,0,0,0,0,0,0,0,0,0,0,0,0,0,0,0,0,0,0,0,0,0,0,0,0,0,0,0,0,0,0,0,0,0,0,0,0,0,0,0,0,0,0,0,0,0,52,49,49,49,52,0,0,0,0,0,
        0,0,0,0,0,0,0,0,0,0,0,0,52,49,49,49,52,0,0,0,0,0,0,0,0,0,0,0,0,0,0,0,0,0,0,0,0,0,0,0,0,0,0,0,0,0,0,0,0,0,0,0,0,0,0,0,0,0,0,0,0,0,0,0,0,0,0,0,0,0,0,0,0,0,0,0,0,0,0,0,0,0,0,0,0,0,52,49,49,49,52,0,0,0,0,0,
        0,0,0,0,0,0,0,0,0,0,0,0,52,49,49,49,52,0,0,0,0,0,0,0,0,0,0,0,0,0,0,0,0,0,0,0,0,0,0,0,0,0,0,0,0,0,0,0,0,0,0,0,0,0,0,0,0,0,0,0,0,0,0,0,0,0,0,0,0,0,0,0,0,0,0,0,0,0,0,0,0,0,0,0,0,0,52,49,49,49,52,0,0,0,0,0,
        0,0,0,0,0,0,0,0,0,0,0,0,52,49,49,49,52,0,0,0,0,0,0,0,0,0,0,0,0,0,0,0,0,0,0,0,0,0,0,0,0,0,0,0,0,0,0,0,0,0,0,0,0,0,0,0,0,0,0,0,0,0,0,0,0,0,0,0,0,0,0,0,0,0,0,0,0,0,0,0,0,0,0,0,0,0,52,49,49,49,52,0,0,0,0,0,
        0,0,0,0,0,0,0,0,0,0,0,0,52,49,49,49,52,0,0,0,0,0,0,0,0,0,0,0,0,0,0,0,0,0,0,0,0,0,0,0,0,0,0,0,0,0,0,0,0,0,0,0,0,0,0,0,0,0,0,0,0,0,0,0,0,0,0,0,0,0,0,0,0,0,0,0,0,0,0,0,0,0,0,0,0,0,52,49,49,49,52,0,0,0,0,0,
        0,0,0,0,0,0,0,0,0,0,0,0,52,49,49,49,52,0,0,0,0,0,0,0,0,0,0,0,0,0,0,0,0,0,0,0,0,0,0,0,0,0,0,0,0,0,0,0,0,0,0,0,0,0,0,0,0,0,0,0,0,0,0,0,0,0,0,0,0,0,0,0,0,0,0,0,0,0,0,0,0,0,0,0,0,0,52,49,49,49,52,0,0,0,0,0,
        0,0,0,0,0,0,0,0,0,0,0,0,52,49,49,49,52,0,0,0,0,0,0,0,0,0,0,0,0,0,0,0,0,0,0,0,0,0,0,0,0,0,0,0,0,0,0,0,0,0,0,0,0,0,0,0,0,0,0,0,0,0,0,0,0,0,0,0,0,0,0,0,0,0,0,0,0,0,0,0,0,0,0,0,0,0,52,49,49,49,52,0,0,0,0,0,
        0,0,0,0,0,0,0,0,0,0,0,0,52,49,49,49,52,0,0,0,0,0,0,0,0,0,0,0,0,0,0,0,0,0,0,0,0,0,0,0,0,0,0,0,0,0,0,0,0,0,0,0,0,0,0,0,0,0,0,0,0,0,0,0,0,0,0,0,0,0,0,0,0,0,0,0,0,0,0,0,0,0,0,0,0,0,52,49,49,49,52,0,0,0,0,0,
        0,0,0,0,0,0,0,0,0,0,0,0,52,49,49,49,52,0,0,0,0,0,0,0,0,0,0,0,0,0,0,0,0,0,0,0,0,0,0,0,0,0,0,0,0,0,0,0,0,0,0,0,0,0,0,0,0,0,0,0,0,0,0,0,0,0,0,0,0,0,0,0,0,0,0,0,0,0,0,0,0,0,0,0,0,0,52,49,49,49,52,0,0,0,0,0,
        0,0,0,0,0,0,0,0,0,0,0,0,52,49,49,49,52,0,0,0,0,0,0,0,0,0,0,0,0,0,0,0,0,0,0,0,0,0,0,0,0,0,0,0,0,0,0,0,0,0,0,0,0,0,0,0,0,0,0,0,0,0,0,0,0,0,0,0,0,0,0,0,0,0,0,0,0,52,52,52,52,52,52,52,52,52,52,49,49,49,52,0,0,0,0,0,
        0,0,0,0,0,0,0,0,0,0,0,0,52,49,49,49,52,52,52,52,52,52,52,52,0,52,52,52,52,52,52,52,52,0,52,52,52,52,52,52,52,52,0,52,52,52,52,52,52,52,52,0,52,52,52,52,52,52,52,52,0,52,52,52,52,52,52,52,52,0,52,52,52,52,52,52,52,49,49,49,49,49,49,49,49,49,49,49,49,49,52,0,0,0,0,0,
        0,0,0,0,0,0,0,0,0,0,0,0,52,49,49,49,49,49,49,52,49,49,49,52,52,49,49,49,52,49,49,49,52,52,49,49,49,52,49,49,49,52,52,49,49,49,52,49,49,49,52,52,49,49,49,52,49,49,49,52,52,49,49,49,52,49,49,49,52,52,49,49,49,52,49,49,49,49,49,49,49,49,52,49,49,49,49,49,49,49,52,0,0,0,0,0,
        0,0,0,0,0,0,0,0,0,0,0,0,52,49,49,49,49,49,49,49,49,49,49,52,52,49,49,49,49,49,49,49,52,52,49,49,49,49,49,49,49,52,52,49,49,49,49,49,49,49,52,52,49,49,49,49,49,49,49,52,52,49,49,49,49,49,49,49,52,52,49,49,49,49,49,49,49,49,49,49,49,49,49,49,49,49,49,49,49,49,52,0,0,0,0,0,
        0,0,0,0,0,0,0,0,0,0,0,0,52,49,49,49,49,49,49,49,49,49,49,52,52,49,49,49,49,49,49,49,52,52,49,49,49,49,49,49,49,52,52,49,49,49,49,49,49,49,52,52,49,49,49,49,49,49,49,52,52,49,49,49,49,49,49,49,52,52,49,49,49,49,49,49,49,49,49,49,49,49,49,49,49,49,49,49,49,49,52,0,0,0,0,0,
        0,0,0,0,0,0,0,0,0,0,0,0,52,49,49,49,49,49,49,49,49,49,49,52,52,49,49,49,49,49,49,49,52,52,49,49,49,49,49,49,49,52,52,49,49,49,49,49,49,49,52,52,49,49,49,49,49,49,49,52,52,49,49,49,49,49,49,49,52,52,49,49,49,49,49,49,49,49,49,49,49,49,49,49,49,49,49,49,49,49,52,0,0,0,0,0,
        0,0,0,0,0,0,0,0,0,0,0,0,52,49,49,49,49,49,49,49,49,49,49,52,52,49,49,49,49,49,49,49,52,52,49,49,49,49,49,49,49,52,52,49,49,49,49,49,49,49,52,52,49,49,49,49,49,49,49,52,52,49,49,49,49,49,49,49,52,52,49,49,49,49,49,49,49,49,49,49,49,49,49,49,49,49,49,49,49,49,52,0,0,0,0,0,
        0,0,0,0,0,0,0,0,0,0,0,0,52,49,49,49,49,49,49,49,49,49,49,52,52,49,49,49,49,49,49,49,52,52,49,49,49,49,49,49,49,52,52,49,49,49,49,49,49,49,52,52,49,49,49,49,49,49,49,52,52,49,49,49,49,49,49,49,52,52,49,49,49,49,49,49,49,49,49,49,49,49,49,49,49,49,49,49,49,49,52,0,0,0,0,0,
        0,0,0,0,0,0,0,0,0,0,0,0,52,49,49,49,49,49,49,49,49,49,49,52,52,49,49,49,49,49,49,49,52,52,49,49,49,49,49,49,49,52,52,49,49,49,49,49,49,49,52,52,49,49,49,49,49,49,49,52,52,49,49,49,49,49,49,49,52,52,49,49,49,49,49,49,49,49,49,49,49,49,49,49,49,49,49,49,49,49,52,0,0,0,0,0,
        0,0,0,0,0,0,0,0,0,0,0,0,52,49,49,49,49,49,49,49,49,49,49,52,52,49,49,49,49,49,49,49,52,52,49,49,49,49,49,49,49,52,52,49,49,49,49,49,49,49,52,52,49,49,49,49,49,49,49,52,52,49,49,49,49,49,49,49,52,52,49,49,49,49,49,49,49,49,49,49,49,49,49,49,49,49,49,49,49,49,52,0,0,0,0,0,
        0,0,0,0,0,0,0,0,0,0,0,0,52,49,49,49,49,49,49,49,49,49,49,52,52,49,49,49,49,49,49,49,52,52,49,49,49,49,49,49,49,52,52,49,49,49,49,49,49,49,52,52,49,49,49,49,49,49,49,52,52,49,49,49,49,49,49,49,52,52,49,49,49,49,49,49,49,49,49,49,49,49,49,49,49,49,49,49,49,49,52,0,0,0,0,0,
        0,0,0,0,0,0,0,0,0,0,0,0,52,49,49,49,52,52,52,49,52,52,52,0,52,52,52,52,49,52,52,52,0,52,52,52,52,49,52,52,52,0,52,52,52,52,49,52,52,52,0,52,52,52,52,49,52,52,52,0,52,52,52,52,49,52,52,52,0,52,52,52,52,49,52,52,52,49,49,49,49,49,49,49,49,49,49,49,49,49,52,0,0,0,0,0,
        0,0,0,0,0,0,0,0,0,0,0,0,52,49,49,49,52,0,52,49,52,0,0,0,0,0,0,52,49,52,0,0,0,0,0,0,52,49,52,0,0,0,0,0,0,52,49,52,0,0,0,0,0,0,52,49,52,0,0,0,0,0,0,52,49,52,0,0,0,0,0,0,52,49,52,0,52,52,52,52,52,52,49,52,52,52,52,49,49,49,52,0,0,0,0,0,
        0,0,0,0,0,0,0,0,0,0,0,0,52,49,49,49,52,52,52,49,52,52,52,52,52,52,52,52,49,52,52,52,52,52,52,52,52,49,52,52,52,52,52,52,52,52,49,52,52,52,52,52,52,52,52,49,52,52,52,52,52,52,52,52,49,52,52,52,52,52,52,52,52,49,52,52,52,52,52,52,52,52,49,52,52,52,52,49,49,49,52,0,0,0,0,0,
        0,0,0,0,0,0,0,0,0,0,0,0,52,49,49,49,49,49,49,49,49,49,49,49,49,49,49,49,49,49,49,49,49,49,49,49,49,49,49,49,49,49,49,49,49,49,49,49,49,49,49,49,49,49,49,49,49,49,49,49,49,49,49,49,49,49,49,49,49,49,49,49,49,49,49,49,49,49,49,49,49,49,49,49,49,49,49,49,49,49,52,0,0,0,0,0,
        0,0,0,0,0,0,0,0,0,0,0,0,52,49,49,49,49,49,49,49,49,49,49,49,49,49,49,49,49,49,49,49,49,49,49,49,49,49,49,49,49,49,49,49,49,49,49,49,49,49,49,49,49,49,49,49,49,49,49,49,49,49,49,49,49,49,49,49,49,49,49,49,49,49,49,49,49,49,49,49,49,49,49,49,49,49,49,49,49,49,52,0,0,0,0,0,
        0,0,0,0,0,0,0,0,0,0,0,0,52,49,49,49,49,49,49,49,49,49,49,49,49,49,49,49,49,49,49,49,49,49,49,49,49,49,49,49,49,49,49,49,49,49,49,49,49,49,49,49,49,49,49,49,49,49,49,49,49,49,49,49,49,49,49,49,49,49,49,49,49,49,49,49,49,49,49,49,49,49,49,49,49,49,49,49,49,49,52,0,0,0,0,0,
        0,0,0,0,0,0,0,0,0,0,0,0,52,49,49,49,52,52,52,52,52,52,52,52,52,52,52,52,52,52,52,52,52,52,52,52,52,52,52,52,52,52,52,52,52,52,52,52,52,52,52,52,52,52,52,52,52,52,52,52,52,52,52,52,52,52,52,52,52,52,52,52,52,52,52,52,52,52,52,52,52,52,52,52,52,52,52,49,49,49,52,0,0,0,0,0,
        0,0,0,0,0,0,0,0,0,0,0,0,52,49,49,49,52,0,0,0,0,0,0,0,0,0,0,0,0,0,0,0,0,0,0,0,0,0,0,0,0,0,0,0,0,0,0,0,0,0,0,0,0,0,0,0,0,0,0,0,0,0,0,0,0,0,0,0,0,0,0,0,0,0,0,0,0,0,0,0,0,0,0,0,0,0,52,49,49,49,52,0,0,0,0,0,
        0,0,0,0,0,0,0,0,0,0,0,0,52,49,49,49,52,0,0,0,0,0,0,0,0,0,0,0,0,0,0,0,0,0,0,0,0,0,0,0,0,0,0,0,0,0,0,0,0,0,0,0,0,0,0,0,0,0,0,0,0,0,0,0,0,0,0,0,0,0,0,0,0,0,0,0,0,0,0,0,0,0,0,0,0,0,52,49,49,49,52,0,0,0,0,0,
        0,0,0,0,0,0,0,0,0,0,0,0,52,49,49,49,52,0,0,0,0,0,0,0,0,0,0,0,0,0,0,0,0,0,0,0,0,0,0,0,0,0,0,0,0,0,0,0,0,0,0,0,0,0,0,0,0,0,0,0,0,0,0,0,0,0,0,0,0,0,0,0,0,0,0,0,0,0,0,0,0,0,0,0,0,0,52,49,49,49,52,0,0,0,0,0,
        0,0,0,0,0,0,0,0,0,0,0,0,52,49,49,49,52,52,52,52,52,52,52,52,52,52,52,52,52,52,52,52,52,52,52,52,52,52,52,52,52,52,52,52,52,52,52,52,52,52,52,52,52,52,52,52,52,52,52,52,52,52,52,52,52,52,52,52,52,52,52,52,52,52,52,52,52,52,52,52,52,52,52,52,52,52,52,49,49,49,52,0,0,0,0,0,
        0,0,0,0,0,0,0,0,0,0,0,0,52,49,49,49,49,49,49,49,49,49,49,49,49,49,49,49,49,49,49,49,49,49,49,49,49,49,49,49,49,49,49,49,49,49,49,49,49,49,49,49,49,49,49,49,49,49,49,49,49,49,49,49,49,49,49,49,49,49,49,49,49,49,49,49,49,49,49,49,49,49,49,49,49,49,49,49,49,49,52,0,0,0,0,0,
        0,0,0,0,0,0,0,0,0,0,0,0,52,49,49,49,49,49,49,49,49,49,49,49,49,49,49,49,49,49,49,49,49,49,49,49,49,49,49,49,49,49,49,49,49,49,49,49,49,49,49,49,49,49,49,49,49,49,49,49,49,49,49,49,49,49,49,49,49,49,49,49,49,49,49,49,49,49,49,49,49,49,49,49,49,49,49,49,49,49,52,0,0,0,0,0,
        0,0,0,0,0,0,0,0,0,0,0,0,52,49,49,49,49,49,49,49,49,49,49,49,49,49,49,49,49,49,49,49,49,49,49,49,49,49,49,49,49,49,49,49,49,49,49,49,49,49,49,49,49,49,49,49,49,49,49,49,49,49,49,49,49,49,49,49,49,49,49,49,49,49,49,49,49,49,49,49,49,49,49,49,49,49,49,49,49,49,52,0,0,0,0,0,
        0,0,0,0,0,0,0,0,0,0,0,0,52,52,52,52,52,52,52,52,52,52,52,52,52,52,52,52,52,52,52,52,52,52,52,52,52,52,52,52,52,52,52,52,52,52,52,52,52,52,52,52,52,52,52,52,52,52,52,52,52,52,52,52,52,52,52,52,52,52,52,52,52,52,52,52,52,52,52,52,52,52,52,52,52,52,52,52,52,52,0,0,0,0,0,0,
        0,0,0,0,0,0,0,0,0,0,0,0,0,0,0,0,0,0,0,0,0,0,0,0,0,0,0,0,0,0,0,0,0,0,0,0,0,0,0,0,0,0,0,0,0,0,0,0,0,0,0,0,0,0,0,0,0,0,0,0,0,0,0,0,0,0,0,0,0,0,0,0,0,0,0,0,0,0,0,0,0,0,0,0,0,0,0,0,0,0,0,0,0,0,0,0,
        0,0,0,0,0,0,0,0,0,0,0,0,0,0,0,0,0,0,0,0,0,0,0,0,0,0,0,0,0,0,0,0,0,0,0,0,0,0,0,0,0,0,0,0,0,0,0,0,0,0,0,0,0,0,0,0,0,0,0,0,0,0,0,0,0,0,0,0,0,0,0,0,0,0,0,0,0,0,0,0,0,0,0,0,0,0,0,0,0,0,0,0,0,0,0,0,
        0,0,0,0,0,0,0,0,0,0,0,0,0,0,0,0,0,0,0,0,0,0,0,0,0,0,0,0,0,0,0,0,0,0,0,0,0,0,0,0,0,0,0,0,0,0,0,0,0,0,0,0,0,0,0,0,0,0,0,0,0,0,0,0,0,0,0,0,0,0,0,0,0,0,0,0,0,0,0,0,0,0,0,0,0,0,0,0,0,0,0,0,0,0,0,0,
        0,0,0,0,0,0,0,0,0,0,0,0,0,0,0,0,0,0,0,0,0,0,0,0,0,0,0,0,0,0,0,0,0,0,0,0,0,0,0,0,0,0,0,0,0,0,0,0,0,0,0,0,0,0,0,0,0,0,0,0,0,0,0,0,0,0,0,0,0,0,0,0,0,0,0,0,0,0,0,0,0,0,0,0,0,0,0,0,0,0,0,0,0,0,0,0,
        0,0,0,0,0,0,0,0,0,0,0,0,0,0,0,0,0,0,0,0,0,0,0,0,0,0,0,0,0,0,0,0,0,0,0,0,0,0,0,0,0,0,0,0,0,0,0,0,0,0,0,0,0,0,0,0,0,0,0,0,0,0,0,0,0,0,0,0,0,0,0,0,0,0,0,0,0,0,0,0,0,0,0,0,0,0,0,0,0,0,0,0,0,0,0,0,
        0,0,0,0,0,0,0,0,0,0,0,0,0,0,0,0,0,0,0,0,0,0,0,0,0,0,0,0,0,0,0,0,0,0,0,0,0,0,0,0,0,0,0,0,0,0,0,0,0,0,0,0,0,0,0,0,0,0,0,0,0,0,0,0,0,0,0,0,0,0,0,0,0,0,0,0,0,0,0,0,0,0,0,0,0,0,0,0,0,0,0,0,0,0,0,0
      ]
    },
    {
      "id": 3,
      "type": "tilelayer",
      "name": "deco",
      "x": 0,
      "y": 0,
      "width": 96,
      "height": 96,
      "opacity": 1.0,
      "visible": true,
      "data": [
        0,0,0,0,0,0,0,0,0,0,0,0,0,0,0,0,0,0,0,0,0,0,0,0,0,0,0,0,0,0,0,0,0,0,0,0,0,0,0,0,0,0,0,0,0,0,0,0,0,0,0,0,0,0,0,0,0,0,0,0,0,0,0,0,0,0,0,0,0,0,0,0,0,0,0,0,0,0,0,0,0,0,0,0,0,0,0,0,0,0,0,0,0,0,0,0,
        0,0,0,0,0,0,0,0,0,0,0,0,0,0,0,0,0,0,0,0,0,0,0,0,0,0,0,0,0,0,0,0,0,0,0,0,0,0,0,0,0,0,0,0,0,0,0,0,0,0,0,0,0,0,0,0,0,0,0,0,0,0,0,0,0,0,0,0,0,0,0,0,0,0,0,0,0,0,0,0,0,0,0,0,0,0,0,0,0,0,0,0,0,0,0,0,
        0,0,0,0,0,0,0,0,0,0,0,0,0,0,0,0,0,0,0,0,0,0,0,0,0,0,0,0,0,0,0,0,0,0,0,0,0,0,0,0,0,0,0,0,0,0,0,0,0,0,0,0,0,0,0,0,0,0,0,0,0,0,0,0,0,0,0,0,0,0,0,0,0,0,0,0,0,0,0,0,0,0,0,0,0,0,0,0,0,0,0,0,0,0,0,0,
        0,0,0,0,0,0,0,0,0,0,0,0,0,0,0,0,0,0,0,0,0,0,0,0,0,0,0,0,0,0,0,0,0,0,0,0,0,0,0,0,0,0,0,0,0,0,0,0,0,0,0,0,0,0,0,0,0,0,0,0,0,0,0,0,0,0,0,0,0,0,0,0,0,0,0,0,0,0,0,0,0,0,0,0,0,0,0,0,0,0,0,0,0,0,0,0,
        0,0,0,0,0,0,0,0,0,0,0,0,0,0,0,0,0,0,0,0,0,0,0,0,0,0,0,0,0,0,0,0,0,0,0,0,0,0,0,0,0,0,0,0,0,0,0,0,0,0,0,0,0,0,0,0,0,0,0,0,0,0,0,0,0,0,0,0,0,0,0,0,0,0,0,0,0,0,0,0,0,0,0,0,0,0,0,0,0,0,0,0,0,0,0,0,
        0,0,0,0,0,0,0,0,0,0,0,0,0,0,0,0,0,0,0,0,0,0,0,0,0,0,0,0,0,0,0,0,0,0,0,0,0,0,0,0,0,0,0,0,0,0,0,0,0,0,0,0,0,0,0,0,0,0,0,0,0,0,0,0,0,0,0,0,0,0,0,0,0,0,0,0,0,0,0,0,0,0,0,0,0,0,0,0,0,0,0,0,0,0,0,0,
        0,0,0,0,0,0,0,0,0,0,0,0,0,0,0,0,0,0,0,0,0,0,0,0,0,0,0,0,0,0,0,0,0,0,0,0,0,0,0,0,0,0,0,0,0,0,0,0,0,0,0,0,0,0,0,0,0,0,0,0,0,0,0,0,0,0,0,0,0,0,0,0,0,0,0,0,0,0,0,0,0,0,0,0,0,0,0,0,0,0,0,0,0,0,0,0,
        0,0,0,0,0,0,0,0,0,0,0,0,0,0,0,0,0,0,0,0,0,0,0,0,0,0,0,0,0,0,0,0,0,0,0,0,0,0,0,0,0,0,0,0,0,0,0,0,0,0,0,0,0,0,0,0,0,0,0,0,0,0,0,0,0,0,0,0,0,0,0,0,0,0,0,0,0,0,0,0,0,0,0,0,0,0,0,0,0,0,0,0,0,0,0,0,
        0,0,0,0,0,0,0,0,0,0,0,0,0,0,0,0,0,0,0,0,0,0,0,0,0,0,0,0,0,0,0,0,0,0,0,0,0,0,0,0,0,0,0,0,0,0,0,0,0,0,0,0,0,0,0,0,0,0,0,0,0,0,0,0,0,0,0,0,0,0,0,0,0,0,0,0,0,0,0,0,0,0,0,0,0,0,0,0,0,0,0,0,0,0,0,0,
        0,0,0,0,0,0,0,0,0,0,0,0,0,0,0,0,0,0,0,0,0,0,0,0,0,0,0,0,0,0,0,0,0,0,0,0,0,0,0,0,0,0,0,0,0,0,0,0,0,0,0,0,0,0,0,0,0,0,0,0,0,0,0,0,0,0,0,0,0,0,0,0,0,0,0,0,0,0,0,0,0,0,0,0,0,0,0,0,0,0,0,0,0,0,0,0,
        0,0,0,0,0,0,0,0,0,0,0,0,0,0,0,0,0,0,0,0,0,0,0,0,0,0,0,0,0,0,0,0,0,0,0,0,0,0,0,0,0,0,0,0,0,0,0,0,0,0,0,0,0,0,0,0,0,0,0,0,0,0,0,0,0,0,0,0,0,0,0,0,0,0,0,0,0,0,0,0,0,0,0,0,0,0,0,0,0,0,0,0,0,0,0,0,
        0,0,0,0,0,0,0,0,0,0,0,0,0,0,0,0,0,0,0,0,0,0,0,0,0,0,0,0,0,0,0,0,0,0,0,0,0,0,0,0,0,0,0,0,0,0,0,0,0,0,0,0,0,0,0,0,0,0,0,0,0,0,0,0,0,0,0,0,0,0,0,0,0,0,0,0,0,0,0,0,0,0,0,0,0,0,0,0,0,0,0,0,0,0,0,0,
        0,0,0,0,0,0,0,0,0,0,0,0,0,0,0,0,0,0,0,0,0,0,0,0,0,0,0,0,0,0,0,0,0,0,0,0,0,0,0,0,0,0,0,0,0,0,0,0,0,0,0,0,0,0,0,0,0,0,0,0,0,0,0,0,0,0,0,0,0,0,0,0,0,0,0,0,0,0,0,0,0,0,0,0,0,0,0,0,0,0,0,0,0,0,0,0,
        0,0,0,0,0,0,0,0,0,0,0,0,0,0,0,0,0,0,0,0,0,0,0,0,0,0,0,0,0,0,0,0,0,0,0,0,0,0,0,0,0,0,0,0,0,0,0,0,0,0,0,0,0,0,0,0,0,0,0,0,0,0,0,0,0,0,0,0,0,0,0,0,0,0,0,0,0,0,0,0,0,0,0,0,0,0,0,0,0,0,0,0,0,0,0,0,
        0,0,0,0,0,0,0,0,0,0,0,0,0,0,0,0,0,0,0,0,0,0,0,0,0,0,0,0,0,0,0,0,0,0,0,0,0,0,0,0,0,0,0,0,0,0,0,0,0,0,0,0,0,0,0,0,0,0,0,0,0,0,0,0,0,0,0,0,0,0,0,0,0,0,0,0,0,0,0,0,0,0,0,0,0,0,0,0,0,0,0,0,0,0,0,0,
        0,0,0,0,0,0,0,0,0,0,0,0,0,0,0,0,0,0,0,0,0,0,0,0,0,0,0,0,0,0,0,0,0,0,0,0,0,0,0,0,0,0,0,0,0,0,0,0,0,0,0,0,0,0,0,0,0,0,0,0,0,0,0,0,0,0,0,0,0,0,0,0,0,0,0,0,0,0,0,0,0,0,0,0,0,0,0,0,0,0,0,0,0,0,0,0,
        0,0,0,0,0,0,0,0,0,0,0,0,0,0,0,0,0,0,0,0,0,0,0,0,0,0,0,0,0,0,0,0,0,0,0,0,0,0,0,0,0,0,0,0,0,0,0,0,0,0,0,0,0,0,0,0,0,0,0,0,0,0,0,0,0,0,0,0,0,0,0,0,0,0,0,0,0,0,0,0,0,0,0,0,0,0,0,0,0,0,0,0,0,0,0,0,
        0,0,0,0,0,0,0,0,0,0,0,0,0,0,0,0,0,0,0,0,0,0,0,0,0,0,0,0,0,0,0,0,0,0,0,0,0,0,0,0,0,0,0,0,0,0,0,0,0,0,0,0,0,0,0,0,0,0,0,0,0,0,0,0,0,0,0,0,0,0,0,0,0,0,0,0,0,0,0,0,0,0,0,0,0,0,0,0,0,0,0,0,0,0,0,0,
        0,0,0,0,0,0,0,0,0,0,0,0,0,0,0,0,0,0,0,0,0,0,0,0,0,0,0,0,0,0,0,0,0,0,0,0,0,0,0,0,0,0,0,0,0,0,0,0,0,0,0,0,0,0,0,0,0,0,0,0,0,0,0,0,0,0,0,0,0,0,0,0,0,0,0,0,0,0,0,0,0,0,0,0,0,0,0,0,0,0,0,0,0,0,0,0,
        0,0,0,0,0,0,0,0,0,0,0,0,0,0,0,0,0,0,0,0,0,0,0,0,0,0,0,0,0,0,0,0,0,0,0,0,0,0,0,0,0,0,0,0,0,0,0,0,0,0,0,0,0,0,0,0,0,0,0,0,0,0,0,0,0,0,0,0,0,0,0,0,0,0,0,0,0,0,0,0,0,0,0,0,0,0,0,0,0,0,0,0,0,0,0,0,
        0,0,0,0,0,0,0,0,0,0,0,0,0,0,0,0,0,0,0,0,0,0,0,0,0,0,0,0,0,0,0,0,0,0,0,0,0,0,0,0,0,0,0,0,0,0,0,0,0,0,0,0,0,0,0,0,0,0,0,0,0,0,0,0,0,0,0,0,0,0,0,0,0,0,0,0,0,0,0,0,0,0,0,0,0,0,0,0,0,0,0,0,0,0,0,0,
        0,0,0,0,0,0,0,0,0,0,0,0,0,0,0,0,0,0,0,0,0,0,0,0,0,0,0,0,0,0,0,0,0,0,0,0,0,0,0,0,0,0,0,0,0,0,0,0,0,0,0,0,0,0,0,0,0,0,0,0,0,0,0,0,0,0,0,0,0,0,0,0,0,0,0,0,0,0,0,0,0,0,0,0,0,0,0,0,0,0,0,0,0,0,0,0,
        0,0,0,0,0,0,0,0,0,0,0,0,0,0,0,0,0,0,0,0,0,0,0,0,0,0,0,0,0,0,0,0,0,0,0,0,0,0,0,0,0,0,0,0,0,0,0,0,0,0,0,0,0,0,0,0,0,0,0,0,0,0,0,0,0,0,0,0,0,0,0,0,0,0,0,0,0,0,0,0,0,0,0,0,0,0,0,0,0,0,0,0,0,0,0,0,
        0,0,0,0,0,0,0,0,0,0,0,0,0,0,0,0,0,0,0,0,0,0,0,0,0,0,0,0,0,0,0,0,0,0,0,0,0,0,0,0,0,0,0,0,0,0,0,0,0,0,0,0,0,0,0,0,0,0,0,0,0,0,0,0,0,0,0,0,0,0,0,0,0,0,0,0,0,0,0,0,0,0,0,0,0,0,0,0,0,0,0,0,0,0,0,0,
        0,0,0,0,0,0,0,0,0,0,0,0,0,0,0,0,0,0,0,0,0,0,0,0,0,0,0,0,0,0,0,0,0,0,0,0,0,0,0,0,0,0,0,0,0,0,0,0,0,0,0,0,0,0,0,0,0,0,0,0,0,0,0,0,0,0,0,0,0,0,0,0,0,0,0,0,0,0,0,0,0,0,0,0,0,0,0,0,0,0,0,0,0,0,0,0,
        0,0,0,0,0,0,0,0,0,0,0,0,0,0,0,0,0,0,0,0,0,0,0,0,0,0,0,0,0,0,0,0,0,0,0,0,0,0,0,0,0,0,0,0,0,0,0,0,0,0,0,0,0,0,0,0,0,0,0,0,0,0,0,0,0,0,0,0,0,0,0,0,0,0,0,0,0,0,0,0,0,0,0,0,0,0,0,0,0,0,0,0,0,0,0,0,
        0,0,0,0,0,0,0,0,0,0,0,0,0,0,0,0,0,0,0,0,0,0,0,0,0,0,0,0,0,0,0,0,0,0,0,0,0,0,0,0,0,0,0,0,0,0,0,0,0,0,0,0,0,0,0,0,0,0,0,0,0,0,0,0,0,0,0,0,0,0,0,0,0,0,0,0,0,0,0,0,0,0,0,0,0,0,0,0,0,0,0,0,0,0,0,0,
        0,0,0,0,0,0,0,0,0,0,0,0,0,0,0,0,0,0,0,0,0,0,0,0,0,0,0,0,0,0,0,0,0,0,0,0,0,0,0,0,0,0,0,0,0,0,0,0,0,0,0,0,0,0,0,0,0,0,0,0,0,0,0,0,0,0,0,0,0,0,0,0,0,0,0,0,0,0,0,0,0,0,0,0,0,0,0,0,0,0,0,0,0,0,0,0,
        0,0,0,0,0,0,0,0,0,0,0,0,0,0,0,0,0,0,0,0,0,0,0,0,0,0,0,0,0,0,0,0,0,0,0,0,0,0,0,0,0,0,0,0,0,0,0,0,0,0,0,0,0,0,0,0,0,0,0,0,0,0,0,0,0,0,0,0,0,0,0,0,0,0,0,0,0,0,0,0,0,0,0,0,0,0,0,0,0,0,0,0,0,0,0,0,
        0,0,0,0,0,0,0,0,0,0,0,0,0,0,0,0,0,0,0,0,0,0,0,0,0,0,0,0,0,0,0,0,0,0,0,0,0,0,0,0,0,0,0,0,0,0,0,0,0,0,0,0,0,0,0,0,0,0,0,0,0,0,0,0,0,0,0,0,0,0,0,0,0,0,0,0,0,0,0,0,0,0,0,0,0,0,0,0,0,0,0,0,0,0,0,0,
        0,0,0,0,0,0,0,0,0,0,0,0,0,0,0,0,0,0,0,0,0,0,0,0,0,0,0,0,0,0,0,0,0,0,0,0,0,0,0,0,0,0,0,0,0,0,0,0,0,0,0,0,0,0,0,0,0,0,0,0,0,0,0,0,0,0,0,0,0,0,0,0,0,0,0,0,0,0,0,0,0,0,0,0,0,0,0,0,0,0,0,0,0,0,0,0,
        0,0,0,0,0,0,0,0,0,0,0,0,0,0,0,0,0,0,0,0,0,0,0,0,0,0,0,0,0,0,0,0,0,0,0,0,0,0,0,0,0,0,0,0,0,0,0,0,0,0,0,0,0,0,0,0,0,0,0,0,0,0,0,0,0,0,0,0,0,0,0,0,0,0,0,0,0,0,0,0,0,0,0,0,0,0,0,0,0,0,0,0,0,0,0,0,
        0,0,0,0,0,0,0,0,0,0,0,0,0,0,0,0,0,0,0,0,0,0,0,0,0,0,0,0,0,0,0,0,0,0,0,0,0,0,0,0,0,0,0,0,0,0,0,0,0,0,0,0,0,0,0,0,0,0,0,0,0,0,0,0,0,0,0,0,0,0,0,0,0,0,0,0,0,0,0,0,0,0,0,0,0,0,0,0,0,0,0,0,0,0,0,0,
        0,0,0,0,0,0,0,0,0,0,0,0,0,0,0,0,0,0,0,0,0,0,0,0,0,0,0,0,0,0,0,0,0,0,0,0,0,0,0,0,0,0,0,0,0,0,0,0,0,0,0,0,0,0,0,0,0,0,0,0,0,0,0,0,0,0,0,0,0,0,0,0,0,0,0,0,0,0,0,0,0,0,0,0,0,0,0,0,0,0,0,0,0,0,0,0,
        0,0,0,0,0,0,0,0,0,0,0,0,0,0,0,0,0,0,0,0,0,0,0,0,0,0,0,0,0,0,0,0,0,0,0,0,0,0,0,0,0,0,0,0,0,0,0,0,0,0,0,0,0,0,0,0,0,0,0,0,0,0,0,0,0,0,0,0,0,0,0,0,0,0,0,0,0,0,0,0,0,0,0,0,0,0,0,0,0,0,0,0,0,0,0,0,
        0,0,0,0,0,0,0,0,0,0,0,0,0,0,0,0,0,0,0,0,0,0,0,0,0,0,0,0,0,0,0,0,0,0,0,0,0,0,0,0,0,0,0,0,0,0,0,0,0,0,0,0,0,0,0,0,0,0,0,0,0,0,0,0,0,0,0,0,0,0,0,0,0,0,0,0,0,0,0,0,0,0,0,0,0,0,0,0,0,0,0,0,0,0,0,0,
        0,0,0,0,0,0,0,0,0,0,0,0,0,0,0,0,0,0,0,0,0,0,0,0,0,0,0,0,0,0,0,0,0,0,0,0,0,0,0,0,0,0,0,0,0,0,0,0,0,0,0,0,0,0,0,0,0,0,0,0,0,0,0,0,0,0,0,0,0,0,0,0,0,0,0,0,0,0,0,0,0,0,0,0,0,0,0,0,0,0,0,0,0,0,0,0,
        0,0,0,0,0,0,0,0,0,0,0,0,0,0,0,0,0,0,0,0,0,0,0,0,0,0,0,0,0,0,0,0,0,0,0,0,0,0,0,0,0,0,0,0,0,0,0,0,0,0,0,0,0,0,0,0,0,0,0,0,0,0,0,0,0,0,0,0,0,0,0,0,0,0,0,0,0,0,0,0,0,0,0,0,0,0,0,0,0,0,0,0,0,0,0,0,
        0,0,0,0,0,0,0,0,0,0,0,0,0,0,0,0,0,0,0,0,0,0,0,0,0,0,0,0,0,0,0,0,0,0,0,0,0,0,0,0,0,0,0,0,0,0,0,0,0,0,0,0,0,0,0,0,0,0,0,0,0,0,0,0,0,0,0,0,0,0,0,0,0,0,0,0,0,0,0,0,0,0,0,0,0,0,0,0,0,0,0,0,0,0,0,0,
        0,0,0,0,0,0,0,0,0,0,0,0,0,0,0,0,0,0,0,0,0,0,0,0,0,0,0,0,0,0,0,0,0,0,0,0,0,0,0,0,0,0,0,0,0,0,0,0,0,0,0,0,0,0,0,0,0,0,0,0,0,0,0,0,0,0,0,0,0,0,0,0,0,0,0,0,0,0,0,0,0,0,0,0,0,0,0,0,0,0,0,0,0,0,0,0,
        0,0,0,0,0,0,0,0,0,0,0,0,0,0,0,0,0,0,0,0,0,0,0,0,0,0,0,0,0,0,0,0,0,0,0,0,0,0,0,0,0,0,0,0,0,0,0,0,0,0,0,0,0,0,0,0,0,0,0,0,0,0,0,0,0,0,0,0,0,0,0,0,0,0,0,0,0,0,0,0,0,0,0,0,0,0,0,0,0,0,0,0,0,0,0,0,
        0,0,0,0,0,0,0,0,0,0,0,0,0,0,0,0,0,0,0,0,0,0,0,0,0,0,0,0,0,0,0,0,0,0,0,0,0,0,0,0,0,0,0,0,0,0,0,0,0,0,0,0,0,0,0,0,0,0,0,0,0,0,0,0,0,0,0,0,0,0,0,0,0,0,0,0,0,0,0,0,0,0,0,0,0,0,0,0,0,0,0,0,0,0,0,0,
        0,0,0,0,0,0,0,0,0,0,0,0,0,0,0,0,0,0,0,0,0,0,0,0,0,0,0,0,0,0,0,0,0,0,0,0,0,0,0,0,0,0,0,0,0,0,0,0,0,0,0,0,0,0,0,0,0,0,0,0,0,0,0,0,0,0,0,0,0,0,0,0,0,0,0,0,0,0,0,0,0,0,0,0,0,0,0,0,0,0,0,0,0,0,0,0,
        0,0,0,0,0,0,0,0,0,0,0,0,0,0,0,0,0,0,0,0,0,0,0,0,0,0,0,0,0,0,0,0,0,0,0,0,0,0,0,0,0,0,0,0,0,0,0,0,0,0,0,0,0,0,0,0,0,0,0,0,0,0,0,0,0,0,0,0,0,0,0,0,0,0,0,0,0,0,0,0,0,0,0,0,0,0,0,0,0,0,0,0,0,0,0,0,
        0,0,0,0,0,0,0,0,0,0,0,0,0,0,0,0,0,0,0,0,0,0,0,0,0,0,0,0,0,0,0,0,0,0,0,0,0,0,0,0,0,0,0,0,0,0,0,0,0,0,0,0,0,0,0,0,0,0,0,0,0,0,0,0,0,0,0,0,0,0,0,0,0,0,0,0,0,0,0,0,0,0,0,0,0,0,0,0,0,0,0,0,0,0,0,0,
        0,0,0,0,0,0,0,0,0,0,0,0,0,0,0,0,0,0,0,0,0,0,0,0,0,0,0,0,0,0,0,0,0,0,0,0,0,0,0,0,0,0,0,0,0,0,0,0,0,0,0,0,0,0,0,0,0,0,0,0,0,0,0,0,0,0,0,0,0,0,0,0,0,0,0,0,0,0,0,0,0,0,0,0,0,0,0,0,0,0,0,0,0,0,0,0,
        0,0,0,0,0,0,0,0,0,0,0,0,0,0,0,0,0,0,0,0,0,0,0,0,0,0,0,0,0,0,0,0,0,0,0,0,0,0,0,0,0,0,0,0,0,0,0,0,0,0,0,0,0,0,0,0,0,0,0,0,0,0,0,0,0,0,0,0,0,0,0,0,0,0,0,0,0,0,0,0,0,0,0,0,0,0,0,0,0,0,0,0,0,0,0,0,
        0,0,0,0,0,0,0,0,0,0,0,0,0,0,0,0,0,0,0,0,0,0,0,0,0,0,0,0,0,0,0,0,0,0,0,0,0,0,0,0,0,0,0,0,0,0,0,0,0,0,0,0,0,0,0,0,0,0,0,0,0,0,0,0,0,0,0,0,0,0,0,0,0,0,0,0,0,0,0,0,0,0,0,0,0,0,0,0,0,0,0,0,0,0,0,0,
        0,0,0,0,0,0,0,0,0,0,0,0,0,0,0,0,0,0,0,0,0,0,0,0,0,0,0,0,0,0,0,0,0,0,0,0,0,0,0,0,0,0,0,0,0,0,0,0,0,0,0,0,0,0,0,0,0,0,0,0,0,0,0,0,0,0,0,0,0,0,0,0,0,0,0,0,0,0,0,0,0,0,0,0,0,0,0,0,0,0,0,0,0,0,0,0,
        0,0,0,0,0,0,0,0,0,0,0,0,0,0,0,0,0,0,0,0,0,0,0,0,0,0,0,0,0,0,0,0,0,0,0,0,0,0,0,0,0,0,0,0,0,0,0,0,0,0,0,0,0,0,0,0,0,0,0,0,0,0,0,0,0,0,0,0,0,0,0,0,0,0,0,0,0,0,0,0,0,0,0,0,0,0,0,0,0,0,0,0,0,0,0,0,
        0,0,0,0,0,0,0,0,0,0,0,0,0,0,0,0,0,0,0,0,0,0,0,0,0,0,0,0,0,0,0,0,0,0,0,0,0,0,0,0,0,0,0,0,0,0,0,0,0,0,0,0,0,0,0,0,0,0,0,0,0,0,0,0,0,0,0,0,0,0,0,0,0,0,0,0,0,0,0,0,0,0,0,0,0,0,0,0,0,0,0,0,0,0,0,0,
        0,0,0,0,0,0,0,0,0,0,0,0,0,0,0,0,0,0,0,0,0,0,0,0,0,0,0,0,0,0,0,0,0,0,0,0,0,0,0,0,0,0,0,0,0,0,0,0,0,0,0,0,0,0,0,0,0,0,0,0,0,0,0,0,0,0,0,0,0,0,0,0,0,0,0,0,0,0,0,0,0,0,0,0,0,0,0,0,0,0,0,0,0,0,0,0,
        0,0,0,0,0,0,0,0,0,0,0,0,0,0,0,0,0,0,0,0,0,0,0,0,0,0,0,0,0,0,0,0,0,0,0,0,0,0,0,0,0,0,0,0,0,0,0,0,0,0,0,0,0,0,0,0,0,0,0,0,0,0,0,0,0,0,0,0,0,0,0,0,0,0,0,0,0,0,0,0,0,0,0,0,0,0,0,0,0,0,0,0,0,0,0,0,
        0,0,0,0,0,0,0,0,0,0,0,0,0,0,0,0,0,0,0,0,0,0,0,0,0,0,0,0,0,0,0,0,0,0,0,0,0,0,0,0,0,0,0,0,0,0,0,0,0,0,0,0,0,0,0,0,0,0,0,0,0,0,0,0,0,0,0,0,0,0,0,0,0,0,0,0,0,0,0,0,0,0,0,0,0,0,0,0,0,0,0,0,0,0,0,0,
        0,0,0,0,0,0,0,0,0,0,0,0,0,0,0,0,0,0,0,0,0,0,0,0,0,0,0,0,0,0,0,0,0,0,0,0,0,0,0,0,0,0,0,0,0,0,0,0,0,0,0,0,0,0,0,0,0,0,0,0,0,0,0,0,0,0,0,0,0,0,0,0,0,0,0,0,0,0,0,0,0,0,0,0,0,0,0,0,0,0,0,0,0,0,0,0,
        0,0,0,0,0,0,0,0,0,0,0,0,0,0,0,0,0,0,0,0,0,0,0,0,0,0,0,0,0,0,0,0,0,0,0,0,0,0,0,0,0,0,0,0,0,0,0,0,0,0,0,0,0,0,0,0,0,0,0,0,0,0,0,0,0,0,0,0,0,0,0,0,0,0,0,0,0,0,0,0,0,0,0,0,0,0,0,0,0,0,0,0,0,0,0,0,
        0,0,0,0,0,0,0,0,0,0,0,0,0,0,0,0,0,0,0,0,0,0,0,0,0,0,0,0,0,0,0,0,0,0,0,0,0,0,0,0,0,0,0,0,0,0,0,0,0,0,0,0,0,0,0,0,0,0,0,0,0,0,0,0,0,0,0,0,0,0,0,0,0,0,0,0,0,0,0,0,0,0,0,0,0,0,0,0,0,0,0,0,0,0,0,0,
        0,0,0,0,0,0,0,0,0,0,0,0,0,0,0,0,0,0,0,0,0,0,0,0,0,0,0,0,0,0,0,0,0,0,0,0,0,0,0,0,0,0,0,0,0,0,0,0,0,0,0,0,0,0,0,0,0,0,0,0,0,0,0,0,0,0,0,0,0,0,0,0,0,0,0,0,0,0,0,0,0,0,0,0,0,0,0,0,0,0,0,0,0,0,0,0,
        0,0,0,0,0,0,0,0,0,0,0,0,0,0,0,0,0,0,0,0,0,0,0,0,0,0,0,0,0,0,0,0,0,0,0,0,0,0,0,0,0,0,0,0,0,0,0,0,0,0,0,0,0,0,0,0,0,0,0,0,0,0,0,0,0,0,0,0,0,0,0,0,0,0,0,0,0,0,0,0,0,0,0,0,0,0,0,0,0,0,0,0,0,0,0,0,
        0,0,0,0,0,0,0,0,0,0,0,0,0,0,0,0,0,0,0,0,0,0,0,0,0,0,0,0,0,0,0,0,0,0,0,0,0,0,0,0,0,0,0,0,0,0,0,0,0,0,0,0,0,0,0,0,0,0,0,0,0,0,0,0,0,0,0,0,0,0,0,0,0,0,0,0,0,0,0,0,0,0,0,0,0,0,0,0,0,0,0,0,0,0,0,0,
        0,0,0,0,0,0,0,0,0,0,0,0,0,0,0,0,0,0,0,0,0,0,0,0,0,0,0,0,0,0,0,0,0,0,0,0,0,0,0,0,0,0,0,0,0,0,0,0,0,0,0,0,0,0,0,0,0,0,0,0,0,0,0,0,0,0,0,0,0,0,0,0,0,0,0,0,0,0,0,0,0,0,0,0,0,0,0,0,0,0,0,0,0,0,0,0,
        0,0,0,0,0,0,0,0,0,0,0,0,0,0,0,0,0,0,0,0,0,0,0,0,0,0,0,0,0,0,0,0,0,0,0,0,0,0,0,0,0,0,0,0,0,0,0,0,0,0,0,0,0,0,0,0,0,0,0,0,0,0,0,0,0,0,0,0,0,0,0,0,0,0,0,0,0,0,0,0,0,0,0,0,0,0,0,0,0,0,0,0,0,0,0,0,
        0,0,0,0,0,0,0,0,0,0,0,0,0,0,0,0,0,0,0,0,0,0,0,0,0,0,0,0,0,0,0,0,0,0,0,0,0,0,0,0,0,0,0,0,0,0,0,0,0,0,0,0,0,0,0,0,0,0,0,0,0,0,0,0,0,0,0,0,0,0,0,0,0,0,0,0,0,0,0,0,0,0,0,0,0,0,0,0,0,0,0,0,0,0,0,0,
        0,0,0,0,0,0,0,0,0,0,0,0,0,0,0,0,0,0,0,0,0,0,0,0,0,0,0,0,0,0,0,0,0,0,0,0,0,0,0,0,0,0,0,0,0,0,0,0,0,0,0,0,0,0,0,0,0,0,0,0,0,0,0,0,0,0,0,0,0,0,0,0,0,0,0,0,0,0,0,0,0,0,0,0,0,0,0,0,0,0,0,0,0,0,0,0,
        0,0,0,0,0,0,0,0,0,0,0,0,0,0,0,0,0,0,0,0,0,0,0,0,0,0,0,0,0,0,0,0,0,0,0,0,0,0,0,0,0,0,0,0,0,0,0,0,0,0,0,0,0,0,0,0,0,0,0,0,0,0,0,0,0,0,0,0,0,0,0,0,0,0,0,0,0,0,0,0,0,0,0,0,0,0,0,0,0,0,0,0,0,0,0,0,
        0,0,0,0,0,0,0,0,0,0,0,0,0,0,0,0,0,0,0,0,0,0,0,0,0,0,0,0,0,0,0,0,0,0,0,0,0,0,0,0,0,0,0,0,0,0,0,0,0,0,0,0,0,0,0,0,0,0,0,0,0,0,0,0,0,0,0,0,0,0,0,0,0,0,0,0,0,0,0,0,0,0,0,0,0,0,0,0,0,0,0,0,0,0,0,0,
        0,0,0,0,0,0,0,0,0,0,0,0,0,0,0,0,0,0,0,0,0,0,0,0,0,0,0,0,0,0,0,0,0,0,0,0,0,0,0,0,0,0,0,0,0,0,0,0,0,0,0,0,0,0,0,0,0,0,0,0,0,0,0,0,0,0,0,0,0,0,0,0,0,0,0,0,0,0,0,0,0,0,0,0,0,0,0,0,0,0,0,0,0,0,0,0,
        0,0,0,0,0,0,0,0,0,0,0,0,0,0,0,0,0,0,0,0,0,0,0,0,0,0,0,0,0,0,0,0,0,0,0,0,0,0,0,0,0,0,0,0,0,0,0,0,0,0,0,0,0,0,0,0,0,0,0,0,0,0,0,0,0,0,0,0,0,0,0,0,0,0,0,0,0,0,0,0,0,0,0,0,0,0,0,0,0,0,0,0,0,0,0,0,
        0,0,0,0,0,0,0,0,0,0,0,0,0,0,0,0,0,0,0,0,0,0,0,0,0,0,0,0,0,0,0,0,0,0,0,0,0,0,0,0,0,0,0,0,0,0,0,0,0,0,0,0,0,0,0,0,0,0,0,0,0,0,0,0,0,0,0,0,0,0,0,0,0,0,0,0,0,0,0,0,0,0,0,0,0,0,0,0,0,0,0,0,0,0,0,0,
        0,0,0,0,0,0,0,0,0,0,0,0,0,0,0,0,0,0,0,0,0,0,0,0,0,0,0,0,0,0,0,0,0,0,0,0,0,0,0,0,0,0,0,0,0,0,0,0,0,0,0,0,0,0,0,0,0,0,0,0,0,0,0,0,0,0,0,0,0,0,0,0,0,0,0,0,0,0,0,0,0,0,0,0,0,0,0,0,0,0,0,0,0,0,0,0,
        0,0,0,0,0,0,0,0,0,0,0,0,0,0,0,0,0,0,0,0,0,0,0,0,0,0,0,0,0,0,0,0,0,0,0,0,0,0,0,0,0,0,0,0,0,0,0,0,0,0,0,0,0,0,0,0,0,0,0,0,0,0,0,0,0,0,0,0,0,0,0,0,0,0,0,0,0,0,0,0,0,0,0,0,0,0,0,0,0,0,0,0,0,0,0,0,
        0,0,0,0,0,0,0,0,0,0,0,0,0,0,0,0,0,0,0,0,0,0,0,0,0,0,0,0,0,0,0,0,0,0,0,0,0,0,0,0,0,0,0,0,0,0,0,0,0,0,0,0,0,0,0,0,0,0,0,0,0,0,0,0,0,0,0,0,0,0,0,0,0,0,0,0,0,0,0,0,0,0,0,0,0,0,0,0,0,0,0,0,0,0,0,0,
        0,0,0,0,0,0,0,0,0,0,0,0,0,0,0,0,0,0,0,0,0,0,0,0,0,0,0,0,0,0,0,0,0,0,0,0,0,0,0,0,0,0,0,0,0,0,0,0,0,0,0,0,0,0,0,0,0,0,0,0,0,0,0,0,0,0,0,0,0,0,0,0,0,0,0,0,0,0,0,0,0,0,0,0,0,0,0,0,0,0,0,0,0,0,0,0,
        0,0,0,0,0,0,0,0,0,0,0,0,0,0,0,0,0,0,0,0,0,0,0,0,0,0,0,0,0,0,0,0,0,0,0,0,0,0,0,0,0,0,0,0,0,0,0,0,0,0,0,0,0,0,0,0,0,0,0,0,0,0,0,0,0,0,0,0,0,0,0,0,0,0,0,0,0,0,0,0,0,0,0,0,0,0,0,0,0,0,0,0,0,0,0,0,
        0,0,0,0,0,0,0,0,0,0,0,0,0,0,0,0,0,0,0,0,0,0,0,0,0,0,0,0,0,0,0,0,0,0,0,0,0,0,0,0,0,0,0,0,0,0,0,0,0,0,0,0,0,0,0,0,0,0,0,0,0,0,0,0,0,0,0,0,0,0,0,0,0,0,0,0,0,0,0,0,0,0,0,0,0,0,0,0,0,0,0,0,0,0,0,0,
        0,0,0,0,0,0,0,0,0,0,0,0,0,0,0,0,0,0,0,0,0,0,0,0,0,0,0,0,0,0,0,0,0,0,0,0,0,0,0,0,0,0,0,0,0,0,0,0,0,0,0,0,0,0,0,0,0,0,0,0,0,0,0,0,0,0,0,0,0,0,0,0,0,0,0,0,0,0,0,0,0,0,0,0,0,0,0,0,0,0,0,0,0,0,0,0,
        0,0,0,0,0,0,0,0,0,0,0,0,0,0,0,0,0,0,0,0,0,0,0,0,0,0,0,0,0,0,0,0,0,0,0,0,0,0,0,0,0,0,0,0,0,0,0,0,0,0,0,0,0,0,0,0,0,0,0,0,0,0,0,0,0,0,0,0,0,0,0,0,0,0,0,0,0,0,0,0,0,0,0,0,0,0,0,0,0,0,0,0,0,0,0,0,
        0,0,0,0,0,0,0,0,0,0,0,0,0,0,0,0,0,0,0,0,0,0,0,0,0,0,0,0,0,0,0,0,0,0,0,0,0,0,0,0,0,0,0,0,0,0,0,0,0,0,0,0,0,0,0,0,0,0,0,0,0,0,0,0,0,0,0,0,0,0,0,0,0,0,0,0,0,0,0,0,0,0,0,0,0,0,0,0,0,0,0,0,0,0,0,0,
        0,0,0,0,0,0,0,0,0,0,0,0,0,0,0,0,0,0,0,0,0,0,0,0,0,0,0,0,0,0,0,0,0,0,0,0,0,0,0,0,0,0,0,0,0,0,0,0,0,0,0,0,0,0,0,0,0,0,0,0,0,0,0,0,0,0,0,0,0,0,0,0,0,0,0,0,0,0,0,0,0,0,0,0,0,0,0,0,0,0,0,0,0,0,0,0,
        0,0,0,0,0,0,0,0,0,0,0,0,0,0,0,0,0,0,0,0,0,0,0,0,0,0,0,0,0,0,0,0,0,0,0,0,0,0,0,0,0,0,0,0,0,0,0,0,0,0,0,0,0,0,0,0,0,0,0,0,0,0,0,0,0,0,0,0,0,0,0,0,0,0,0,0,0,0,0,0,0,0,0,0,0,0,0,0,0,0,0,0,0,0,0,0,
        0,0,0,0,0,0,0,0,0,0,0,0,0,0,0,0,0,0,0,0,0,0,0,0,0,0,0,0,0,0,0,0,0,0,0,0,0,0,0,0,0,0,0,0,0,0,0,0,0,0,0,0,0,0,0,0,0,0,0,0,0,0,0,0,0,0,0,0,0,0,0,0,0,0,0,0,0,0,0,0,0,0,0,0,0,0,0,0,0,0,0,0,0,0,0,0,
        0,0,0,0,0,0,0,0,0,0,0,0,0,0,0,0,0,0,0,0,0,0,0,0,0,0,0,0,0,0,0,0,0,0,0,0,0,0,0,0,0,0,0,0,0,0,0,0,0,0,0,0,0,0,0,0,0,0,0,0,0,0,0,0,0,0,0,0,0,0,0,0,0,0,0,0,0,0,0,0,0,0,0,0,0,0,0,0,0,0,0,0,0,0,0,0,
        0,0,0,0,0,0,0,0,0,0,0,0,0,0,0,0,0,0,0,0,0,0,0,0,0,0,0,0,0,0,0,0,0,0,0,0,0,0,0,0,0,0,0,0,0,0,0,0,0,0,0,0,0,0,0,0,0,0,0,0,0,0,0,0,0,0,0,0,0,0,0,0,0,0,0,0,0,0,0,0,0,0,0,0,0,0,0,0,0,0,0,0,0,0,0,0,
        0,0,0,0,0,0,0,0,0,0,0,0,0,0,0,0,0,0,0,0,0,0,0,0,0,0,0,0,0,0,0,0,0,0,0,0,0,0,0,0,0,0,0,0,0,0,0,0,0,0,0,0,0,0,0,0,0,0,0,0,0,0,0,0,0,0,0,0,0,0,0,0,0,0,0,0,0,0,0,0,0,0,0,0,0,0,0,0,0,0,0,0,0,0,0,0,
        0,0,0,0,0,0,0,0,0,0,0,0,0,0,0,0,0,0,0,0,0,0,0,0,0,0,0,0,0,0,0,0,0,0,0,0,0,0,0,0,0,0,0,0,0,0,0,0,0,0,0,0,0,0,0,0,0,0,0,0,0,0,0,0,0,0,0,0,0,0,0,0,0,0,0,0,0,0,0,0,0,0,0,0,0,0,0,0,0,0,0,0,0,0,0,0,
        0,0,0,0,0,0,0,0,0,0,0,0,0,0,0,0,0,0,0,0,0,0,0,0,0,0,0,0,0,0,0,0,0,0,0,0,0,0,0,0,0,0,0,0,0,0,0,0,0,0,0,0,0,0,0,0,0,0,0,0,0,0,0,0,0,0,0,0,0,0,0,0,0,0,0,0,0,0,0,0,0,0,0,0,0,0,0,0,0,0,0,0,0,0,0,0,
        0,0,0,0,0,0,0,0,0,0,0,0,0,0,0,0,0,0,0,0,0,0,0,0,0,0,0,0,0,0,0,0,0,0,0,0,0,0,0,0,0,0,0,0,0,0,0,0,0,0,0,0,0,0,0,0,0,0,0,0,0,0,0,0,0,0,0,0,0,0,0,0,0,0,0,0,0,0,0,0,0,0,0,0,0,0,0,0,0,0,0,0,0,0,0,0,
        0,0,0,0,0,0,0,0,0,0,0,0,0,0,0,0,0,0,0,0,0,0,0,0,0,0,0,0,0,0,0,0,0,0,0,0,0,0,0,0,0,0,0,0,0,0,0,0,0,0,0,0,0,0,0,0,0,0,0,0,0,0,0,0,0,0,0,0,0,0,0,0,0,0,0,0,0,0,0,0,0,0,0,0,0,0,0,0,0,0,0,0,0,0,0,0,
        0,0,0,0,0,0,0,0,0,0,0,0,0,0,0,0,0,0,0,0,0,0,0,0,0,0,0,0,0,0,0,0,0,0,0,0,0,0,0,0,0,0,0,0,0,0,0,0,0,0,0,0,0,0,0,0,0,0,0,0,0,0,0,0,0,0,0,0,0,0,0,0,0,0,0,0,0,0,0,0,0,0,0,0,0,0,0,0,0,0,0,0,0,0,0,0,
        0,0,0,0,0,0,0,0,0,0,0,0,0,0,0,0,0,0,0,0,0,0,0,0,0,0,0,0,0,0,0,0,0,0,0,0,0,0,0,0,0,0,0,0,0,0,0,0,0,0,0,0,0,0,0,0,0,0,0,0,0,0,0,0,0,0,0,0,0,0,0,0,0,0,0,0,0,0,0,0,0,0,0,0,0,0,0,0,0,0,0,0,0,0,0,0,
        0,0,0,0,0,0,0,0,0,0,0,0,0,0,0,0,0,0,0,0,0,0,0,0,0,0,0,0,0,0,0,0,0,0,0,0,0,0,0,0,0,0,0,0,0,0,0,0,0,0,0,0,0,0,0,0,0,0,0,0,0,0,0,0,0,0,0,0,0,0,0,0,0,0,0,0,0,0,0,0,0,0,0,0,0,0,0,0,0,0,0,0,0,0,0,0,
        0,0,0,0,0,0,0,0,0,0,0,0,0,0,0,0,0,0,0,0,0,0,0,0,0,0,0,0,0,0,0,0,0,0,0,0,0,0,0,0,0,0,0,0,0,0,0,0,0,0,0,0,0,0,0,0,0,0,0,0,0,0,0,0,0,0,0,0,0,0,0,0,0,0,0,0,0,0,0,0,0,0,0,0,0,0,0,0,0,0,0,0,0,0,0,0,
        0,0,0,0,0,0,0,0,0,0,0,0,0,0,0,0,0,0,0,0,0,0,0,0,0,0,0,0,0,0,0,0,0,0,0,0,0,0,0,0,0,0,0,0,0,0,0,0,0,0,0,0,0,0,0,0,0,0,0,0,0,0,0,0,0,0,0,0,0,0,0,0,0,0,0,0,0,0,0,0,0,0,0,0,0,0,0,0,0,0,0,0,0,0,0,0,
        0,0,0,0,0,0,0,0,0,0,0,0,0,0,0,0,0,0,0,0,0,0,0,0,0,0,0,0,0,0,0,0,0,0,0,0,0,0,0,0,0,0,0,0,0,0,0,0,0,0,0,0,0,0,0,0,0,0,0,0,0,0,0,0,0,0,0,0,0,0,0,0,0,0,0,0,0,0,0,0,0,0,0,0,0,0,0,0,0,0,0,0,0,0,0,0,
        0,0,0,0,0,0,0,0,0,0,0,0,0,0,0,0,0,0,0,0,0,0,0,0,0,0,0,0,0,0,0,0,0,0,0,0,0,0,0,0,0,0,0,0,0,0,0,0,0,0,0,0,0,0,0,0,0,0,0,0,0,0,0,0,0,0,0,0,0,0,0,0,0,0,0,0,0,0,0,0,0,0,0,0,0,0,0,0,0,0,0,0,0,0,0,0,
        0,0,0,0,0,0,0,0,0,0,0,0,0,0,0,0,0,0,0,0,0,0,0,0,0,0,0,0,0,0,0,0,0,0,0,0,0,0,0,0,0,0,0,0,0,0,0,0,0,0,0,0,0,0,0,0,0,0,0,0,0,0,0,0,0,0,0,0,0,0,0,0,0,0,0,0,0,0,0,0,0,0,0,0,0,0,0,0,0,0,0,0,0,0,0,0
      ]
    },
    {"id": 4, "type": "objectgroup", "name": "objects", "x": 0, "y": 0, "opacity": 1, "visible": true, "draworder": "topdown", "objects": [{"id": 1, "name": "study_01", "type": "Trigger", "x": 912, "y": 480, "width": 0, "height": 0, "rotation": 0, "visible": true, "properties": [{"name": "once", "type": "bool", "value": true}, {"name": "safe", "type": "bool", "value": false}], "point": true}, {"id": 2, "name": "lamp_1", "type": "Light", "x": 912, "y": 624, "width": 0, "height": 0, "rotation": 0, "visible": true, "properties": [{"name": "color", "type": "string", "value": "#ffd591"}, {"name": "radius", "type": "int", "value": 6}, {"name": "intensity", "type": "float", "value": 0.75}, {"name": "mountHeight", "type": "int", "value": 2}, {"name": "schedule", "type": "string", "value": "always"}, {"name": "flicker", "type": "bool", "value": true}], "point": true}, {"id": 3, "name": "study_02", "type": "Trigger", "x": 1344, "y": 480, "width": 0, "height": 0, "rotation": 0, "visible": true, "properties": [{"name": "once", "type": "bool", "value": true}, {"name": "safe", "type": "bool", "value": false}], "point": true}, {"id": 4, "name": "lamp_3", "type": "Light", "x": 1344, "y": 624, "width": 0, "height": 0, "rotation": 0, "visible": true, "properties": [{"name": "color", "type": "string", "value": "#ffd591"}, {"name": "radius", "type": "int", "value": 6}, {"name": "intensity", "type": "float", "value": 0.75}, {"name": "mountHeight", "type": "int", "value": 2}, {"name": "schedule", "type": "string", "value": "always"}, {"name": "flicker", "type": "bool", "value": true}], "point": true}, {"id": 5, "name": "study_03", "type": "Trigger", "x": 1776, "y": 480, "width": 0, "height": 0, "rotation": 0, "visible": true, "properties": [{"name": "once", "type": "bool", "value": true}, {"name": "safe", "type": "bool", "value": false}], "point": true}, {"id": 6, "name": "lamp_5", "type": "Light", "x": 1776, "y": 624, "width": 0, "height": 0, "rotation": 0, "visible": true, "properties": [{"name": "color", "type": "string", "value": "#ffd591"}, {"name": "radius", "type": "int", "value": 6}, {"name": "intensity", "type": "float", "value": 0.75}, {"name": "mountHeight", "type": "int", "value": 2}, {"name": "schedule", "type": "string", "value": "always"}, {"name": "flicker", "type": "bool", "value": true}], "point": true}, {"id": 7, "name": "study_04", "type": "Trigger", "x": 2208, "y": 480, "width": 0, "height": 0, "rotation": 0, "visible": true, "properties": [{"name": "once", "type": "bool", "value": true}, {"name": "safe", "type": "bool", "value": false}], "point": true}, {"id": 8, "name": "lamp_7", "type": "Light", "x": 2208, "y": 624, "width": 0, "height": 0, "rotation": 0, "visible": true, "properties": [{"name": "color", "type": "string", "value": "#ffd591"}, {"name": "radius", "type": "int", "value": 6}, {"name": "intensity", "type": "float", "value": 0.75}, {"name": "mountHeight", "type": "int", "value": 2}, {"name": "schedule", "type": "string", "value": "always"}, {"name": "flicker", "type": "bool", "value": true}], "point": true}, {"id": 9, "name": "study_05", "type": "Trigger", "x": 2640, "y": 480, "width": 0, "height": 0, "rotation": 0, "visible": true, "properties": [{"name": "once", "type": "bool", "value": true}, {"name": "safe", "type": "bool", "value": false}], "point": true}, {"id": 10, "name": "lamp_9", "type": "Light", "x": 2640, "y": 624, "width": 0, "height": 0, "rotation": 0, "visible": true, "properties": [{"name": "color", "type": "string", "value": "#ffd591"}, {"name": "radius", "type": "int", "value": 6}, {"name": "intensity", "type": "float", "value": 0.75}, {"name": "mountHeight", "type": "int", "value": 2}, {"name": "schedule", "type": "string", "value": "always"}, {"name": "flicker", "type": "bool", "value": true}], "point": true}, {"id": 11, "name": "study_06", "type": "Trigger", "x": 3072, "y": 480, "width": 0, "height": 0, "rotation": 0, "visible": true, "properties": [{"name": "once", "type": "bool", "value": true}, {"name": "safe", "type": "bool", "value": false}], "point": true}, {"id": 12, "name": "lamp_11", "type": "Light", "x": 3072, "y": 624, "width": 0, "height": 0, "rotation": 0, "visible": true, "properties": [{"name": "color", "type": "string", "value": "#ffd591"}, {"name": "radius", "type": "int", "value": 6}, {"name": "intensity", "type": "float", "value": 0.75}, {"name": "mountHeight", "type": "int", "value": 2}, {"name": "schedule", "type": "string", "value": "always"}, {"name": "flicker", "type": "bool", "value": true}], "point": true}, {"id": 13, "name": "study_07", "type": "Trigger", "x": 3504, "y": 480, "width": 0, "height": 0, "rotation": 0, "visible": true, "properties": [{"name": "once", "type": "bool", "value": true}, {"name": "safe", "type": "bool", "value": false}], "point": true}, {"id": 14, "name": "lamp_13", "type": "Light", "x": 3504, "y": 624, "width": 0, "height": 0, "rotation": 0, "visible": true, "properties": [{"name": "color", "type": "string", "value": "#ffd591"}, {"name": "radius", "type": "int", "value": 6}, {"name": "intensity", "type": "float", "value": 0.75}, {"name": "mountHeight", "type": "int", "value": 2}, {"name": "schedule", "type": "string", "value": "always"}, {"name": "flicker", "type": "bool", "value": true}], "point": true}, {"id": 15, "name": "study_08", "type": "Trigger", "x": 3936, "y": 480, "width": 0, "height": 0, "rotation": 0, "visible": true, "properties": [{"name": "once", "type": "bool", "value": true}, {"name": "safe", "type": "bool", "value": false}], "point": true}, {"id": 16, "name": "lamp_15", "type": "Light", "x": 3936, "y": 624, "width": 0, "height": 0, "rotation": 0, "visible": true, "properties": [{"name": "color", "type": "string", "value": "#ffd591"}, {"name": "radius", "type": "int", "value": 6}, {"name": "intensity", "type": "float", "value": 0.75}, {"name": "mountHeight", "type": "int", "value": 2}, {"name": "schedule", "type": "string", "value": "always"}, {"name": "flicker", "type": "bool", "value": true}], "point": true}, {"id": 17, "name": "study_09", "type": "Trigger", "x": 912, "y": 1872, "width": 0, "height": 0, "rotation": 0, "visible": true, "properties": [{"name": "once", "type": "bool", "value": true}, {"name": "safe", "type": "bool", "value": false}], "point": true}, {"id": 18, "name": "lamp_17", "type": "Light", "x": 912, "y": 2016, "width": 0, "height": 0, "rotation": 0, "visible": true, "properties": [{"name": "color", "type": "string", "value": "#ffd591"}, {"name": "radius", "type": "int", "value": 6}, {"name": "intensity", "type": "float", "value": 0.75}, {"name": "mountHeight", "type": "int", "value": 2}, {"name": "schedule", "type": "string", "value": "always"}, {"name": "flicker", "type": "bool", "value": true}], "point": true}, {"id": 19, "name": "study_10", "type": "Trigger", "x": 1344, "y": 1872, "width": 0, "height": 0, "rotation": 0, "visible": true, "properties": [{"name": "once", "type": "bool", "value": true}, {"name": "safe", "type": "bool", "value": false}], "point": true}, {"id": 20, "name": "lamp_19", "type": "Light", "x": 1344, "y": 2016, "width": 0, "height": 0, "rotation": 0, "visible": true, "properties": [{"name": "color", "type": "string", "value": "#ffd591"}, {"name": "radius", "type": "int", "value": 6}, {"name": "intensity", "type": "float", "value": 0.75}, {"name": "mountHeight", "type": "int", "value": 2}, {"name": "schedule", "type": "string", "value": "always"}, {"name": "flicker", "type": "bool", "value": true}], "point": true}, {"id": 21, "name": "study_11", "type": "Trigger", "x": 1776, "y": 1872, "width": 0, "height": 0, "rotation": 0, "visible": true, "properties": [{"name": "once", "type": "bool", "value": true}, {"name": "safe", "type": "bool", "value": false}], "point": true}, {"id": 22, "name": "lamp_21", "type": "Light", "x": 1776, "y": 2016, "width": 0, "height": 0, "rotation": 0, "visible": true, "properties": [{"name": "color", "type": "string", "value": "#ffd591"}, {"name": "radius", "type": "int", "value": 6}, {"name": "intensity", "type": "float", "value": 0.75}, {"name": "mountHeight", "type": "int", "value": 2}, {"name": "schedule", "type": "string", "value": "always"}, {"name": "flicker", "type": "bool", "value": true}], "point": true}, {"id": 23, "name": "study_12", "type": "Trigger", "x": 2208, "y": 1872, "width": 0, "height": 0, "rotation": 0, "visible": true, "properties": [{"name": "once", "type": "bool", "value": true}, {"name": "safe", "type": "bool", "value": false}], "point": true}, {"id": 24, "name": "lamp_23", "type": "Light", "x": 2208, "y": 2016, "width": 0, "height": 0, "rotation": 0, "visible": true, "properties": [{"name": "color", "type": "string", "value": "#ffd591"}, {"name": "radius", "type": "int", "value": 6}, {"name": "intensity", "type": "float", "value": 0.75}, {"name": "mountHeight", "type": "int", "value": 2}, {"name": "schedule", "type": "string", "value": "always"}, {"name": "flicker", "type": "bool", "value": true}], "point": true}, {"id": 25, "name": "study_13", "type": "Trigger", "x": 2640, "y": 1872, "width": 0, "height": 0, "rotation": 0, "visible": true, "properties": [{"name": "once", "type": "bool", "value": true}, {"name": "safe", "type": "bool", "value": false}], "point": true}, {"id": 26, "name": "lamp_25", "type": "Light", "x": 2640, "y": 2016, "width": 0, "height": 0, "rotation": 0, "visible": true, "properties": [{"name": "color", "type": "string", "value": "#ffd591"}, {"name": "radius", "type": "int", "value": 6}, {"name": "intensity", "type": "float", "value": 0.75}, {"name": "mountHeight", "type": "int", "value": 2}, {"name": "schedule", "type": "string", "value": "always"}, {"name": "flicker", "type": "bool", "value": true}], "point": true}, {"id": 27, "name": "study_14", "type": "Trigger", "x": 3072, "y": 1872, "width": 0, "height": 0, "rotation": 0, "visible": true, "properties": [{"name": "once", "type": "bool", "value": true}, {"name": "safe", "type": "bool", "value": false}], "point": true}, {"id": 28, "name": "lamp_27", "type": "Light", "x": 3072, "y": 2016, "width": 0, "height": 0, "rotation": 0, "visible": true, "properties": [{"name": "color", "type": "string", "value": "#ffd591"}, {"name": "radius", "type": "int", "value": 6}, {"name": "intensity", "type": "float", "value": 0.75}, {"name": "mountHeight", "type": "int", "value": 2}, {"name": "schedule", "type": "string", "value": "always"}, {"name": "flicker", "type": "bool", "value": true}], "point": true}, {"id": 29, "name": "study_15", "type": "Trigger", "x": 3504, "y": 1872, "width": 0, "height": 0, "rotation": 0, "visible": true, "properties": [{"name": "once", "type": "bool", "value": true}, {"name": "safe", "type": "bool", "value": false}], "point": true}, {"id": 30, "name": "lamp_29", "type": "Light", "x": 3504, "y": 2016, "width": 0, "height": 0, "rotation": 0, "visible": true, "properties": [{"name": "color", "type": "string", "value": "#ffd591"}, {"name": "radius", "type": "int", "value": 6}, {"name": "intensity", "type": "float", "value": 0.75}, {"name": "mountHeight", "type": "int", "value": 2}, {"name": "schedule", "type": "string", "value": "always"}, {"name": "flicker", "type": "bool", "value": true}], "point": true}, {"id": 31, "name": "study_16", "type": "Trigger", "x": 3936, "y": 1872, "width": 0, "height": 0, "rotation": 0, "visible": true, "properties": [{"name": "once", "type": "bool", "value": true}, {"name": "safe", "type": "bool", "value": false}], "point": true}, {"id": 32, "name": "lamp_31", "type": "Light", "x": 3936, "y": 2016, "width": 0, "height": 0, "rotation": 0, "visible": true, "properties": [{"name": "color", "type": "string", "value": "#ffd591"}, {"name": "radius", "type": "int", "value": 6}, {"name": "intensity", "type": "float", "value": 0.75}, {"name": "mountHeight", "type": "int", "value": 2}, {"name": "schedule", "type": "string", "value": "always"}, {"name": "flicker", "type": "bool", "value": true}], "point": true}, {"id": 33, "name": "study_17", "type": "Trigger", "x": 912, "y": 3264, "width": 0, "height": 0, "rotation": 0, "visible": true, "properties": [{"name": "once", "type": "bool", "value": true}, {"name": "safe", "type": "bool", "value": false}], "point": true}, {"id": 34, "name": "lamp_33", "type": "Light", "x": 912, "y": 3408, "width": 0, "height": 0, "rotation": 0, "visible": true, "properties": [{"name": "color", "type": "string", "value": "#ffd591"}, {"name": "radius", "type": "int", "value": 6}, {"name": "intensity", "type": "float", "value": 0.75}, {"name": "mountHeight", "type": "int", "value": 2}, {"name": "schedule", "type": "string", "value": "always"}, {"name": "flicker", "type": "bool", "value": true}], "point": true}, {"id": 35, "name": "study_18", "type": "Trigger", "x": 1344, "y": 3264, "width": 0, "height": 0, "rotation": 0, "visible": true, "properties": [{"name": "once", "type": "bool", "value": true}, {"name": "safe", "type": "bool", "value": false}], "point": true}, {"id": 36, "name": "lamp_35", "type": "Light", "x": 1344, "y": 3408, "width": 0, "height": 0, "rotation": 0, "visible": true, "properties": [{"name": "color", "type": "string", "value": "#ffd591"}, {"name": "radius", "type": "int", "value": 6}, {"name": "intensity", "type": "float", "value": 0.75}, {"name": "mountHeight", "type": "int", "value": 2}, {"name": "schedule", "type": "string", "value": "always"}, {"name": "flicker", "type": "bool", "value": true}], "point": true}, {"id": 37, "name": "study_19", "type": "Trigger", "x": 1776, "y": 3264, "width": 0, "height": 0, "rotation": 0, "visible": true, "properties": [{"name": "once", "type": "bool", "value": true}, {"name": "safe", "type": "bool", "value": false}], "point": true}, {"id": 38, "name": "lamp_37", "type": "Light", "x": 1776, "y": 3408, "width": 0, "height": 0, "rotation": 0, "visible": true, "properties": [{"name": "color", "type": "string", "value": "#ffd591"}, {"name": "radius", "type": "int", "value": 6}, {"name": "intensity", "type": "float", "value": 0.75}, {"name": "mountHeight", "type": "int", "value": 2}, {"name": "schedule", "type": "string", "value": "always"}, {"name": "flicker", "type": "bool", "value": true}], "point": true}, {"id": 39, "name": "study_20", "type": "Trigger", "x": 2208, "y": 3264, "width": 0, "height": 0, "rotation": 0, "visible": true, "properties": [{"name": "once", "type": "bool", "value": true}, {"name": "safe", "type": "bool", "value": false}], "point": true}, {"id": 40, "name": "lamp_39", "type": "Light", "x": 2208, "y": 3408, "width": 0, "height": 0, "rotation": 0, "visible": true, "properties": [{"name": "color", "type": "string", "value": "#ffd591"}, {"name": "radius", "type": "int", "value": 6}, {"name": "intensity", "type": "float", "value": 0.75}, {"name": "mountHeight", "type": "int", "value": 2}, {"name": "schedule", "type": "string", "value": "always"}, {"name": "flicker", "type": "bool", "value": true}], "point": true}, {"id": 41, "name": "study_21", "type": "Trigger", "x": 2640, "y": 3264, "width": 0, "height": 0, "rotation": 0, "visible": true, "properties": [{"name": "once", "type": "bool", "value": true}, {"name": "safe", "type": "bool", "value": false}], "point": true}, {"id": 42, "name": "lamp_41", "type": "Light", "x": 2640, "y": 3408, "width": 0, "height": 0, "rotation": 0, "visible": true, "properties": [{"name": "color", "type": "string", "value": "#ffd591"}, {"name": "radius", "type": "int", "value": 6}, {"name": "intensity", "type": "float", "value": 0.75}, {"name": "mountHeight", "type": "int", "value": 2}, {"name": "schedule", "type": "string", "value": "always"}, {"name": "flicker", "type": "bool", "value": true}], "point": true}, {"id": 43, "name": "study_22", "type": "Trigger", "x": 3072, "y": 3264, "width": 0, "height": 0, "rotation": 0, "visible": true, "properties": [{"name": "once", "type": "bool", "value": true}, {"name": "safe", "type": "bool", "value": false}], "point": true}, {"id": 44, "name": "lamp_43", "type": "Light", "x": 3072, "y": 3408, "width": 0, "height": 0, "rotation": 0, "visible": true, "properties": [{"name": "color", "type": "string", "value": "#ffd591"}, {"name": "radius", "type": "int", "value": 6}, {"name": "intensity", "type": "float", "value": 0.75}, {"name": "mountHeight", "type": "int", "value": 2}, {"name": "schedule", "type": "string", "value": "always"}, {"name": "flicker", "type": "bool", "value": true}], "point": true}, {"id": 45, "name": "study_23", "type": "Trigger", "x": 3504, "y": 3264, "width": 0, "height": 0, "rotation": 0, "visible": true, "properties": [{"name": "once", "type": "bool", "value": true}, {"name": "safe", "type": "bool", "value": false}], "point": true}, {"id": 46, "name": "lamp_45", "type": "Light", "x": 3504, "y": 3408, "width": 0, "height": 0, "rotation": 0, "visible": true, "properties": [{"name": "color", "type": "string", "value": "#ffd591"}, {"name": "radius", "type": "int", "value": 6}, {"name": "intensity", "type": "float", "value": 0.75}, {"name": "mountHeight", "type": "int", "value": 2}, {"name": "schedule", "type": "string", "value": "always"}, {"name": "flicker", "type": "bool", "value": true}], "point": true}, {"id": 47, "name": "study_24", "type": "Trigger", "x": 3936, "y": 3264, "width": 0, "height": 0, "rotation": 0, "visible": true, "properties": [{"name": "once", "type": "bool", "value": true}, {"name": "safe", "type": "bool", "value": false}], "point": true}, {"id": 48, "name": "lamp_47", "type": "Light", "x": 3936, "y": 3408, "width": 0, "height": 0, "rotation": 0, "visible": true, "properties": [{"name": "color", "type": "string", "value": "#ffd591"}, {"name": "radius", "type": "int", "value": 6}, {"name": "intensity", "type": "float", "value": 0.75}, {"name": "mountHeight", "type": "int", "value": 2}, {"name": "schedule", "type": "string", "value": "always"}, {"name": "flicker", "type": "bool", "value": true}], "point": true}, {"id": 49, "name": "entry", "type": "PlayerSpawn", "x": 336, "y": 2304, "width": 0, "height": 0, "rotation": 0, "visible": true, "properties": [{"name": "safe", "type": "bool", "value": true}, {"name": "entry", "type": "bool", "value": true}, {"name": "facing", "type": "int", "value": 0}], "point": true}, {"id": 50, "name": "return_exit", "type": "Trigger", "x": 336, "y": 2304, "width": 0, "height": 0, "rotation": 0, "visible": true, "properties": [{"name": "once", "type": "bool", "value": false}, {"name": "safe", "type": "bool", "value": true}], "point": true}, {"id": 51, "name": "core_inspect", "type": "Trigger", "x": 3936, "y": 3360, "width": 0, "height": 0, "rotation": 0, "visible": true, "properties": [{"name": "once", "type": "bool", "value": true}, {"name": "safe", "type": "bool", "value": false}], "point": true}, {"id": 52, "name": "reward_inspect", "type": "Trigger", "x": 4032, "y": 3456, "width": 0, "height": 0, "rotation": 0, "visible": true, "properties": [{"name": "once", "type": "bool", "value": true}, {"name": "safe", "type": "bool", "value": false}], "point": true}]}
  ]
}
